; generated by PrusaSlicer 2.2.0+win64 on 2020-11-07 at 02:48:13 UTC


;
;

;
;
; 

; external perimeters extrusion width = 0.45mm
; perimeters extrusion width = 0.45mm
; infill extrusion width = 0.45mm
; solid infill extrusion width = 0.45mm
; top infill extrusion width = 0.40mm
; first layer extrusion width = 0.42mm

M73 P0 R14
M201 X1250 Y1250 Z400 E5000 ; sets maximum accelerations, mm/sec^2
M203 X180 Y180 Z12 E80 ; sets maximum feedrates, mm/sec
M204 P1250 R1250 T1250 ; sets acceleration (P, T) and retract acceleration (R), mm/sec^2
M205 X8.00 Y8.00 Z2.00 E10.00 ; sets the jerk limits, mm/sec
M205 S0 T0 ; sets the minimum extruding and travel feed rate, mm/sec
M107
G90 ; use absolute coordinates
M83 ; extruder relative mode
M104 S170 ; set extruder temp for bed leveling
M140 S60 ; set bed temp
M109 R170 ; wait for bed leveling temp
M190 S60 ; wait for bed temp
G28 ; home all without mesh bed level
G29 ; mesh bed leveling 
M104 S215 ; set extruder temp
G92 E0.0
G1 Y-2.0 X179 F2400
G1 Z3 F720
M109 S215 ; wait for extruder temp

; intro line
G1 X170 F1000
G1 Z0.2 F720
G1 X110.0 E8.0 F900
M73 P1 R14
G1 X40.0 E10.0 F700
G92 E0.0

M221 S95 ; set flow
G21 ; set units to millimeters
G90 ; use absolute coordinates
M83 ; use relative distances for extrusion
M900 K0.2 ; Filament gcode LA 1.5
; ; Filament gcode LA 1.0
;BEFORE_LAYER_CHANGE
G92 E0.0
;0.2


G1 Z0.200 F9000.000
;AFTER_LAYER_CHANGE
;0.2
G1 E-3.20000 F4200.00000
G1 Z0.400 F9000.000
G1 X82.937 Y81.554
G1 Z0.200
G1 E3.20000 F2400.00000
M204 S800
G1 F900
G1 X83.915 Y80.748 E0.03972
G1 X84.987 Y80.172 E0.03815
G1 X86.215 Y79.796 E0.04028
G1 X87.439 Y79.675 E0.03856
G1 X88.697 Y79.798 E0.03965
G1 X89.862 Y80.148 E0.03813
G1 X90.997 Y80.753 E0.04031
G1 X91.946 Y81.531 E0.03850
G1 X92.761 Y82.526 E0.04032
G1 X93.332 Y83.599 E0.03812
G1 X93.701 Y84.823 E0.04008
G1 X93.819 Y86.041 E0.03837
G1 X93.689 Y87.317 E0.04020
G1 X93.330 Y88.487 E0.03838
G1 X92.758 Y89.559 E0.03810
G1 X91.942 Y90.554 E0.04034
G1 X90.947 Y91.362 E0.04020
G1 X89.868 Y91.930 E0.03822
G1 X88.638 Y92.295 E0.04022
G1 X87.434 Y92.406 E0.03793
G1 X86.210 Y92.284 E0.03855
G1 X84.977 Y91.905 E0.04045
G1 X83.907 Y91.327 E0.03813
G1 X82.920 Y90.510 E0.04018
G1 X82.127 Y89.527 E0.03961
G1 X81.554 Y88.433 E0.03874
G1 X81.207 Y87.268 E0.03811
G1 X81.087 Y86.002 E0.03986
G1 X81.210 Y84.793 E0.03810
G1 X81.561 Y83.630 E0.03810
G1 X82.152 Y82.516 E0.03952
G1 X82.899 Y81.600 E0.03707
M204 S1250
G1 X83.190 Y81.837 F9000.000
M204 S800
G1 F900
G1 X84.123 Y81.063 E0.03802
G1 X85.131 Y80.520 E0.03591
G1 X86.286 Y80.167 E0.03787
G1 X87.438 Y80.052 E0.03628
G1 X88.622 Y80.167 E0.03729
G1 X89.717 Y80.496 E0.03586
G1 X90.785 Y81.064 E0.03792
G1 X91.679 Y81.797 E0.03624
G1 X92.447 Y82.736 E0.03806
G1 X92.983 Y83.742 E0.03573
G1 X93.331 Y84.897 E0.03783
G1 X93.442 Y86.044 E0.03611
G1 X93.319 Y87.243 E0.03780
G1 X92.983 Y88.340 E0.03599
G1 X92.445 Y89.349 E0.03583
G1 X91.677 Y90.285 E0.03798
G1 X90.738 Y91.048 E0.03794
G1 X89.723 Y91.582 E0.03596
G1 X88.566 Y91.925 E0.03783
G1 X87.433 Y92.029 E0.03569
G1 X86.286 Y91.914 E0.03614
G1 X85.126 Y91.559 E0.03805
G1 X84.119 Y91.015 E0.03587
G1 X83.187 Y90.244 E0.03793
G1 X82.440 Y89.316 E0.03735
G1 X81.902 Y88.289 E0.03635
G1 X81.577 Y87.197 E0.03571
G1 X81.464 Y86.002 E0.03765
G1 X81.580 Y84.869 E0.03570
G1 X81.909 Y83.775 E0.03583
G1 X82.467 Y82.724 E0.03730
G1 X83.152 Y81.884 E0.03398
M204 S1250
G1 X83.442 Y82.121 F9000.000
M204 S800
G1 F900
G1 X84.335 Y81.375 E0.03647
G1 X85.276 Y80.868 E0.03354
G1 X86.362 Y80.536 E0.03560
G1 X87.437 Y80.429 E0.03387
G1 X88.550 Y80.537 E0.03507
G1 X89.572 Y80.845 E0.03346
G1 X90.576 Y81.379 E0.03566
G1 X91.411 Y82.063 E0.03384
G1 X92.132 Y82.943 E0.03566
G1 X92.634 Y83.885 E0.03348
G1 X92.961 Y84.971 E0.03556
G1 X93.065 Y86.042 E0.03373
G1 X92.954 Y87.145 E0.03477
G1 X92.635 Y88.194 E0.03437
G1 X92.133 Y89.136 E0.03348
G1 X91.412 Y90.017 E0.03570
G1 X90.529 Y90.734 E0.03566
G1 X89.578 Y91.234 E0.03370
G1 X88.490 Y91.555 E0.03558
G1 X87.432 Y91.652 E0.03331
G1 X86.361 Y91.545 E0.03374
G1 X85.270 Y91.210 E0.03578
G1 X84.330 Y90.703 E0.03349
G1 X83.454 Y89.977 E0.03567
G1 X82.755 Y89.109 E0.03496
G1 X82.251 Y88.145 E0.03410
G1 X81.947 Y87.122 E0.03345
G1 X81.841 Y86.001 E0.03530
G1 X81.953 Y84.928 E0.03382
G1 X82.274 Y83.880 E0.03439
G1 X82.786 Y82.924 E0.03400
G1 X83.404 Y82.168 E0.03062
M204 S1250
G1 X83.695 Y82.404 F9000.000
M204 S800
G1 F900
G1 X84.537 Y81.694 E0.03454
G1 X85.418 Y81.218 E0.03141
G1 X86.438 Y80.905 E0.03344
G1 X87.437 Y80.806 E0.03147
G1 X88.475 Y80.907 E0.03272
G1 X89.428 Y81.193 E0.03119
G1 X90.348 Y81.680 E0.03262
G1 X91.144 Y82.329 E0.03222
G1 X91.819 Y83.153 E0.03339
G1 X92.285 Y84.029 E0.03111
G1 X92.578 Y84.978 E0.03116
G1 X92.687 Y86.040 E0.03346
G1 X92.585 Y87.071 E0.03249
G1 X92.289 Y88.044 E0.03189
G1 X91.822 Y88.924 E0.03122
G1 X91.147 Y89.749 E0.03344
G1 X90.320 Y90.420 E0.03337
G1 X89.440 Y90.883 E0.03119
G1 X88.495 Y91.170 E0.03096
G1 X87.442 Y91.275 E0.03318
G1 X86.436 Y91.175 E0.03170
G1 X85.418 Y90.863 E0.03338
G1 X84.541 Y90.390 E0.03123
G1 X83.724 Y89.714 E0.03327
G1 X83.070 Y88.902 E0.03269
G1 X82.601 Y88.005 E0.03173
G1 X82.318 Y87.056 E0.03106
G1 X82.219 Y86.005 E0.03309
G1 X82.320 Y85.016 E0.03117
G1 X82.606 Y84.064 E0.03115
G1 X83.093 Y83.145 E0.03263
G1 X83.657 Y82.451 E0.02804
M204 S1250
G1 E-2.24000 F4200.00000
G1 F7200.000
G1 X84.537 Y81.694 E-0.64315
G1 X84.964 Y81.463 E-0.26885
G1 E-0.04800 F4200.00000
G1 Z0.400 F9000.000
G1 X85.810 Y84.415
G1 Z0.200
G1 E3.20000 F2400.00000
M204 S800
G1 F900
G1 X86.142 Y84.137 E0.01357
G1 X86.570 Y83.905 E0.01526
G1 X86.977 Y83.779 E0.01336
G1 X87.405 Y83.730 E0.01353
G1 X87.890 Y83.771 E0.01526
G1 X88.299 Y83.890 E0.01336
G1 X88.684 Y84.085 E0.01353
G1 X89.067 Y84.386 E0.01526
G1 X89.347 Y84.716 E0.01357
G1 X89.582 Y85.142 E0.01526
G1 X89.712 Y85.555 E0.01357
G1 X89.764 Y86.041 E0.01530
G1 X89.712 Y86.526 E0.01530
G1 X89.583 Y86.937 E0.01353
G1 X89.382 Y87.313 E0.01336
G1 X89.073 Y87.689 E0.01526
G1 X88.738 Y87.961 E0.01353
G1 X88.363 Y88.165 E0.01336
G1 X87.899 Y88.308 E0.01526
G1 X87.468 Y88.352 E0.01357
G1 X86.983 Y88.303 E0.01526
G1 X86.571 Y88.177 E0.01353
G1 X86.194 Y87.978 E0.01336
G1 X85.816 Y87.672 E0.01526
G1 X85.541 Y87.339 E0.01353
G1 X85.335 Y86.966 E0.01336
G1 X85.188 Y86.502 E0.01526
G1 X85.142 Y86.073 E0.01353
G1 X85.175 Y85.648 E0.01336
G1 X85.308 Y85.180 E0.01526
G1 X85.506 Y84.795 E0.01357
G1 X85.773 Y84.462 E0.01338
M204 S1250
G1 X85.703 Y84.030 F9000.000
G1 X85.525 Y84.232
M204 S800
G1 F900
G1 X85.609 Y84.141 E0.00388
G1 X85.995 Y83.831 E0.01551
G1 X86.231 Y83.692 E0.00859
G1 X86.480 Y83.579 E0.00859
G1 X86.955 Y83.441 E0.01551
G1 X87.227 Y83.403 E0.00860
G1 X87.494 Y83.394 E0.00836
G1 X87.989 Y83.449 E0.01561
G1 X88.454 Y83.590 E0.01524
G1 X88.889 Y83.817 E0.01538
G1 X89.111 Y83.977 E0.00859
G1 X89.315 Y84.160 E0.00859
G1 X89.633 Y84.539 E0.01551
G1 X89.777 Y84.773 E0.00859
G1 X89.895 Y85.020 E0.00859
G1 X90.042 Y85.492 E0.01551
G1 X90.085 Y85.763 E0.00859
G1 X90.100 Y86.041 E0.00872
G1 X90.085 Y86.318 E0.00872
G1 X90.042 Y86.589 E0.00859
G1 X89.895 Y87.061 E0.01551
G1 X89.777 Y87.309 E0.00860
G1 X89.637 Y87.536 E0.00836
G1 X89.315 Y87.921 E0.01574
G1 X89.111 Y88.104 E0.00859
G1 X88.895 Y88.260 E0.00836
G1 X88.450 Y88.493 E0.01574
G1 X88.191 Y88.583 E0.00859
G1 X87.931 Y88.644 E0.00836
G1 X87.435 Y88.687 E0.01561
G1 X86.947 Y88.639 E0.01538
G1 X86.681 Y88.573 E0.00859
G1 X86.424 Y88.479 E0.00859
G1 X85.988 Y88.245 E0.01551
G1 X85.768 Y88.082 E0.00859
G1 X85.566 Y87.897 E0.00859
G1 X85.253 Y87.513 E0.01551
G1 X85.113 Y87.278 E0.00859
G1 X84.996 Y87.025 E0.00872
G1 X84.906 Y86.762 E0.00872
G1 X84.845 Y86.495 E0.00859
G1 X84.806 Y86.006 E0.01538
G1 X84.858 Y85.518 E0.01538
G1 X84.926 Y85.252 E0.00859
G1 X85.021 Y84.995 E0.00859
G1 X85.258 Y84.561 E0.01551
G1 X85.484 Y84.276 E0.01142
M204 S1250
G1 X85.647 Y84.253 F9000.000
M106 S255
;BEFORE_LAYER_CHANGE
G92 E0.0
;0.35


G1 Z0.350 F9000.000
;AFTER_LAYER_CHANGE
;0.35
G1 E-3.20000 F4200.00000
G1 Z0.550 F9000.000
G1 X82.937 Y81.554
G1 Z0.350
G1 E3.20000 F2400.00000
G1 F900
G1 X83.915 Y80.748 E0.03064
G1 X84.987 Y80.172 E0.02943
G1 X86.215 Y79.796 E0.03107
G1 X87.439 Y79.675 E0.02974
G1 X88.697 Y79.798 E0.03058
G1 X89.862 Y80.148 E0.02941
G1 X90.997 Y80.753 E0.03110
G1 X91.946 Y81.531 E0.02969
G1 X92.761 Y82.526 E0.03110
G1 X93.332 Y83.599 E0.02940
G1 X93.701 Y84.823 E0.03092
G1 X93.819 Y86.041 E0.02959
G1 X93.689 Y87.317 E0.03101
G1 X93.330 Y88.487 E0.02960
G1 X92.758 Y89.559 E0.02939
G1 X91.942 Y90.554 E0.03112
G1 X90.947 Y91.362 E0.03101
G1 X89.868 Y91.930 E0.02948
G1 X88.638 Y92.295 E0.03102
G1 X87.434 Y92.406 E0.02926
G1 X86.210 Y92.284 E0.02974
G1 X84.977 Y91.905 E0.03120
G1 X83.907 Y91.327 E0.02941
G1 X82.920 Y90.510 E0.03099
G1 X82.127 Y89.527 E0.03055
G1 X81.554 Y88.433 E0.02988
G1 X81.207 Y87.268 E0.02940
G1 X81.087 Y86.002 E0.03074
G1 X81.210 Y84.793 E0.02939
G1 X81.561 Y83.630 E0.02939
G1 X82.152 Y82.516 E0.03048
G1 X82.899 Y81.600 E0.02860
G1 X83.190 Y81.837 F9000.000
G1 F900
G1 X84.123 Y81.063 E0.02932
G1 X85.131 Y80.520 E0.02770
G1 X86.286 Y80.167 E0.02921
G1 X87.438 Y80.052 E0.02799
G1 X88.622 Y80.167 E0.02876
G1 X89.717 Y80.496 E0.02766
G1 X90.785 Y81.064 E0.02925
G1 X91.679 Y81.797 E0.02795
G1 X92.447 Y82.736 E0.02936
G1 X92.983 Y83.742 E0.02756
G1 X93.331 Y84.897 E0.02918
G1 X93.442 Y86.044 E0.02786
G1 X93.319 Y87.243 E0.02916
G1 X92.983 Y88.340 E0.02776
G1 X92.445 Y89.349 E0.02764
G1 X91.677 Y90.285 E0.02929
G1 X90.738 Y91.048 E0.02926
G1 X89.723 Y91.582 E0.02774
G1 X88.566 Y91.925 E0.02918
G1 X87.433 Y92.029 E0.02753
G1 X86.286 Y91.914 E0.02788
G1 X85.126 Y91.559 E0.02935
G1 X84.119 Y91.015 E0.02767
G1 X83.187 Y90.244 E0.02926
G1 X82.440 Y89.316 E0.02881
G1 X81.902 Y88.289 E0.02804
G1 X81.577 Y87.197 E0.02754
G1 X81.464 Y86.002 E0.02904
G1 X81.580 Y84.869 E0.02754
G1 X81.909 Y83.775 E0.02764
G1 X82.467 Y82.724 E0.02877
G1 X83.152 Y81.884 E0.02621
G1 X83.442 Y82.121 F9000.000
G1 F900
G1 X84.335 Y81.375 E0.02813
G1 X85.276 Y80.868 E0.02587
G1 X86.362 Y80.536 E0.02746
G1 X87.437 Y80.429 E0.02613
G1 X88.550 Y80.537 E0.02705
G1 X89.572 Y80.845 E0.02581
G1 X90.576 Y81.379 E0.02750
G1 X91.411 Y82.063 E0.02610
G1 X92.132 Y82.943 E0.02751
G1 X92.634 Y83.885 E0.02583
G1 X92.961 Y84.971 E0.02743
G1 X93.065 Y86.042 E0.02601
G1 X92.954 Y87.145 E0.02682
G1 X92.635 Y88.194 E0.02651
G1 X92.133 Y89.136 E0.02582
G1 X91.412 Y90.017 E0.02754
G1 X90.529 Y90.734 E0.02751
G1 X89.578 Y91.234 E0.02599
G1 X88.490 Y91.555 E0.02744
G1 X87.432 Y91.652 E0.02569
G1 X86.361 Y91.545 E0.02602
G1 X85.270 Y91.210 E0.02760
G1 X84.330 Y90.703 E0.02583
G1 X83.454 Y89.977 E0.02751
G1 X82.755 Y89.109 E0.02697
G1 X82.251 Y88.145 E0.02630
G1 X81.947 Y87.122 E0.02580
G1 X81.841 Y86.001 E0.02723
G1 X81.953 Y84.928 E0.02609
G1 X82.274 Y83.880 E0.02653
G1 X82.786 Y82.924 E0.02622
G1 X83.404 Y82.168 E0.02362
G1 X83.695 Y82.404 F9000.000
G1 F900
G1 X84.537 Y81.694 E0.02664
G1 X85.418 Y81.218 E0.02423
G1 X86.438 Y80.905 E0.02579
G1 X87.437 Y80.806 E0.02428
G1 X88.475 Y80.907 E0.02524
G1 X89.428 Y81.193 E0.02406
G1 X90.348 Y81.680 E0.02516
G1 X91.144 Y82.329 E0.02485
G1 X91.819 Y83.153 E0.02575
G1 X92.285 Y84.029 E0.02400
G1 X92.578 Y84.978 E0.02404
G1 X92.687 Y86.040 E0.02581
G1 X92.585 Y87.071 E0.02506
G1 X92.289 Y88.044 E0.02459
G1 X91.822 Y88.924 E0.02408
G1 X91.147 Y89.749 E0.02579
G1 X90.320 Y90.420 E0.02574
G1 X89.440 Y90.883 E0.02406
G1 X88.495 Y91.170 E0.02388
G1 X87.442 Y91.275 E0.02559
G1 X86.436 Y91.175 E0.02445
G1 X85.418 Y90.863 E0.02575
G1 X84.541 Y90.390 E0.02409
G1 X83.724 Y89.714 E0.02567
G1 X83.070 Y88.902 E0.02521
G1 X82.601 Y88.005 E0.02448
G1 X82.318 Y87.056 E0.02396
G1 X82.219 Y86.005 E0.02552
G1 X82.320 Y85.016 E0.02405
G1 X82.606 Y84.064 E0.02403
G1 X83.093 Y83.145 E0.02517
G1 X83.657 Y82.451 E0.02163
G1 E-2.24000 F4200.00000
G1 F7200.000
G1 X84.537 Y81.694 E-0.64315
G1 X84.964 Y81.463 E-0.26885
G1 E-0.04800 F4200.00000
G1 Z0.550 F9000.000
G1 X85.797 Y84.407
G1 Z0.350
G1 E3.20000 F2400.00000
M204 S800
G1 F900
G1 X86.139 Y84.121 E0.01160
G1 X86.561 Y83.892 E0.01252
G1 X86.971 Y83.765 E0.01119
G1 X87.412 Y83.715 E0.01157
G1 X87.891 Y83.756 E0.01252
G1 X88.303 Y83.876 E0.01119
G1 X88.699 Y84.077 E0.01156
G1 X89.077 Y84.375 E0.01253
G1 X89.364 Y84.715 E0.01160
G1 X89.596 Y85.136 E0.01253
G1 X89.729 Y85.561 E0.01160
G1 X89.779 Y86.041 E0.01256
G1 X89.729 Y86.520 E0.01256
G1 X89.596 Y86.944 E0.01156
G1 X89.394 Y87.322 E0.01119
G1 X89.089 Y87.694 E0.01252
G1 X88.745 Y87.974 E0.01156
G1 X88.368 Y88.179 E0.01119
G1 X87.909 Y88.321 E0.01252
G1 X87.466 Y88.367 E0.01160
G1 X86.987 Y88.319 E0.01253
G1 X86.563 Y88.189 E0.01156
G1 X86.183 Y87.989 E0.01119
G1 X85.809 Y87.687 E0.01252
G1 X85.527 Y87.344 E0.01157
G1 X85.320 Y86.968 E0.01119
G1 X85.175 Y86.510 E0.01252
G1 X85.127 Y86.067 E0.01160
G1 X85.171 Y85.589 E0.01252
G1 X85.293 Y85.177 E0.01119
G1 X85.496 Y84.783 E0.01157
G1 X85.759 Y84.454 E0.01097
M204 S1250
G1 X85.690 Y84.022 F9000.000
G1 X85.534 Y84.244
M204 S800
G1 F900
G1 X85.619 Y84.152 E0.00327
G1 X86.003 Y83.844 E0.01283
G1 X86.238 Y83.706 E0.00709
G1 X86.486 Y83.593 E0.00709
G1 X86.959 Y83.455 E0.01283
G1 X87.229 Y83.418 E0.00710
G1 X87.486 Y83.409 E0.00672
G1 X87.981 Y83.462 E0.01296
G1 X88.448 Y83.604 E0.01272
G1 X88.881 Y83.830 E0.01272
G1 X89.102 Y83.989 E0.00709
G1 X89.305 Y84.170 E0.00709
G1 X89.621 Y84.548 E0.01283
G1 X89.763 Y84.780 E0.00709
G1 X89.881 Y85.025 E0.00709
G1 X90.028 Y85.495 E0.01283
G1 X90.071 Y85.764 E0.00709
G1 X90.085 Y86.041 E0.00721
G1 X90.071 Y86.317 E0.00721
G1 X90.028 Y86.586 E0.00709
G1 X89.881 Y87.056 E0.01283
G1 X89.763 Y87.302 E0.00710
G1 X89.629 Y87.522 E0.00672
G1 X89.308 Y87.908 E0.01308
G1 X89.102 Y88.092 E0.00721
G1 X88.881 Y88.251 E0.00709
G1 X88.444 Y88.479 E0.01283
G1 X88.187 Y88.568 E0.00709
G1 X87.922 Y88.630 E0.00709
G1 X87.436 Y88.672 E0.01272
G1 X86.950 Y88.624 E0.01272
G1 X86.686 Y88.558 E0.00709
G1 X86.430 Y88.466 E0.00709
G1 X85.996 Y88.232 E0.01283
G1 X85.777 Y88.070 E0.00709
G1 X85.577 Y87.886 E0.00709
G1 X85.266 Y87.504 E0.01283
G1 X85.126 Y87.271 E0.00709
G1 X85.010 Y87.020 E0.00721
G1 X84.920 Y86.758 E0.00721
G1 X84.860 Y86.492 E0.00709
G1 X84.822 Y86.006 E0.01272
G1 X84.873 Y85.521 E0.01272
G1 X84.940 Y85.257 E0.00709
G1 X85.035 Y85.002 E0.00709
G1 X85.271 Y84.569 E0.01283
G1 X85.493 Y84.288 E0.00934
M204 S1250
G1 X85.658 Y84.265 F9000.000
;BEFORE_LAYER_CHANGE
G92 E0.0
;0.5


G1 Z0.500 F9000.000
;AFTER_LAYER_CHANGE
;0.5
G1 E-3.20000 F4200.00000
G1 Z0.700 F9000.000
G1 X82.937 Y81.554
G1 Z0.500
G1 E3.20000 F2400.00000
G1 F900
G1 X83.915 Y80.748 E0.03064
G1 X84.987 Y80.172 E0.02943
G1 X86.215 Y79.796 E0.03107
G1 X87.439 Y79.675 E0.02974
G1 X88.697 Y79.798 E0.03058
G1 X89.862 Y80.148 E0.02941
G1 X90.997 Y80.753 E0.03110
G1 X91.946 Y81.531 E0.02969
G1 X92.761 Y82.526 E0.03110
G1 X93.332 Y83.599 E0.02940
G1 X93.701 Y84.823 E0.03092
G1 X93.819 Y86.041 E0.02959
G1 X93.689 Y87.317 E0.03101
G1 X93.330 Y88.487 E0.02960
G1 X92.758 Y89.559 E0.02939
G1 X91.942 Y90.554 E0.03112
G1 X90.947 Y91.362 E0.03101
G1 X89.868 Y91.930 E0.02948
G1 X88.638 Y92.295 E0.03102
G1 X87.434 Y92.406 E0.02926
G1 X86.210 Y92.284 E0.02974
G1 X84.977 Y91.905 E0.03120
G1 X83.907 Y91.327 E0.02941
G1 X82.920 Y90.510 E0.03099
G1 X82.127 Y89.527 E0.03055
G1 X81.554 Y88.433 E0.02988
G1 X81.207 Y87.268 E0.02940
G1 X81.087 Y86.002 E0.03074
G1 X81.210 Y84.793 E0.02939
G1 X81.561 Y83.630 E0.02939
G1 X82.152 Y82.516 E0.03048
G1 X82.899 Y81.600 E0.02860
G1 X83.190 Y81.837 F9000.000
G1 F900
G1 X84.123 Y81.063 E0.02932
G1 X85.131 Y80.520 E0.02770
G1 X86.286 Y80.167 E0.02921
G1 X87.438 Y80.052 E0.02799
G1 X88.622 Y80.167 E0.02876
G1 X89.717 Y80.496 E0.02766
G1 X90.785 Y81.064 E0.02925
G1 X91.679 Y81.797 E0.02795
G1 X92.447 Y82.736 E0.02936
G1 X92.983 Y83.742 E0.02756
G1 X93.331 Y84.897 E0.02918
G1 X93.442 Y86.044 E0.02786
G1 X93.319 Y87.243 E0.02916
G1 X92.983 Y88.340 E0.02776
G1 X92.445 Y89.349 E0.02764
G1 X91.677 Y90.285 E0.02929
G1 X90.738 Y91.048 E0.02926
G1 X89.723 Y91.582 E0.02774
G1 X88.566 Y91.925 E0.02918
G1 X87.433 Y92.029 E0.02753
G1 X86.286 Y91.914 E0.02788
