; generated by PrusaSlicer 2.2.0+win64 on 2020-11-07 at 02:49:50 UTC


;
;

;
;
; 

; external perimeters extrusion width = 0.45mm
; perimeters extrusion width = 0.45mm
; infill extrusion width = 0.45mm
; solid infill extrusion width = 0.45mm
; top infill extrusion width = 0.40mm
; first layer extrusion width = 0.42mm

M73 P0 R39
M201 X1250 Y1250 Z400 E5000 ; sets maximum accelerations, mm/sec^2
M203 X180 Y180 Z12 E80 ; sets maximum feedrates, mm/sec
M204 P1250 R1250 T1250 ; sets acceleration (P, T) and retract acceleration (R), mm/sec^2
M205 X8.00 Y8.00 Z2.00 E10.00 ; sets the jerk limits, mm/sec
M205 S0 T0 ; sets the minimum extruding and travel feed rate, mm/sec
M107
G90 ; use absolute coordinates
M83 ; extruder relative mode
M104 S170 ; set extruder temp for bed leveling
M140 S60 ; set bed temp
M109 R170 ; wait for bed leveling temp
M190 S60 ; wait for bed temp
G28 ; home all without mesh bed level
G29 ; mesh bed leveling 
M104 S215 ; set extruder temp
G92 E0.0
G1 Y-2.0 X179 F2400
G1 Z3 F720
M109 S215 ; wait for extruder temp

; intro line
G1 X170 F1000
G1 Z0.2 F720
G1 X110.0 E8.0 F900
M73 P0 R39
G1 X40.0 E10.0 F700
G92 E0.0

M221 S95 ; set flow
G21 ; set units to millimeters
G90 ; use absolute coordinates
M83 ; use relative distances for extrusion
M900 K0.2 ; Filament gcode LA 1.5
; ; Filament gcode LA 1.0
;BEFORE_LAYER_CHANGE
G92 E0.0
;0.2


G1 Z0.200 F9000.000
;AFTER_LAYER_CHANGE
;0.2
G1 E-3.20000 F4200.00000
G1 Z0.400 F9000.000
G1 X85.605 Y85.779
G1 Z0.200
G1 E3.20000 F2400.00000
M204 S800
G1 F900
G1 X86.464 Y85.035 E0.03563
G1 X87.540 Y84.423 E0.03881
G1 X88.686 Y84.048 E0.03781
G1 X89.948 Y83.905 E0.03982
G1 X91.126 Y84.009 E0.03708
G1 X92.300 Y84.355 E0.03838
G1 X93.374 Y84.923 E0.03810
G1 X94.314 Y85.693 E0.03809
G1 X95.093 Y86.650 E0.03867
G1 X95.652 Y87.718 E0.03781
G1 X95.995 Y88.898 E0.03852
G1 X96.094 Y90.035 E0.03579
G1 X95.953 Y91.311 E0.04025
G1 X95.599 Y92.405 E0.03607
G1 X95.150 Y93.258 E0.03020
G1 X94.405 Y94.212 E0.03794
G1 X93.544 Y94.960 E0.03578
G1 X92.477 Y95.570 E0.03853
G1 X91.332 Y95.948 E0.03781
G1 X90.098 Y96.095 E0.03896
G1 X88.892 Y95.994 E0.03795
G1 X87.717 Y95.652 E0.03838
G1 X86.633 Y95.082 E0.03839
G1 X85.696 Y94.316 E0.03795
G1 X84.910 Y93.354 E0.03896
G1 X84.349 Y92.286 E0.03780
G1 X84.006 Y91.107 E0.03853
G1 X83.906 Y89.965 E0.03593
G1 X84.048 Y88.685 E0.04040
G1 X84.403 Y87.590 E0.03606
G1 X84.852 Y86.738 E0.03021
G1 X85.568 Y85.826 E0.03635
M204 S1250
G1 X85.862 Y86.056 F9000.000
M204 S800
G1 F900
G1 X86.676 Y85.346 E0.03385
G1 X87.685 Y84.771 E0.03641
G1 X88.764 Y84.417 E0.03560
G1 X89.948 Y84.282 E0.03737
G1 X91.053 Y84.379 E0.03478
G1 X92.155 Y84.703 E0.03601
G1 X93.166 Y85.238 E0.03587
G1 X94.047 Y85.960 E0.03573
G1 X94.780 Y86.861 E0.03642
G1 X95.304 Y87.863 E0.03546
G1 X95.625 Y88.970 E0.03614
G1 X95.717 Y90.037 E0.03356
G1 X95.596 Y91.170 E0.03572
G1 X95.348 Y92.021 E0.02781
G1 X94.876 Y92.988 E0.03373
G1 X94.138 Y93.946 E0.03791
G1 X93.327 Y94.651 E0.03369
G1 X92.327 Y95.224 E0.03614
G1 X91.253 Y95.580 E0.03546
G1 X90.096 Y95.718 E0.03655
G1 X88.960 Y95.623 E0.03573
G1 X87.857 Y95.302 E0.03601
G1 X86.841 Y94.767 E0.03601
G1 X85.959 Y94.046 E0.03574
G1 X85.222 Y93.142 E0.03655
G1 X84.697 Y92.141 E0.03546
G1 X84.375 Y91.029 E0.03628
G1 X84.283 Y89.963 E0.03355
G1 X84.418 Y88.758 E0.03804
G1 X84.752 Y87.732 E0.03382
G1 X85.165 Y86.950 E0.02773
G1 X85.825 Y86.103 E0.03367
M204 S1250
G1 X86.121 Y86.333 F9000.000
M204 S800
G1 F900
G1 X86.890 Y85.657 E0.03210
G1 X87.831 Y85.119 E0.03401
G1 X88.842 Y84.785 E0.03338
G1 X89.949 Y84.659 E0.03491
G1 X90.985 Y84.750 E0.03261
G1 X92.014 Y85.052 E0.03363
G1 X92.958 Y85.552 E0.03351
G1 X93.781 Y86.227 E0.03337
G1 X94.466 Y87.069 E0.03402
G1 X94.957 Y88.009 E0.03325
G1 X95.255 Y89.043 E0.03376
G1 X95.340 Y90.039 E0.03133
G1 X95.226 Y91.097 E0.03337
G1 X94.998 Y91.880 E0.02556
G1 X94.558 Y92.785 E0.03156
G1 X93.870 Y93.681 E0.03542
G1 X93.114 Y94.340 E0.03146
G1 X92.180 Y94.877 E0.03376
G1 X91.174 Y95.211 E0.03325
G1 X90.092 Y95.341 E0.03414
G1 X89.032 Y95.253 E0.03338
G1 X87.998 Y94.952 E0.03376
G1 X87.045 Y94.450 E0.03376
G1 X86.224 Y93.779 E0.03325
G1 X85.537 Y92.934 E0.03414
G1 X85.045 Y91.995 E0.03325
G1 X84.745 Y90.957 E0.03389
G1 X84.660 Y89.961 E0.03133
G1 X84.787 Y88.835 E0.03554
G1 X85.100 Y87.877 E0.03158
G1 X85.480 Y87.156 E0.02555
G1 X86.084 Y86.381 E0.03083
M204 S1250
G1 X86.380 Y86.610 F9000.000
M204 S800
G1 F900
G1 X87.108 Y85.965 E0.03048
G1 X87.982 Y85.464 E0.03161
G1 X88.922 Y85.154 E0.03102
G1 X89.950 Y85.036 E0.03244
G1 X90.913 Y85.120 E0.03031
G1 X91.869 Y85.401 E0.03126
G1 X92.751 Y85.867 E0.03126
G1 X93.518 Y86.497 E0.03114
G1 X94.153 Y87.280 E0.03161
G1 X94.609 Y88.154 E0.03090
G1 X94.885 Y89.116 E0.03137
G1 X94.963 Y90.042 E0.02912
G1 X94.855 Y91.029 E0.03113
G1 X94.649 Y91.738 E0.02318
G1 X94.241 Y92.580 E0.02932
G1 X93.601 Y93.416 E0.03304
G1 X92.899 Y94.030 E0.02924
G1 X92.028 Y94.531 E0.03149
G1 X91.089 Y94.844 E0.03102
G1 X90.088 Y94.964 E0.03161
G1 X89.098 Y94.882 E0.03114
G1 X88.141 Y94.603 E0.03126
G1 X87.256 Y94.137 E0.03138
G1 X86.490 Y93.511 E0.03102
G1 X85.849 Y92.723 E0.03185
G1 X85.393 Y91.849 E0.03090
G1 X85.115 Y90.884 E0.03150
G1 X85.037 Y89.958 E0.02912
G1 X85.157 Y88.912 E0.03303
G1 X85.450 Y88.019 E0.02947
G1 X85.794 Y87.365 E0.02315
G1 X86.343 Y86.658 E0.02810
M204 S1250
G1 E-2.24000 F4200.00000
G1 F7200.000
G1 X87.108 Y85.965 E-0.57151
G1 X87.641 Y85.660 E-0.34049
G1 E-0.04800 F4200.00000
G1 Z0.400 F9000.000
G1 X88.414 Y88.229
G1 Z0.200
G1 E3.20000 F2400.00000
M204 S800
G1 F900
G1 X88.367 Y88.635 E0.01279
G1 X88.181 Y89.525 E0.02853
G1 X88.120 Y89.991 E0.01472
G1 X88.069 Y90.899 E0.02852
G1 X88.016 Y91.308 E0.01294
G1 X87.888 Y91.092 E0.00787
G1 X87.718 Y90.661 E0.01452
G1 X87.692 Y90.187 E0.01491
G1 X87.729 Y89.698 E0.01536
G1 X87.818 Y89.225 E0.01510
G1 X87.966 Y88.770 E0.01500
G1 X88.090 Y88.585 E0.00698
G1 X88.371 Y88.272 E0.01320
M204 S1250
G1 X88.293 Y88.611 F9000.000
G1 X88.695 Y88.016
M204 S800
G1 F900
G1 X89.017 Y87.836 E0.01156
G1 X89.233 Y87.750 E0.00728
G1 X89.455 Y87.707 E0.00711
G1 X89.689 Y87.695 E0.00734
G1 X90.176 Y87.715 E0.01529
G1 X90.659 Y87.792 E0.01534
G1 X91.123 Y87.928 E0.01513
G1 X91.324 Y88.026 E0.00701
G1 X91.510 Y88.164 E0.00728
G1 X91.774 Y88.422 E0.01156
G1 X91.367 Y88.368 E0.01285
G1 X90.477 Y88.182 E0.02852
G1 X90.011 Y88.120 E0.01472
G1 X89.103 Y88.070 E0.02853
G1 X88.755 Y88.024 E0.01102
M204 S1250
G1 X89.046 Y87.902 F9000.000
G1 E-2.24000 F4200.00000
G1 F7200.000
G1 X89.017 Y87.836 E-0.17886
G1 X89.233 Y87.750 E-0.12864
G1 X89.455 Y87.707 E-0.12562
G1 X89.689 Y87.695 E-0.12972
G1 X90.176 Y87.715 E-0.27032
G1 X90.317 Y87.738 E-0.07885
G1 E-0.04800 F4200.00000
G1 Z0.400 F9000.000
G1 X91.986 Y88.694
G1 Z0.200
G1 E3.20000 F2400.00000
M204 S800
G1 F900
G1 X92.112 Y88.908 E0.00780
G1 X92.283 Y89.339 E0.01452
G1 X92.308 Y89.813 E0.01491
G1 X92.271 Y90.299 E0.01527
G1 X92.181 Y90.778 E0.01527
G1 X92.034 Y91.230 E0.01491
G1 X91.757 Y91.601 E0.01452
G1 X91.580 Y91.776 E0.00780
G1 X91.634 Y91.368 E0.01289
G1 X91.819 Y90.477 E0.02852
G1 X91.881 Y90.012 E0.01471
G1 X91.932 Y89.104 E0.02852
G1 X91.978 Y88.753 E0.01109
M204 S1250
G1 X92.066 Y88.929 F9000.000
G1 E-2.24000 F4200.00000
G1 F7200.000
G1 X92.112 Y88.908 E-0.11350
G1 X92.283 Y89.339 E-0.25662
G1 X92.308 Y89.813 E-0.26350
G1 X92.271 Y90.299 E-0.26987
G1 X92.269 Y90.314 E-0.00851
G1 E-0.04800 F4200.00000
G1 Z0.400 F9000.000
G1 X91.302 Y91.986
G1 Z0.200
G1 E3.20000 F2400.00000
M204 S800
G1 F900
G1 X90.983 Y92.164 E0.01144
G1 X90.767 Y92.250 E0.00729
G1 X90.545 Y92.294 E0.00711
G1 X90.311 Y92.306 E0.00733
G1 X89.824 Y92.286 E0.01529
G1 X89.337 Y92.209 E0.01545
G1 X88.880 Y92.075 E0.01493
G1 X88.677 Y91.975 E0.00711
G1 X88.490 Y91.836 E0.00729
G1 X88.229 Y91.581 E0.01144
G1 X88.634 Y91.634 E0.01281
G1 X89.524 Y91.820 E0.02852
G1 X89.990 Y91.881 E0.01471
G1 X90.898 Y91.932 E0.02852
G1 X91.242 Y91.978 E0.01088
M204 S1250
G1 X90.955 Y92.099 F9000.000
M106 S255
;BEFORE_LAYER_CHANGE
G92 E0.0
;0.35


G1 Z0.350 F9000.000
;AFTER_LAYER_CHANGE
;0.35
G1 E-3.20000 F4200.00000
G1 Z0.550 F9000.000
G1 X92.477 Y95.570
G1 Z0.350
G1 E3.20000 F2400.00000
G1 F900
G1 X91.332 Y95.948 E0.02916
G1 X90.098 Y96.095 E0.03005
G1 X88.892 Y95.994 E0.02927
G1 X87.717 Y95.652 E0.02961
G1 X86.633 Y95.082 E0.02961
G1 X85.696 Y94.316 E0.02927
G1 X84.910 Y93.354 E0.03005
G1 X84.349 Y92.286 E0.02916
G1 X84.006 Y91.107 E0.02972
G1 X83.906 Y89.965 E0.02771
G1 X84.048 Y88.685 E0.03116
G1 X84.403 Y87.590 E0.02782
G1 X84.852 Y86.738 E0.02330
G1 X85.605 Y85.779 E0.02949
G1 X86.464 Y85.035 E0.02749
G1 X87.540 Y84.423 E0.02994
G1 X88.686 Y84.048 E0.02916
G1 X89.948 Y83.905 E0.03072
G1 X91.126 Y84.009 E0.02860
G1 X92.300 Y84.355 E0.02961
G1 X93.374 Y84.923 E0.02939
G1 X94.314 Y85.693 E0.02938
G1 X95.093 Y86.650 E0.02983
G1 X95.652 Y87.718 E0.02916
G1 X95.995 Y88.898 E0.02972
G1 X96.094 Y90.035 E0.02761
G1 X95.953 Y91.311 E0.03105
G1 X95.599 Y92.405 E0.02782
G1 X95.150 Y93.258 E0.02330
G1 X94.405 Y94.212 E0.02927
G1 X93.544 Y94.960 E0.02760
G1 X92.529 Y95.540 E0.02827
G1 X92.343 Y95.215 F9000.000
G1 F900
G1 X91.253 Y95.580 E0.02779
G1 X90.096 Y95.718 E0.02819
G1 X88.960 Y95.623 E0.02756
G1 X87.857 Y95.302 E0.02777
G1 X86.841 Y94.767 E0.02777
G1 X85.959 Y94.046 E0.02756
G1 X85.222 Y93.142 E0.02820
G1 X84.697 Y92.141 E0.02735
G1 X84.375 Y91.029 E0.02799
G1 X84.283 Y89.963 E0.02588
G1 X84.418 Y88.758 E0.02935
G1 X84.752 Y87.732 E0.02608
G1 X85.165 Y86.950 E0.02139
G1 X85.869 Y86.048 E0.02767
G1 X86.676 Y85.346 E0.02588
G1 X87.685 Y84.771 E0.02809
G1 X88.764 Y84.417 E0.02746
G1 X89.948 Y84.282 E0.02882
G1 X91.053 Y84.379 E0.02683
G1 X92.155 Y84.703 E0.02777
G1 X93.166 Y85.238 E0.02767
G1 X94.047 Y85.960 E0.02756
G1 X94.780 Y86.861 E0.02809
G1 X95.304 Y87.863 E0.02735
G1 X95.625 Y88.970 E0.02788
G1 X95.717 Y90.037 E0.02588
G1 X95.596 Y91.170 E0.02755
G1 X95.348 Y92.021 E0.02145
G1 X94.876 Y92.988 E0.02602
G1 X94.138 Y93.946 E0.02924
G1 X93.327 Y94.651 E0.02598
G1 X92.395 Y95.185 E0.02598
G1 X92.208 Y94.860 F9000.000
G1 F900
G1 X91.174 Y95.211 E0.02642
G1 X90.092 Y95.341 E0.02634
G1 X89.032 Y95.253 E0.02574
G1 X87.998 Y94.952 E0.02604
G1 X87.045 Y94.450 E0.02604
G1 X86.224 Y93.779 E0.02565
G1 X85.537 Y92.934 E0.02634
G1 X85.045 Y91.995 E0.02564
G1 X84.745 Y90.957 E0.02614
G1 X84.660 Y89.961 E0.02416
G1 X84.787 Y88.835 E0.02742
G1 X85.100 Y87.877 E0.02436
G1 X85.480 Y87.156 E0.01971
G1 X86.136 Y86.313 E0.02584
G1 X86.890 Y85.657 E0.02416
G1 X87.831 Y85.119 E0.02624
G1 X88.842 Y84.785 E0.02574
G1 X89.949 Y84.659 E0.02693
G1 X90.985 Y84.750 E0.02515
G1 X92.014 Y85.052 E0.02594
G1 X92.958 Y85.552 E0.02584
G1 X93.781 Y86.227 E0.02574
G1 X94.466 Y87.069 E0.02624
G1 X94.957 Y88.009 E0.02565
G1 X95.255 Y89.043 E0.02604
G1 X95.340 Y90.039 E0.02417
G1 X95.226 Y91.097 E0.02574
G1 X94.998 Y91.880 E0.01972
G1 X94.558 Y92.785 E0.02435
G1 X93.870 Y93.681 E0.02732
G1 X93.114 Y94.340 E0.02426
G1 X92.260 Y94.830 E0.02379
G1 X92.073 Y94.505 F9000.000
G1 F900
G1 X91.089 Y94.844 E0.02517
G1 X90.088 Y94.964 E0.02439
G1 X89.098 Y94.882 E0.02402
G1 X88.141 Y94.603 E0.02411
G1 X87.256 Y94.137 E0.02420
G1 X86.490 Y93.511 E0.02393
G1 X85.849 Y92.723 E0.02457
G1 X85.393 Y91.849 E0.02383
G1 X85.115 Y90.884 E0.02429
G1 X85.037 Y89.958 E0.02246
G1 X85.157 Y88.912 E0.02548
G1 X85.450 Y88.019 E0.02273
G1 X85.794 Y87.365 E0.01786
G1 X86.405 Y86.578 E0.02411
G1 X87.108 Y85.965 E0.02255
G1 X87.982 Y85.464 E0.02438
G1 X88.922 Y85.154 E0.02393
G1 X89.950 Y85.036 E0.02503
G1 X90.913 Y85.120 E0.02338
G1 X91.869 Y85.401 E0.02411
G1 X92.751 Y85.867 E0.02411
G1 X93.518 Y86.497 E0.02402
G1 X94.153 Y87.280 E0.02439
G1 X94.609 Y88.154 E0.02384
G1 X94.885 Y89.116 E0.02420
G1 X94.963 Y90.042 E0.02246
G1 X94.855 Y91.029 E0.02401
G1 X94.649 Y91.738 E0.01788
G1 X94.241 Y92.580 E0.02261
G1 X93.601 Y93.416 E0.02548
G1 X92.899 Y94.030 E0.02255
G1 X92.125 Y94.475 E0.02158
G1 E-2.24000 F4200.00000
G1 F7200.000
G1 X91.089 Y94.844 E-0.60936
G1 X90.547 Y94.909 E-0.30264
G1 E-0.04800 F4200.00000
G1 Z0.550 F9000.000
G1 X88.006 Y91.264
G1 Z0.350
G1 E3.20000 F2400.00000
M204 S800
G1 F900
G1 X87.803 Y90.867 E0.01163
G1 X87.673 Y90.407 E0.01245
G1 X87.644 Y90.169 E0.00623
G1 X87.658 Y89.692 E0.01245
G1 X87.701 Y89.456 E0.00623
G1 X87.858 Y89.005 E0.01245
G1 X88.102 Y88.594 E0.01245
G1 X88.401 Y88.263 E0.01163
G1 X88.014 Y91.205 E0.07731
M204 S1250
G1 X87.887 Y90.882 F9000.000
G1 X88.267 Y91.601
M204 S800
G1 F900
G1 X91.259 Y91.995 E0.07864
G1 X90.977 Y92.151 E0.00840
G1 X90.524 Y92.303 E0.01245
G1 X90.050 Y92.362 E0.01245
G1 X89.811 Y92.355 E0.00623
G1 X89.341 Y92.268 E0.01245
G1 X88.897 Y92.089 E0.01245
G1 X88.500 Y91.824 E0.01245
G1 X88.307 Y91.646 E0.00684
M204 S1250
G1 X88.648 Y91.722 F9000.000
G1 E-2.24000 F4200.00000
G1 F7200.000
G1 X89.941 Y91.839 E-0.91200
G1 E-0.04800 F4200.00000
G1 Z0.550 F9000.000
G1 X91.600 Y91.735
G1 Z0.350
G1 E3.20000 F2400.00000
M204 S800
G1 F900
G1 X91.995 Y88.738 E0.07878
G1 X92.197 Y89.133 E0.01157
G1 X92.327 Y89.593 E0.01245
G1 X92.356 Y89.831 E0.00623
G1 X92.342 Y90.308 E0.01245
G1 X92.232 Y90.773 E0.01245
G1 X92.142 Y90.995 E0.00623
G1 X91.898 Y91.406 E0.01245
G1 X91.643 Y91.693 E0.01001
M204 S1250
G1 X91.718 Y91.353 F9000.000
G1 E-2.24000 F4200.00000
G1 F7200.000
G1 X91.838 Y90.059 E-0.91200
G1 E-0.04800 F4200.00000
G1 Z0.550 F9000.000
G1 X91.736 Y88.402
G1 Z0.350
G1 E3.20000 F2400.00000
M204 S800
G1 F900
G1 X88.737 Y88.007 E0.07879
G1 X89.023 Y87.849 E0.00850
G1 X89.476 Y87.697 E0.01245
G1 X89.709 Y87.656 E0.00617
G1 X90.013 Y87.641 E0.00793
G1 X90.431 Y87.678 E0.01094
G1 X90.886 Y87.810 E0.01233
G1 X91.103 Y87.911 E0.00623
G1 X91.500 Y88.176 E0.01245
G1 X91.695 Y88.357 E0.00694
M204 S1250
G1 X91.354 Y88.281 F9000.000
G1 X90.856 Y88.052
G1 F900
G1 X90.387 Y87.948 E0.00195
G1 X90.008 Y87.907 E0.00155
G1 X89.677 Y87.897 E0.00134
G1 E-2.24000 F4200.00000
G1 F7200.000
G1 X90.008 Y87.907 E-0.18342
G1 X90.387 Y87.948 E-0.21157
G1 X90.856 Y88.052 E-0.26602
G1 E-0.29899 F4200.00000
G1 Z0.550 F9000.000
G1 X88.050 Y89.149
G1 Z0.350
G1 E3.20000 F2400.00000
G1 F900
G1 X87.931 Y89.728 E0.00328
G1 X87.896 Y90.317 E0.00328
G1 E-2.24000 F4200.00000
G1 F7200.000
G1 X87.931 Y89.728 E-0.32733
G1 X88.050 Y89.149 E-0.32731
G1 E-0.30535 F4200.00000
G1 Z0.550 F9000.000
G1 X89.151 Y91.952
G1 Z0.350
G1 E3.20000 F2400.00000
G1 F900
G1 X89.623 Y92.055 E0.00188
G1 X90.044 Y92.099 E0.00166
G1 X90.315 Y92.105 E0.00106
G1 E-2.24000 F4200.00000
G1 F7200.000
G1 X90.044 Y92.099 E-0.14978
G1 X89.623 Y92.055 E-0.23493
G1 X89.151 Y91.952 E-0.26739
G1 E-0.30790 F4200.00000
G1 Z0.550 F9000.000
G1 X91.952 Y90.846
G1 Z0.350
G1 E3.20000 F2400.00000
G1 F900
G1 X92.070 Y90.272 E0.00320
G1 X92.104 Y89.688 E0.00320
;BEFORE_LAYER_CHANGE
G92 E0.0
;0.5


G1 Z0.500 F9000.000
;AFTER_LAYER_CHANGE
;0.5
G1 E-3.20000 F4200.00000
G1 Z0.700 F9000.000
G1 X95.995 Y88.898
G1 Z0.500
G1 E3.20000 F2400.00000
G1 F900
G1 X96.094 Y90.035 E0.02761
G1 X95.953 Y91.311 E0.03105
G1 X95.599 Y92.405 E0.02782
G1 X95.150 Y93.258 E0.02330
G1 X94.405 Y94.212 E0.02927
G1 X93.544 Y94.960 E0.02760
G1 X92.477 Y95.570 E0.02972
G1 X91.332 Y95.948 E0.02916
G1 X90.098 Y96.095 E0.03005
G1 X88.892 Y95.994 E0.02927
G1 X87.717 Y95.652 E0.02961
G1 X86.633 Y95.082 E0.02961
G1 X85.696 Y94.316 E0.02927
G1 X84.910 Y93.354 E0.03005
G1 X84.349 Y92.286 E0.02916
G1 X84.006 Y91.107 E0.02972
G1 X83.906 Y89.965 E0.02771
G1 X84.048 Y88.685 E0.03116
G1 X84.403 Y87.590 E0.02782
G1 X84.852 Y86.738 E0.02330
G1 X85.605 Y85.779 E0.02949
G1 X86.464 Y85.035 E0.02749
G1 X87.540 Y84.423 E0.02994
G1 X88.686 Y84.048 E0.02916
G1 X89.948 Y83.905 E0.03072
G1 X91.126 Y84.009 E0.02860
G1 X92.300 Y84.355 E0.02961
G1 X93.374 Y84.923 E0.02939
G1 X94.314 Y85.693 E0.02938
G1 X95.093 Y86.650 E0.02983
G1 X95.652 Y87.718 E0.02916
G1 X95.978 Y88.840 E0.02826
G1 X95.618 Y88.945 F9000.000
G1 F900
G1 X95.717 Y90.037 E0.02652
G1 X95.596 Y91.170 E0.02755
G1 X95.348 Y92.021 E0.02145
G1 X94.876 Y92.988 E0.02602
G1 X94.138 Y93.946 E0.02924
G1 X93.327 Y94.651 E0.02598
G1 X92.327 Y95.224 E0.02788
G1 X91.253 Y95.580 E0.02735
G1 X90.096 Y95.718 E0.02819
G1 X88.960 Y95.623 E0.02756
