; generated by PrusaSlicer 2.2.0+win64 on 2021-03-12 at 22:55:05 UTC

; 

; external perimeters extrusion width = 0.45mm
; perimeters extrusion width = 0.45mm
; infill extrusion width = 0.45mm
; solid infill extrusion width = 0.45mm
; top infill extrusion width = 0.40mm
; support material extrusion width = 0.35mm
; first layer extrusion width = 0.42mm

M73 P0 R66
M73 Q0 S66
M201 X1000 Y1000 Z200 E5000 ; sets maximum accelerations, mm/sec^2
M203 X200 Y200 Z12 E120 ; sets maximum feedrates, mm/sec
M204 P1250 R1250 T1250 ; sets acceleration (P, T) and retract acceleration (R), mm/sec^2
M205 X8.00 Y8.00 Z0.40 E4.50 ; sets the jerk limits, mm/sec
M205 S0 T0 ; sets the minimum extruding and travel feed rate, mm/sec
M107
M862.3 P "MK3S" ; printer model check
M862.1 P0.4 ; nozzle diameter check
M115 U3.9.3 ; tell printer latest fw version
G90 ; use absolute coordinates
M83 ; extruder relative mode
M104 S215 ; set extruder temp
M140 S60 ; set bed temp
M190 S60 ; wait for bed temp
M109 S215 ; wait for extruder temp
G28 W ; home all without mesh bed level
G80 ; mesh bed leveling
G1 Y-3.0 F1000.0 ; go outside print area
G92 E0.0
G1 X60.0 E9.0 F1000.0 ; intro line
M73 Q0 S66
M73 P0 R66
G1 X100.0 E12.5 F1000.0 ; intro line
G92 E0.0
M221 S95

; Don't change E values below. Excessive value can damage the printer.
M907 E430 ; set extruder motor current
G21 ; set units to millimeters
G90 ; use absolute coordinates
M83 ; use relative distances for extrusion
M900 K0.05 ; Filament gcode LA 1.5
M900 K30 ; Filament gcode LA 1.0
;BEFORE_LAYER_CHANGE
G92 E0.0
;0.2


G1 E-0.80000 F2100.00000
G1 Z0.400 F10800.000
;AFTER_LAYER_CHANGE
;0.2
G1 X112.098 Y85.897
G1 Z0.200
G1 E0.80000 F2100.00000
M204 S1000
G1 F1200.000
G1 X112.899 Y85.746 E0.02555
G1 X122.738 Y85.746 E0.30848
G1 X123.446 Y85.854 E0.02249
G1 X138.492 Y90.664 E0.49527
G1 X139.244 Y91.097 E0.02720
G1 X139.791 Y91.774 E0.02731
G1 X140.002 Y92.312 E0.01811
G1 X140.077 Y92.885 E0.01811
G1 X140.077 Y117.103 E0.75934
G1 X139.994 Y117.716 E0.01941
G1 X139.792 Y118.225 E0.01716
G1 X139.475 Y118.676 E0.01728
G1 X139.064 Y119.042 E0.01728
G1 X138.579 Y119.304 E0.01728
G1 X123.290 Y124.359 E0.50488
G1 X122.751 Y124.424 E0.01704
G1 X112.930 Y124.424 E0.30793
G1 X112.312 Y124.341 E0.01953
G1 X111.757 Y124.113 E0.01882
G1 X111.277 Y123.752 E0.01882
G1 X106.675 Y118.868 E0.21040
G1 X106.291 Y118.322 E0.02095
G1 X106.074 Y117.690 E0.02095
G1 X106.031 Y92.585 E0.78715
G1 X106.114 Y91.968 E0.01953
G1 X106.347 Y91.406 E0.01906
G1 X106.717 Y90.919 E0.01917
G1 X111.313 Y86.384 E0.20247
G1 X112.047 Y85.929 E0.02707
; printing object Sliderx.stl id:0 copy 0
G1 F8640.000
G1 X112.899 Y85.746 E-0.20115
G1 X115.319 Y85.746 E-0.55885
G1 E-0.04000 F2100.00000
G1 Z0.600 F10800.000
G1 X112.933 Y92.661
G1 Z0.200
G1 E0.80000 F2100.00000
G1 F1200.000
G1 X112.933 Y88.123 E0.14229
G1 X113.688 Y88.123 E0.02365
G1 X113.688 Y92.491 E0.13697
G1 X114.442 Y92.491 E0.02365
G1 X114.442 Y88.123 E0.13697
G1 X115.196 Y88.123 E0.02365
G1 X115.196 Y92.491 E0.13697
G1 X115.950 Y92.491 E0.02365
G1 X115.950 Y88.123 E0.13697
G1 X116.704 Y88.123 E0.02365
G1 X116.704 Y92.491 E0.13697
G1 X117.458 Y92.491 E0.02365
G1 X117.458 Y88.123 E0.13697
G1 X118.213 Y88.123 E0.02365
G1 X118.213 Y92.491 E0.13697
G1 X118.967 Y92.491 E0.02365
G1 X118.967 Y88.123 E0.13697
G1 X119.721 Y88.123 E0.02365
G1 X119.721 Y92.491 E0.13697
G1 X120.475 Y92.491 E0.02365
G1 X120.475 Y88.123 E0.13697
G1 X121.229 Y88.123 E0.02365
G1 X121.229 Y92.491 E0.13697
G1 X121.983 Y92.491 E0.02365
G1 X121.983 Y88.123 E0.13697
G1 X122.738 Y88.123 E0.02365
G1 X122.738 Y92.661 E0.14229
G1 F8640.000
G1 X122.738 Y89.369 E-0.76000
G1 E-0.04000 F2100.00000
G1 Z0.600 F10800.000
G1 X122.738 Y95.568
G1 Z0.200
G1 E0.80000 F2100.00000
G1 F1200.000
G1 X122.738 Y98.699 E0.09818
G1 X121.983 Y98.699 E0.02365
G1 X121.983 Y95.737 E0.09286
G1 X121.229 Y95.737 E0.02365
G1 X121.229 Y98.699 E0.09286
G1 X121.017 Y98.699 E0.00666
G1 X121.017 Y111.301 E0.39512
G1 X121.229 Y111.301 E0.00666
G1 X121.229 Y114.263 E0.09286
G1 X121.983 Y114.263 E0.02365
G1 X121.983 Y111.301 E0.09286
G1 X122.738 Y111.301 E0.02365
G1 X122.738 Y114.432 E0.09818
G1 X120.475 Y114.432 F10800.000
G1 F1200.000
G1 X120.475 Y95.737 E0.58617
G1 X119.721 Y95.737 E0.02365
G1 X119.721 Y114.263 E0.58085
G1 X118.967 Y114.263 E0.02365
G1 X118.967 Y95.737 E0.58085
G1 X118.213 Y95.737 E0.02365
G1 X118.213 Y114.263 E0.58085
G1 X117.458 Y114.263 E0.02365
G1 X117.458 Y95.737 E0.58085
G1 X116.704 Y95.737 E0.02365
G1 X116.704 Y114.263 E0.58085
G1 X116.342 Y114.263 E0.01135
G1 X116.342 Y107.308 E0.21805
G1 X116.231 Y107.116 E0.00695
G1 X115.950 Y106.954 E0.01018
G1 X115.950 Y102.850 E0.12867
G1 F8640.000
G1 X115.950 Y106.142 E-0.76000
G1 E-0.04000 F2100.00000
G1 Z0.600 F10800.000
G1 X108.409 Y92.589
G1 Z0.200
G1 E0.80000 F2100.00000
G1 F1200.000
G1 X108.409 Y117.242 E0.77297
G1 X109.163 Y117.242 E0.02365
G1 X109.163 Y92.758 E0.76765
G1 X109.917 Y92.758 E0.02365
G1 X109.917 Y117.242 E0.76765
G1 X110.671 Y117.242 E0.02365
G1 X110.671 Y92.758 E0.76765
G1 X111.425 Y92.758 E0.02365
G1 X111.425 Y117.411 E0.77297
G1 F8640.000
G1 X111.425 Y114.120 E-0.76000
G1 E-0.04000 F2100.00000
G1 Z0.600 F10800.000
G1 X112.933 Y122.047
G1 Z0.200
G1 E0.80000 F2100.00000
G1 F1200.000
G1 X112.933 Y117.509 E0.14229
G1 X113.688 Y117.509 E0.02365
G1 X113.688 Y121.877 E0.13697
G1 X114.442 Y121.877 E0.02365
G1 X114.442 Y117.509 E0.13697
G1 X115.196 Y117.509 E0.02365
G1 X115.196 Y121.877 E0.13697
G1 X115.950 Y121.877 E0.02365
G1 X115.950 Y117.509 E0.13697
G1 X116.704 Y117.509 E0.02365
G1 X116.704 Y121.877 E0.13697
G1 X117.458 Y121.877 E0.02365
G1 X117.458 Y117.509 E0.13697
G1 X118.213 Y117.509 E0.02365
G1 X118.213 Y121.877 E0.13697
G1 X118.967 Y121.877 E0.02365
G1 X118.967 Y117.509 E0.13697
G1 X119.721 Y117.509 E0.02365
G1 X119.721 Y121.877 E0.13697
G1 X120.475 Y121.877 E0.02365
G1 X120.475 Y117.509 E0.13697
G1 X121.229 Y117.509 E0.02365
G1 X121.229 Y121.877 E0.13697
G1 X121.983 Y121.877 E0.02365
G1 X121.983 Y117.509 E0.13697
G1 X122.738 Y117.509 E0.02365
G1 X122.738 Y122.047 E0.14229
G1 F8640.000
G1 X122.738 Y118.755 E-0.76000
G1 E-0.04000 F2100.00000
G1 Z0.600 F10800.000
G1 X129.083 Y94.537
G1 Z0.200
G1 E0.80000 F2100.00000
G1 F1200.000
G1 X115.141 Y94.537 E0.43713
G1 X115.141 Y102.127 E0.23797
G1 X114.094 Y102.731 E0.03792
G1 X114.094 Y107.269 E0.14227
G1 X115.141 Y107.873 E0.03792
G1 X115.141 Y115.463 E0.23797
G1 X129.083 Y115.463 E0.43713
G1 X133.164 Y108.394 E0.25593
G1 X136.913 Y114.887 E0.23507
G1 X136.913 Y116.308 E0.04456
G1 X113.087 Y116.308 E0.74704
G1 X113.087 Y93.692 E0.70912
G1 X136.913 Y93.692 E0.74704
G1 X136.913 Y95.113 E0.04456
G1 X133.164 Y101.606 E0.23507
G1 X129.113 Y94.589 E0.25405
G1 X128.865 Y94.914 F10800.000
G1 F1200.000
G1 X115.519 Y94.914 E0.41848
G1 X115.519 Y102.344 E0.23298
G1 X114.471 Y102.949 E0.03792
G1 X114.471 Y107.051 E0.12862
G1 X115.519 Y107.656 E0.03792
G1 X115.519 Y115.086 E0.23298
G1 X128.865 Y115.086 E0.41848
G1 X133.164 Y107.640 E0.26958
G1 X137.290 Y114.786 E0.25872
G1 X137.290 Y116.685 E0.05955
G1 X112.710 Y116.685 E0.77069
G1 X112.710 Y93.315 E0.73276
G1 X137.290 Y93.315 E0.77069
G1 X137.290 Y95.214 E0.05955
G1 X133.164 Y102.360 E0.25872
G1 X128.895 Y94.966 E0.26770
G1 X128.669 Y94.565 F10800.000
G1 F8640.000
G1 X125.604 Y94.953 E-0.76000
G1 E-0.04000 F2100.00000
G1 Z0.600 F10800.000
G1 X134.046 Y99.852
G1 Z0.200
G1 E0.80000 F2100.00000
G1 F1200.000
G1 X130.336 Y96.142 E0.16524
G1 X131.068 Y97.409 E0.04609
G1 X133.726 Y100.067 E0.11839
G1 X133.530 Y100.407 E0.01235
G1 X131.800 Y98.677 E0.07707
G1 X132.531 Y99.944 E0.04609
G1 X133.458 Y100.871 E0.04128
G1 F8640.000
G1 X132.531 Y99.944 E-0.30263
G1 X131.800 Y98.677 E-0.33790
G1 X132.166 Y99.042 E-0.11947
G1 E-0.04000 F2100.00000
G1 Z0.600 F10800.000
G1 X136.800 Y94.571
G1 Z0.200
G1 E0.80000 F2100.00000
G1 F1200.000
G1 X136.204 Y93.975 E0.02655
G1 X135.668 Y93.975 E0.01687
G1 X136.630 Y94.937 E0.04285
G1 X136.630 Y95.037 E0.00316
G1 X136.471 Y95.313 E0.01003
G1 X135.132 Y93.975 E0.05961
G1 X134.597 Y93.975 E0.01687
G1 X136.275 Y95.653 E0.07474
G1 X136.079 Y95.992 E0.01235
G1 X134.061 Y93.975 E0.08986
G1 X133.525 Y93.975 E0.01687
G1 X135.883 Y96.332 E0.10499
G1 X135.687 Y96.671 E0.01235
G1 X132.990 Y93.975 E0.12011
G1 X132.454 Y93.975 E0.01687
G1 X135.491 Y97.011 E0.13523
G1 X135.294 Y97.351 E0.01235
G1 X131.919 Y93.975 E0.15036
G1 X131.383 Y93.975 E0.01687
G1 X135.098 Y97.690 E0.16548
G1 X134.902 Y98.030 E0.01235
G1 X130.847 Y93.975 E0.18061
G1 X130.312 Y93.975 E0.01687
G1 X134.706 Y98.369 E0.19573
G1 X134.510 Y98.709 E0.01235
G1 X129.776 Y93.975 E0.21086
G1 X129.240 Y93.975 E0.01687
G1 X134.314 Y99.048 E0.22598
G1 X134.118 Y99.388 E0.01235
G1 X128.705 Y93.975 E0.24111
G1 X128.169 Y93.975 E0.01687
G1 X128.448 Y94.254 E0.01244
G1 X127.913 Y94.254 E0.01687
G1 X127.633 Y93.975 E0.01244
G1 X127.098 Y93.975 E0.01687
G1 X127.377 Y94.254 E0.01244
G1 X126.841 Y94.254 E0.01687
G1 X126.562 Y93.975 E0.01244
G1 X126.026 Y93.975 E0.01687
G1 X126.306 Y94.254 E0.01244
G1 X125.770 Y94.254 E0.01687
G1 X125.491 Y93.975 E0.01244
G1 X124.955 Y93.975 E0.01687
G1 X125.235 Y94.254 E0.01244
G1 X124.699 Y94.254 E0.01687
G1 X124.420 Y93.975 E0.01244
G1 X123.884 Y93.975 E0.01687
G1 X124.163 Y94.254 E0.01244
G1 X123.628 Y94.254 E0.01687
G1 X123.348 Y93.975 E0.01244
G1 X122.813 Y93.975 E0.01687
G1 X123.092 Y94.254 E0.01244
G1 X122.556 Y94.254 E0.01687
G1 X122.277 Y93.975 E0.01244
G1 X121.741 Y93.975 E0.01687
G1 X122.021 Y94.254 E0.01244
G1 X121.485 Y94.254 E0.01687
G1 X121.206 Y93.975 E0.01244
G1 X120.670 Y93.975 E0.01687
G1 X120.949 Y94.254 E0.01244
G1 X120.414 Y94.254 E0.01687
G1 X120.134 Y93.975 E0.01244
G1 X119.599 Y93.975 E0.01687
G1 X119.878 Y94.254 E0.01244
G1 X119.342 Y94.254 E0.01687
G1 X119.063 Y93.975 E0.01244
G1 X118.528 Y93.975 E0.01687
G1 X118.807 Y94.254 E0.01244
G1 X118.271 Y94.254 E0.01687
G1 X117.992 Y93.975 E0.01244
G1 X117.456 Y93.975 E0.01687
G1 X117.736 Y94.254 E0.01244
G1 X117.200 Y94.254 E0.01687
G1 X116.921 Y93.975 E0.01244
G1 X116.385 Y93.975 E0.01687
G1 X116.664 Y94.254 E0.01244
G1 X116.129 Y94.254 E0.01687
G1 X115.849 Y93.975 E0.01244
G1 X115.314 Y93.975 E0.01687
G1 X115.593 Y94.254 E0.01244
G1 X115.057 Y94.254 E0.01687
G1 X114.778 Y93.975 E0.01244
G1 X114.242 Y93.975 E0.01687
G1 X114.859 Y94.591 E0.02745
G1 X114.859 Y95.127 E0.01687
G1 X113.707 Y93.975 E0.05131
G1 X113.370 Y93.975 E0.01061
G1 X113.370 Y94.173 E0.00626
G1 X114.859 Y95.662 E0.06631
G1 X114.859 Y96.198 E0.01687
G1 X113.370 Y94.709 E0.06631
G1 X113.370 Y95.245 E0.01687
G1 X114.859 Y96.733 E0.06631
G1 X114.859 Y97.269 E0.01687
G1 X113.370 Y95.780 E0.06631
G1 X113.370 Y96.316 E0.01687
G1 X114.859 Y97.805 E0.06631
G1 X114.859 Y98.340 E0.01687
G1 X113.370 Y96.852 E0.06631
G1 X113.370 Y97.387 E0.01687
G1 X114.859 Y98.876 E0.06631
G1 X114.859 Y99.412 E0.01687
G1 X113.370 Y97.923 E0.06631
G1 X113.370 Y98.459 E0.01687
G1 X114.859 Y99.947 E0.06631
G1 X114.859 Y100.483 E0.01687
G1 X113.370 Y98.994 E0.06631
G1 X113.370 Y99.530 E0.01687
G1 X114.859 Y101.019 E0.06631
G1 X114.859 Y101.554 E0.01687
G1 X113.370 Y100.065 E0.06631
G1 X113.370 Y100.601 E0.01687
G1 X114.778 Y102.010 E0.06273
G1 X114.439 Y102.206 E0.01235
G1 X113.370 Y101.137 E0.04761
G1 X113.370 Y101.672 E0.01687
G1 X114.099 Y102.402 E0.03249
G1 X113.811 Y102.568 E0.01047
G1 X113.811 Y102.649 E0.00256
G1 X113.370 Y102.208 E0.01966
G1 X113.370 Y102.744 E0.01687
M73 Q1 S65
G1 X113.811 Y103.185 E0.01966
G1 X113.811 Y103.721 E0.01687
G1 X113.370 Y103.279 E0.01966
G1 X113.370 Y103.815 E0.01687
G1 X113.811 Y104.256 E0.01966
G1 X113.811 Y104.792 E0.01687
G1 X113.370 Y104.351 E0.01966
G1 X113.370 Y104.886 E0.01687
G1 X113.811 Y105.328 E0.01966
G1 X113.811 Y105.863 E0.01687
G1 X113.370 Y105.422 E0.01966
G1 X113.370 Y105.957 E0.01687
M73 P1 R65
G1 X113.811 Y106.399 E0.01966
G1 X113.811 Y106.934 E0.01687
G1 X113.370 Y106.493 E0.01966
G1 X113.370 Y107.029 E0.01687
G1 X114.859 Y108.518 E0.06631
G1 X114.859 Y109.053 E0.01687
G1 X113.370 Y107.564 E0.06631
G1 X113.370 Y108.100 E0.01687
G1 X114.859 Y109.589 E0.06631
G1 X114.859 Y110.124 E0.01687
G1 X113.370 Y108.636 E0.06631
G1 X113.370 Y109.171 E0.01687
G1 X114.859 Y110.660 E0.06631
G1 X114.859 Y111.196 E0.01687
G1 X113.370 Y109.707 E0.06631
G1 X113.370 Y110.243 E0.01687
G1 X114.859 Y111.731 E0.06631
G1 X114.859 Y112.267 E0.01687
G1 X113.370 Y110.778 E0.06631
G1 X113.370 Y111.314 E0.01687
G1 X114.859 Y112.803 E0.06631
G1 X114.859 Y113.338 E0.01687
G1 X113.370 Y111.850 E0.06631
G1 X113.370 Y112.385 E0.01687
G1 X114.859 Y113.874 E0.06631
G1 X114.859 Y114.410 E0.01687
G1 X113.370 Y112.921 E0.06631
G1 X113.370 Y113.456 E0.01687
G1 X115.028 Y115.115 E0.07387
G1 F8640.000
G1 X113.370 Y113.456 E-0.54158
G1 X113.370 Y112.921 E-0.12368
G1 X113.660 Y113.211 E-0.09474
G1 E-0.04000 F2100.00000
G1 Z0.600 F10800.000
G1 X113.966 Y116.195
G1 Z0.200
G1 E0.80000 F2100.00000
G1 F1200.000
G1 X113.370 Y115.599 E0.02655
G1 X113.370 Y115.063 E0.01687
G1 X114.332 Y116.025 E0.04285
G1 X114.868 Y116.025 E0.01687
G1 X113.370 Y114.528 E0.06670
G1 X113.370 Y113.992 E0.01687
G1 X115.403 Y116.025 E0.09056
G1 X115.939 Y116.025 E0.01687
G1 X115.660 Y115.746 E0.01244
G1 X116.195 Y115.746 E0.01687
G1 X116.474 Y116.025 E0.01244
G1 X117.010 Y116.025 E0.01687
G1 X116.731 Y115.746 E0.01244
G1 X117.266 Y115.746 E0.01687
G1 X117.546 Y116.025 E0.01244
G1 X118.081 Y116.025 E0.01687
G1 X117.802 Y115.746 E0.01244
G1 X118.338 Y115.746 E0.01687
G1 X118.617 Y116.025 E0.01244
G1 X119.153 Y116.025 E0.01687
G1 X118.873 Y115.746 E0.01244
G1 X119.409 Y115.746 E0.01687
G1 X119.688 Y116.025 E0.01244
G1 X120.224 Y116.025 E0.01687
G1 X119.945 Y115.746 E0.01244
G1 X120.480 Y115.746 E0.01687
G1 X120.760 Y116.025 E0.01244
G1 X121.295 Y116.025 E0.01687
G1 X121.016 Y115.746 E0.01244
G1 X121.552 Y115.746 E0.01687
G1 X121.831 Y116.025 E0.01244
G1 X122.366 Y116.025 E0.01687
G1 X122.087 Y115.746 E0.01244
G1 X122.623 Y115.746 E0.01687
G1 X122.902 Y116.025 E0.01244
G1 X123.438 Y116.025 E0.01687
G1 X123.158 Y115.746 E0.01244
G1 X123.694 Y115.746 E0.01687
G1 X123.973 Y116.025 E0.01244
G1 X124.509 Y116.025 E0.01687
G1 X124.230 Y115.746 E0.01244
G1 X124.765 Y115.746 E0.01687
G1 X125.045 Y116.025 E0.01244
G1 X125.580 Y116.025 E0.01687
G1 X125.301 Y115.746 E0.01244
G1 X125.837 Y115.746 E0.01687
G1 X126.116 Y116.025 E0.01244
G1 X126.652 Y116.025 E0.01687
G1 X126.372 Y115.746 E0.01244
G1 X126.908 Y115.746 E0.01687
G1 X127.187 Y116.025 E0.01244
G1 X127.723 Y116.025 E0.01687
G1 X127.444 Y115.746 E0.01244
G1 X127.979 Y115.746 E0.01687
G1 X128.259 Y116.025 E0.01244
G1 X128.794 Y116.025 E0.01687
G1 X128.515 Y115.746 E0.01244
G1 X129.051 Y115.746 E0.01687
G1 X129.330 Y116.025 E0.01244
G1 X129.865 Y116.025 E0.01687
G1 X129.371 Y115.531 E0.02204
G1 X129.567 Y115.191 E0.01235
G1 X130.401 Y116.025 E0.03716
G1 X130.937 Y116.025 E0.01687
G1 X129.763 Y114.851 E0.05229
G1 X129.959 Y114.512 E0.01235
G1 X131.472 Y116.025 E0.06741
G1 X132.008 Y116.025 E0.01687
G1 X130.155 Y114.172 E0.08253
G1 X130.351 Y113.833 E0.01235
G1 X132.544 Y116.025 E0.09766
G1 X133.079 Y116.025 E0.01687
G1 X130.547 Y113.493 E0.11278
G1 X130.743 Y113.154 E0.01235
G1 X133.615 Y116.025 E0.12791
G1 X134.151 Y116.025 E0.01687
G1 X130.939 Y112.814 E0.14303
G1 X131.135 Y112.474 E0.01235
G1 X134.686 Y116.025 E0.15816
G1 X135.222 Y116.025 E0.01687
G1 X131.331 Y112.135 E0.17328
G1 X131.527 Y111.795 E0.01235
G1 X135.757 Y116.025 E0.18841
G1 X136.293 Y116.025 E0.01687
G1 X131.723 Y111.456 E0.20353
G1 X131.919 Y111.116 E0.01235
G1 X136.630 Y115.827 E0.20981
G1 X136.630 Y115.291 E0.01687
G1 X132.115 Y110.776 E0.20108
G1 X132.312 Y110.437 E0.01235
G1 X136.347 Y114.472 E0.17972
G1 X135.615 Y113.205 E0.04609
G1 X132.508 Y110.097 E0.13840
G1 X132.704 Y109.758 E0.01235
G1 X134.883 Y111.937 E0.09708
G1 X134.152 Y110.670 E0.04609
G1 X132.900 Y109.418 E0.05576
G1 X133.096 Y109.079 E0.01235
G1 X133.884 Y109.866 E0.03509
; stop printing object Sliderx.stl id:0 copy 0
M106 S255
;BEFORE_LAYER_CHANGE
G92 E0.0
;0.35


G1 F8640.000
G1 X133.096 Y109.079 E-0.25724
G1 X132.900 Y109.418 E-0.09054
G1 X134.152 Y110.670 E-0.40881
G1 X134.159 Y110.683 E-0.00341
