; generated by PrusaSlicer 2.2.0+win64 on 2021-03-12 at 22:51:00 UTC

; 

; external perimeters extrusion width = 0.45mm
; perimeters extrusion width = 0.45mm
; infill extrusion width = 0.45mm
; solid infill extrusion width = 0.45mm
; top infill extrusion width = 0.40mm
; support material extrusion width = 0.35mm
; first layer extrusion width = 0.42mm

M73 P0 R16
M73 Q0 S16
M201 X1000 Y1000 Z200 E5000 ; sets maximum accelerations, mm/sec^2
M203 X200 Y200 Z12 E120 ; sets maximum feedrates, mm/sec
M204 P1250 R1250 T1250 ; sets acceleration (P, T) and retract acceleration (R), mm/sec^2
M205 X8.00 Y8.00 Z0.40 E4.50 ; sets the jerk limits, mm/sec
M205 S0 T0 ; sets the minimum extruding and travel feed rate, mm/sec
M107
M862.3 P "MK3S" ; printer model check
M862.1 P0.4 ; nozzle diameter check
M115 U3.9.3 ; tell printer latest fw version
G90 ; use absolute coordinates
M83 ; extruder relative mode
M104 S215 ; set extruder temp
M140 S60 ; set bed temp
M190 S60 ; wait for bed temp
M109 S215 ; wait for extruder temp
G28 W ; home all without mesh bed level
G80 ; mesh bed leveling
G1 Y-3.0 F1000.0 ; go outside print area
G92 E0.0
G1 X60.0 E9.0 F1000.0 ; intro line
M73 Q0 S16
M73 P0 R16
G1 X100.0 E12.5 F1000.0 ; intro line
G92 E0.0
M221 S95

; Don't change E values below. Excessive value can damage the printer.
M907 E430 ; set extruder motor current
G21 ; set units to millimeters
G90 ; use absolute coordinates
M83 ; use relative distances for extrusion
M900 K0.05 ; Filament gcode LA 1.5
M900 K30 ; Filament gcode LA 1.0
;BEFORE_LAYER_CHANGE
G92 E0.0
;0.2


G1 E-0.80000 F2100.00000
G1 Z0.400 F10800.000
;AFTER_LAYER_CHANGE
;0.2
G1 X112.666 Y96.305
G1 Z0.200
G1 E0.80000 F2100.00000
M204 S1000
G1 F1200.000
G1 X113.124 Y95.580 E0.02689
G1 X115.471 Y93.105 E0.10694
G1 X116.011 Y92.695 E0.02129
G1 X116.640 Y92.427 E0.02141
G1 X117.323 Y92.323 E0.02167
G1 X127.268 Y92.152 E0.31188
G1 X127.878 Y92.222 E0.01924
G1 X128.461 Y92.427 E0.01937
G1 X128.984 Y92.756 E0.01937
G1 X129.420 Y93.194 E0.01937
G1 X132.636 Y98.624 E0.19788
G1 X132.894 Y99.230 E0.02065
G1 X133.004 Y99.974 E0.02358
G1 X133.004 Y110.025 E0.31513
G1 X132.945 Y110.566 E0.01707
G1 X132.780 Y111.089 E0.01720
G1 X129.533 Y116.653 E0.20200
G1 X128.972 Y117.253 E0.02574
G1 X128.260 Y117.661 E0.02574
G1 X127.319 Y117.847 E0.03006
G1 X118.918 Y117.847 E0.26343
G1 X117.037 Y117.645 E0.05931
G1 X116.369 Y117.453 E0.02180
G1 X115.641 Y116.993 E0.02701
G1 X113.173 Y114.644 E0.10680
G1 X112.726 Y113.995 E0.02473
G1 X112.483 Y113.249 E0.02460
G1 X112.442 Y97.365 E0.49802
G1 X112.501 Y96.824 E0.01707
G1 X112.648 Y96.363 E0.01519
G1 X113.018 Y96.442 F10800.000
G1 F1200.000
G1 X113.416 Y95.819 E0.02317
G1 X115.733 Y93.375 E0.10560
G1 X116.212 Y93.014 E0.01882
G1 X116.767 Y92.783 E0.01882
G1 X117.338 Y92.700 E0.01811
G1 X127.267 Y92.530 E0.31137
G1 X127.803 Y92.592 E0.01692
G1 X128.312 Y92.774 E0.01692
G1 X128.769 Y93.068 E0.01704
G1 X129.145 Y93.455 E0.01692
G1 X132.310 Y98.814 E0.19515
G1 X132.539 Y99.360 E0.01858
G1 X132.627 Y99.981 E0.01965
G1 X132.627 Y110.023 E0.31486
G1 X132.427 Y110.955 E0.02989
G1 X129.229 Y116.428 E0.19874
G1 X128.742 Y116.954 E0.02249
G1 X128.120 Y117.311 E0.02249
G1 X127.305 Y117.470 E0.02602
G1 X118.925 Y117.470 E0.26276
G1 X117.098 Y117.273 E0.05760
G1 X116.504 Y117.101 E0.01941
G1 X115.881 Y116.702 E0.02319
G1 X113.455 Y114.394 E0.10499
G1 X113.065 Y113.828 E0.02154
G1 X112.852 Y113.171 E0.02166
G1 X112.819 Y97.371 E0.49539
G1 X113.006 Y96.501 E0.02792
; printing object Sliderx.stl id:0 copy 0
G1 F8640.000
G1 X113.416 Y95.819 E-0.18365
G1 X115.133 Y94.008 E-0.57635
G1 E-0.04000 F2100.00000
G1 Z0.600 F10800.000
G1 X127.262 Y94.907
G1 Z0.200
G1 E0.80000 F2100.00000
G1 F1200.000
G1 X127.262 Y99.586 E0.14673
G1 X126.508 Y99.586 E0.02365
G1 X126.508 Y95.076 E0.14141
G1 X125.754 Y95.076 E0.02365
G1 X125.754 Y99.586 E0.14141
G1 X125.000 Y99.586 E0.02365
G1 X125.000 Y95.076 E0.14141
G1 X124.246 Y95.076 E0.02365
G1 X124.246 Y99.586 E0.14141
G1 X123.492 Y99.586 E0.02365
G1 X123.492 Y95.076 E0.14141
G1 X122.738 Y95.076 E0.02365
G1 X122.738 Y99.586 E0.14141
G1 X121.983 Y99.586 E0.02365
G1 X121.983 Y95.076 E0.14141
G1 X121.229 Y95.076 E0.02365
G1 X121.229 Y99.586 E0.14141
G1 X120.475 Y99.586 E0.02365
G1 X120.475 Y95.076 E0.14141
G1 X119.721 Y95.076 E0.02365
G1 X119.721 Y99.586 E0.14141
G1 X119.579 Y99.586 E0.00446
G1 X119.336 Y99.829 E0.01074
G1 X119.336 Y110.171 E0.32428
G1 X119.579 Y110.414 E0.01074
G1 X119.721 Y110.414 E0.00446
G1 X119.721 Y114.924 E0.14141
G1 X120.475 Y114.924 E0.02365
G1 X120.475 Y110.414 E0.14141
G1 X121.229 Y110.414 E0.02365
G1 X121.229 Y114.924 E0.14141
G1 X121.983 Y114.924 E0.02365
G1 X121.983 Y110.414 E0.14141
G1 X122.738 Y110.414 E0.02365
G1 X122.738 Y114.924 E0.14141
G1 X123.492 Y114.924 E0.02365
G1 X123.492 Y110.414 E0.14141
G1 X124.246 Y110.414 E0.02365
G1 X124.246 Y114.924 E0.14141
G1 X125.000 Y114.924 E0.02365
G1 X125.000 Y110.414 E0.14141
G1 X125.754 Y110.414 E0.02365
G1 X125.754 Y114.924 E0.14141
G1 X126.508 Y114.924 E0.02365
G1 X126.508 Y110.414 E0.14141
G1 X127.262 Y110.414 E0.02365
G1 X127.262 Y115.093 E0.14673
G1 F8640.000
G1 X127.262 Y111.802 E-0.76000
G1 E-0.04000 F2100.00000
G1 Z0.600 F10800.000
G1 X127.262 Y107.192
G1 Z0.200
G1 E0.80000 F2100.00000
G1 F1200.000
G1 X127.262 Y103.148 E0.12679
G1 X126.508 Y101.841 E0.04729
G1 X126.508 Y108.159 E0.19807
G1 X126.261 Y108.586 E0.01549
G1 X125.754 Y108.586 E0.01590
G1 X125.754 Y101.414 E0.22490
G1 X125.000 Y101.414 E0.02365
G1 X125.000 Y108.586 E0.22490
G1 X124.246 Y108.586 E0.02365
G1 X124.246 Y101.414 E0.22490
G1 X123.492 Y101.414 E0.02365
G1 X123.492 Y108.586 E0.22490
G1 X122.738 Y108.586 E0.02365
G1 X122.738 Y101.414 E0.22490
G1 X121.983 Y101.414 E0.02365
G1 X121.983 Y108.756 E0.23022
G1 F8640.000
G1 X121.983 Y105.465 E-0.76000
G1 E-0.04000 F2100.00000
G1 Z0.600 F10800.000
G1 X118.967 Y115.093
G1 Z0.200
G1 E0.80000 F2100.00000
G1 F1200.000
G1 X118.967 Y95.076 E0.62762
G1 X118.213 Y95.076 E0.02365
G1 X118.213 Y114.924 E0.62230
G1 X117.458 Y114.924 E0.02365
G1 X117.458 Y95.076 E0.62230
G1 X117.394 Y95.076 E0.00202
G1 X117.394 Y97.394 E0.07267
G1 X116.704 Y97.394 E0.02163
G1 X116.704 Y112.606 E0.47696
G1 X115.950 Y112.606 E0.02365
G1 X115.950 Y97.394 E0.47696
G1 X115.196 Y97.394 E0.02365
G1 X115.196 Y112.776 E0.48228
G1 F8640.000
G1 X115.196 Y109.484 E-0.76000
G1 E-0.04000 F2100.00000
G1 Z0.600 F10800.000
G1 X128.374 Y102.676
G1 Z0.200
G1 E0.80000 F2100.00000
G1 F1200.000
G1 X127.637 Y101.406 E0.04604
G1 X127.187 Y100.756 E0.02477
G1 X127.736 Y100.783 E0.01723
G1 X129.463 Y100.786 E0.05415
G1 X128.404 Y102.624 E0.06651
G1 F8640.000
G1 X127.637 Y101.406 E-0.33234
G1 X127.187 Y100.756 E-0.18244
G1 X127.736 Y100.783 E-0.12688
G1 X128.248 Y100.784 E-0.11834
G1 E-0.04000 F2100.00000
G1 Z0.600 F10800.000
G1 X120.535 Y101.106
G1 Z0.200
G1 E0.80000 F2100.00000
G1 F1200.000
G1 X120.535 Y100.751 E0.01114
G1 X120.574 Y100.749 E0.00122
G1 X120.542 Y101.046 E0.00939
G1 F8640.000
G1 X120.535 Y100.751 E-0.06828
G1 X120.574 Y100.749 E-0.00900
G1 X120.542 Y101.046 E-0.06914
G1 E-0.65358 F2100.00000
G1 Z0.600 F10800.000
G1 X120.535 Y108.927
G1 Z0.200
G1 E0.80000 F2100.00000
G1 F1200.000
G1 X120.576 Y109.251 E0.01025
G1 X120.535 Y109.249 E0.00126
G1 X120.535 Y108.987 E0.00823
G1 F8640.000
G1 X120.576 Y109.251 E-0.06177
G1 X120.535 Y109.249 E-0.00928
G1 X120.535 Y108.987 E-0.06059
G1 E-0.66835 F2100.00000
G1 Z0.600 F10800.000
G1 X127.187 Y109.244
G1 Z0.200
G1 E0.80000 F2100.00000
G1 F1200.000
G1 X127.637 Y108.594 E0.02477
G1 X128.374 Y107.324 E0.04604
G1 X129.463 Y109.214 E0.06839
G1 X127.736 Y109.217 E0.05415
G1 X127.247 Y109.240 E0.01535
G1 F8640.000
G1 X127.637 Y108.594 E-0.17418
G1 X128.374 Y107.324 E-0.33903
G1 X128.907 Y108.250 E-0.24680
G1 E-0.04000 F2100.00000
G1 Z0.600 F10800.000
G1 X120.960 Y100.689
G1 Z0.200
G1 E0.80000 F2100.00000
G1 F1200.000
G1 X120.873 Y101.483 E0.02505
G1 X120.845 Y101.995 E0.01608
G1 X120.858 Y103.798 E0.05654
G1 X120.472 Y104.061 E0.01463
G1 X120.472 Y105.939 E0.05888
G1 X120.855 Y106.200 E0.01454
G1 X120.845 Y108.150 E0.06113
G1 X120.874 Y108.591 E0.01386
G1 X120.963 Y109.311 E0.02276
G1 X126.663 Y109.311 E0.17872
G1 X127.051 Y108.799 E0.02015
G1 X127.316 Y108.396 E0.01512
G1 X128.375 Y106.572 E0.06613
G1 X129.840 Y109.110 E0.09190
G1 X129.840 Y109.590 E0.01507
G1 X127.745 Y109.594 E0.06569
G1 X127.234 Y109.618 E0.01605
G1 X126.735 Y109.674 E0.01572
G1 X126.247 Y109.689 E0.01532
G1 X121.261 Y109.689 E0.15634
G1 X120.766 Y109.639 E0.01559
G1 X120.159 Y109.608 E0.01907
G1 X120.157 Y106.996 E0.08189
G1 X120.095 Y105.496 E0.04707
G1 X120.095 Y104.504 E0.03108
G1 X120.157 Y103.004 E0.04707
G1 X120.159 Y100.392 E0.08189
G1 X120.766 Y100.361 E0.01907
G1 X121.261 Y100.311 E0.01559
G1 X126.247 Y100.311 E0.15634
G1 X126.735 Y100.326 E0.01532
G1 X127.234 Y100.382 E0.01572
G1 X127.745 Y100.406 E0.01605
G1 X129.840 Y100.410 E0.06569
G1 X129.840 Y100.890 E0.01507
G1 X128.375 Y103.428 E0.09190
G1 X127.316 Y101.604 E0.06613
G1 X127.051 Y101.201 E0.01512
G1 X126.663 Y100.689 E0.02015
G1 X121.020 Y100.689 E0.17692
G1 X120.562 Y100.648 F10800.000
G1 X120.699 Y101.304
G1 F1200.000
G1 X120.516 Y101.463 E0.00662
G1 X120.502 Y101.982 E0.01415
G1 X120.491 Y103.820 E0.04748
G1 F8640.000
G1 X120.502 Y101.982 E-0.42446
G1 E-0.37554 F2100.00000
G1 Z0.600 F10800.000
G1 X120.490 Y106.179
G1 Z0.200
G1 E0.80000 F2100.00000
G1 F1200.000
G1 X120.496 Y106.850 E0.01904
G1 X120.520 Y108.739 E0.04896
G1 F8640.000
G1 X120.496 Y106.850 E-0.43622
G1 E-0.36378 F2100.00000
G1 Z0.600 F10800.000
G1 X128.363 Y109.102
G1 Z0.200
G1 E0.80000 F2100.00000
G1 F1200.000
G1 X127.924 Y108.663 E0.02336
G1 X128.159 Y108.258 E0.01762
G1 X129.001 Y109.100 E0.04478
G1 F8640.000
G1 X128.159 Y108.258 E-0.27482
G1 X127.924 Y108.663 E-0.10811
G1 X128.363 Y109.102 E-0.14337
G1 E-0.27370 F2100.00000
G1 Z0.600 F10800.000
G1 X128.707 Y101.872
G1 Z0.200
G1 E0.80000 F2100.00000
G1 F1200.000
G1 X127.901 Y101.066 E0.04241
G1 X128.536 Y101.068 E0.02363
G1 X128.939 Y101.471 E0.02117
; stop printing object Sliderx.stl id:0 copy 0
M106 S255
;BEFORE_LAYER_CHANGE
G92 E0.0
;0.35


G1 F8640.000
G1 X128.536 Y101.068 E-0.13139
G1 X127.901 Y101.066 E-0.14667
G1 X128.707 Y101.872 E-0.26318
G1 E-0.25875 F2100.00000
G1 Z0.600 F10800.000
;AFTER_LAYER_CHANGE
;0.35
M104 S210 ; set temperature
G1 X132.894 Y99.230
G1 Z0.350
G1 E0.80000 F2100.00000
G1 F1195
G1 X133.004 Y99.974 E0.01819
G1 X133.004 Y110.025 E0.24307
G1 X132.945 Y110.566 E0.01317
G1 X132.780 Y111.089 E0.01327
G1 X129.533 Y116.653 E0.15581
G1 X128.972 Y117.253 E0.01986
G1 X128.260 Y117.661 E0.01986
G1 X127.319 Y117.847 E0.02318
G1 X118.918 Y117.847 E0.20319
G1 X117.037 Y117.645 E0.04575
G1 X116.369 Y117.453 E0.01681
G1 X115.641 Y116.993 E0.02084
G1 X113.173 Y114.644 E0.08238
G1 X112.726 Y113.995 E0.01907
G1 X112.483 Y113.249 E0.01897
G1 X112.442 Y97.365 E0.38414
G1 X112.501 Y96.824 E0.01317
G1 X112.666 Y96.305 E0.01317
G1 X113.124 Y95.580 E0.02074
G1 X115.471 Y93.105 E0.08249
G1 X116.011 Y92.695 E0.01642
G1 X116.640 Y92.427 E0.01652
G1 X117.323 Y92.323 E0.01671
G1 X127.268 Y92.152 E0.24057
G1 X127.878 Y92.222 E0.01484
G1 X128.461 Y92.427 E0.01494
G1 X128.984 Y92.756 E0.01494
G1 X129.420 Y93.194 E0.01494
G1 X132.636 Y98.624 E0.15264
G1 X132.871 Y99.175 E0.01448
G1 X132.523 Y99.321 F10800.000
G1 F1195
G1 X132.627 Y99.981 E0.01616
G1 X132.627 Y110.023 E0.24287
G1 X132.427 Y110.955 E0.02306
G1 X129.229 Y116.428 E0.15330
G1 X128.742 Y116.954 E0.01734
G1 X128.120 Y117.311 E0.01734
G1 X127.305 Y117.470 E0.02007
G1 X118.925 Y117.470 E0.20268
G1 X117.098 Y117.273 E0.04443
G1 X116.504 Y117.101 E0.01497
G1 X115.881 Y116.702 E0.01789
G1 X113.455 Y114.394 E0.08098
G1 X113.065 Y113.828 E0.01662
G1 X112.852 Y113.171 E0.01671
G1 X112.819 Y97.371 E0.38212
G1 X113.019 Y96.439 E0.02306
G1 X113.416 Y95.819 E0.01780
G1 X115.733 Y93.375 E0.08146
G1 X116.212 Y93.014 E0.01452
G1 X116.767 Y92.783 E0.01452
G1 X117.338 Y92.700 E0.01397
G1 X127.267 Y92.530 E0.24017
G1 X127.803 Y92.592 E0.01305
G1 X128.312 Y92.774 E0.01305
G1 X128.769 Y93.068 E0.01314
G1 X129.145 Y93.455 E0.01305
G1 X132.310 Y98.814 E0.15053
G1 X132.500 Y99.266 E0.01185
; printing object Sliderx.stl id:0 copy 0
G1 F8640.000
G1 X132.627 Y99.981 E-0.16774
G1 X132.627 Y102.546 E-0.59226
G1 E-0.04000 F2100.00000
G1 Z0.750 F10800.000
G1 X120.607 Y100.643
G1 Z0.350
G1 E0.80000 F2100.00000
M204 S800
G1 F1195
G1 X120.607 Y103.629 E0.07780
G1 X120.393 Y103.753 E0.00645
G1 X120.393 Y100.643 E0.08103
G1 X120.547 Y100.643 E0.00402
M204 S1000
G1 F8640.000
G1 X120.607 Y103.629 E-0.68963
G1 X120.393 Y103.753 E-0.05716
G1 X120.393 Y103.695 E-0.01321
G1 E-0.04000 F2100.00000
G1 Z0.750 F10800.000
G1 X120.393 Y106.247
G1 Z0.350
G1 E0.80000 F2100.00000
M204 S800
G1 F1195
G1 X120.607 Y106.371 E0.00645
G1 X120.607 Y109.357 E0.07780
G1 X120.393 Y109.357 E0.00559
G1 X120.393 Y106.307 E0.07947
M204 S1000
G1 F8640.000
G1 X120.607 Y106.371 E-0.05165
G1 X120.607 Y109.357 E-0.68949
G1 X120.525 Y109.357 E-0.01886
G1 E-0.04000 F2100.00000
G1 Z0.750 F10800.000
G1 X127.036 Y109.357
G1 Z0.350
G1 E0.80000 F2100.00000
M204 S800
G1 F1195
G1 X128.375 Y107.038 E0.06978
G1 X129.607 Y109.172 E0.06421
G1 X129.607 Y109.357 E0.00482
G1 X127.096 Y109.357 E0.06543
M204 S1000
G1 F8640.000
G1 X128.375 Y107.038 E-0.61154
G1 X128.696 Y107.595 E-0.14846
G1 E-0.04000 F2100.00000
G1 Z0.750 F10800.000
G1 X128.375 Y102.962
G1 Z0.350
G1 E0.80000 F2100.00000
M204 S800
G1 F1195
G1 X127.036 Y100.643 E0.06978
G1 X129.607 Y100.643 E0.06699
G1 X129.607 Y100.828 E0.00482
G1 X128.405 Y102.910 E0.06265
M204 S1000
G1 F8640.000
G1 X127.036 Y100.643 E-0.61154
G1 X127.679 Y100.643 E-0.14846
G1 E-0.04000 F2100.00000
G1 Z0.750 F10800.000
G1 X126.630 Y100.775
G1 Z0.350
G1 E0.80000 F2100.00000
M204 S800
G1 F1195
G1 X121.025 Y100.775 E0.14604
G1 X121.025 Y103.870 E0.08065
G1 X120.592 Y104.120 E0.01303
G1 X120.592 Y105.880 E0.04585
G1 X121.025 Y106.130 E0.01303
G1 X121.025 Y109.225 E0.08065
G1 X126.630 Y109.225 E0.14604
G1 X128.375 Y106.202 E0.09094
G1 X130.025 Y109.060 E0.08598
G1 X130.025 Y109.775 E0.01862
G1 X119.975 Y109.775 E0.26186
G1 X119.975 Y100.225 E0.24883
G1 X130.025 Y100.225 E0.26186
G1 X130.025 Y100.940 E0.01862
G1 X128.375 Y103.798 E0.08598
G1 X126.660 Y100.827 E0.08938
M204 S1000
G1 X126.436 Y100.425 F10800.000
G1 X126.712 Y100.500
G1 F1195
G1 X120.816 Y100.500 E0.04861
G1 F8640.000
G1 X124.108 Y100.500 E-0.76000
G1 E-0.04000 F2100.00000
G1 Z0.750 F10800.000
G1 X120.283 Y104.057
G1 Z0.350
G1 E0.80000 F2100.00000
G1 F1195
G1 X120.283 Y105.943 E0.02343
G1 F8640.000
G1 X120.283 Y104.057 E-0.43549
G1 E-0.36451 F2100.00000
G1 Z0.750 F10800.000
G1 X120.816 Y109.500
G1 Z0.350
G1 E0.80000 F2100.00000
G1 F1195
G1 X126.712 Y109.500 E0.04861
G1 F8640.000
G1 X123.421 Y109.500 E-0.76000
G1 E-0.04000 F2100.00000
G1 Z0.750 F10800.000
G1 X128.545 Y109.232
G1 Z0.350
G1 E0.80000 F2100.00000
G1 F1195
G1 X129.011 Y108.766 E0.01758
G1 X128.789 Y108.382 E0.01182
G1 X128.128 Y109.044 E0.02496
G1 X127.579 Y109.044 E0.01465
G1 X127.655 Y108.911 E0.00408
G1 X128.705 Y107.861 E0.03963
G1 F8640.000
G1 X127.655 Y108.911 E-0.34294
G1 X127.579 Y109.044 E-0.03534
G1 X128.128 Y109.044 E-0.12678
G1 X128.789 Y108.382 E-0.21601
G1 X128.874 Y108.528 E-0.03893
G1 E-0.04000 F2100.00000
G1 Z0.750 F10800.000
G1 X128.044 Y102.139
G1 Z0.350
G1 E0.80000 F2100.00000
G1 F1195
G1 X129.095 Y101.088 E0.03964
G1 X129.171 Y100.956 E0.00407
G1 X128.622 Y100.956 E0.01465
G1 X127.961 Y101.618 E0.02496
G1 X127.739 Y101.234 E0.01182
G1 X128.205 Y100.768 E0.01758
; stop printing object Sliderx.stl id:0 copy 0
;BEFORE_LAYER_CHANGE
G92 E0.0
;0.43125


G1 F8640.000
G1 X127.739 Y101.234 E-0.15211
G1 X127.961 Y101.618 E-0.10228
G1 X128.622 Y100.956 E-0.21598
G1 X129.171 Y100.956 E-0.12681
G1 X129.095 Y101.088 E-0.03526
G1 X128.704 Y101.479 E-0.12756
G1 E-0.04000 F2100.00000
G1 Z0.750 F10800.000
;AFTER_LAYER_CHANGE
;0.43125
; printing object Sliderx.stl id:0 copy 0
G1 X125.143 Y102.682
G1 Z0.431
G1 E0.80000 F2100.00000
G1 F900
G1 X121.634 Y102.682 E0.10134
G1 X121.634 Y104.103 E0.04103
G1 X121.531 Y104.281 E0.00594
G1 X121.201 Y104.472 E0.01101
