; generated by PrusaSlicer 2.2.0+win64 on 2021-03-07 at 22:36:25 UTC

; 

; external perimeters extrusion width = 0.45mm
; perimeters extrusion width = 0.45mm
; infill extrusion width = 0.45mm
; solid infill extrusion width = 0.45mm
; top infill extrusion width = 0.40mm
; first layer extrusion width = 0.42mm

M73 P0 R52
M73 Q0 S52
M201 X1000 Y1000 Z200 E5000 ; sets maximum accelerations, mm/sec^2
M203 X200 Y200 Z12 E120 ; sets maximum feedrates, mm/sec
M204 P1250 R1250 T1250 ; sets acceleration (P, T) and retract acceleration (R), mm/sec^2
M205 X8.00 Y8.00 Z0.40 E4.50 ; sets the jerk limits, mm/sec
M205 S0 T0 ; sets the minimum extruding and travel feed rate, mm/sec
M107
M862.3 P "MK3S" ; printer model check
M862.1 P0.4 ; nozzle diameter check
M115 U3.9.3 ; tell printer latest fw version
G90 ; use absolute coordinates
M83 ; extruder relative mode
M104 S215 ; set extruder temp
M140 S60 ; set bed temp
M190 S60 ; wait for bed temp
M109 S215 ; wait for extruder temp
G28 W ; home all without mesh bed level
G80 ; mesh bed leveling
G1 Y-3.0 F1000.0 ; go outside print area
G92 E0.0
G1 X60.0 E9.0 F1000.0 ; intro line
M73 Q0 S52
M73 P0 R51
G1 X100.0 E12.5 F1000.0 ; intro line
G92 E0.0
M221 S95

; Don't change E values below. Excessive value can damage the printer.
M907 E430 ; set extruder motor current
G21 ; set units to millimeters
G90 ; use absolute coordinates
M83 ; use relative distances for extrusion
M900 K0.05 ; Filament gcode LA 1.5
M900 K30 ; Filament gcode LA 1.0
;BEFORE_LAYER_CHANGE
G92 E0.0
;0.2


G1 E-0.80000 F2100.00000
G1 Z0.400 F10800.000
;AFTER_LAYER_CHANGE
;0.2
G1 X151.022 Y118.528
G1 Z0.200
G1 E0.80000 F2100.00000
M204 S1000
G1 F1200.000
G1 X150.045 Y118.729 E0.03127
G1 X99.953 Y118.730 E1.57062
G1 X99.275 Y118.632 E0.02145
G1 X98.661 Y118.371 E0.02093
G1 X98.220 Y118.047 E0.01716
G1 X97.403 Y117.234 E0.03615
G1 X96.879 Y116.462 E0.02924
G1 X96.659 Y115.563 E0.02902
G1 X96.413 Y100.671 E0.46700
G1 X97.967 Y90.827 E0.31247
G1 X98.191 Y90.219 E0.02032
G1 X98.617 Y89.508 E0.02597
G1 X108.212 Y77.436 E0.48350
G1 X108.666 Y77.083 E0.01804
G1 X109.167 Y76.836 E0.01752
G1 X109.768 Y76.668 E0.01957
G1 X110.432 Y76.599 E0.02093
G1 X138.927 Y76.596 E0.89343
G1 X139.712 Y76.662 E0.02469
G1 X140.364 Y76.842 E0.02121
G1 X140.919 Y77.128 E0.01959
G1 X141.416 Y77.553 E0.02049
G1 X150.893 Y89.499 E0.47811
G1 X151.228 Y90.022 E0.01948
G1 X151.523 Y90.734 E0.02416
G1 X153.096 Y100.523 E0.31085
G1 X153.346 Y115.367 E0.46549
G1 X153.259 Y116.068 E0.02214
G1 X153.002 Y116.696 E0.02128
G1 X152.670 Y117.156 E0.01779
G1 X151.851 Y117.981 E0.03643
G1 X151.072 Y118.495 E0.02928
; printing object V5 Battery Clip.stl id:1 copy 0
G1 F8640.000
G1 X150.045 Y118.729 E-0.24322
G1 X147.807 Y118.729 E-0.51678
G1 E-0.04000 F2100.00000
G1 Z0.600 F10800.000
G1 X149.668 Y101.031
G1 Z0.200
G1 E0.80000 F2100.00000
G1 F1200.000
G1 X148.478 Y99.829 E0.05304
G1 X148.512 Y95.070 E0.14920
G1 X148.473 Y92.092 E0.09339
G1 X148.447 Y91.884 E0.00658
G1 X148.386 Y91.696 E0.00620
G1 X148.198 Y91.480 E0.00897
G1 X147.650 Y91.115 E0.02065
G1 X146.956 Y90.712 E0.02518
G1 X146.091 Y90.310 E0.02990
G1 X145.635 Y90.009 E0.01711
G1 X146.368 Y90.010 E0.02295
G1 X146.743 Y90.082 E0.01198
G1 X147.074 Y90.312 E0.01265
G1 X148.408 Y91.126 E0.04899
G1 X148.541 Y91.244 E0.00559
G1 X148.729 Y91.510 E0.01020
G1 X148.830 Y91.847 E0.01103
G1 X148.853 Y92.280 E0.01360
G1 X148.900 Y95.557 E0.10276
G1 X149.028 Y98.993 E0.10780
G1 X149.060 Y99.180 E0.00596
G1 X149.168 Y99.518 E0.01113
G1 X149.352 Y99.858 E0.01209
G1 X149.590 Y100.145 E0.01171
G1 X150.071 Y100.622 E0.02124
G1 X149.711 Y100.988 E0.01610
G1 X149.459 Y100.690 F10800.000
G1 X149.736 Y100.693
G1 F1200.000
G1 X149.377 Y100.333 E0.00819
G1 X149.010 Y99.906 E0.00907
G1 X148.843 Y99.680 E0.00723
G1 X148.815 Y99.515 E0.00433
G1 X148.796 Y99.386 E0.00317
G1 X148.776 Y99.257 E0.00273
G1 X148.757 Y99.027 E0.00405
G1 X148.743 Y98.123 E0.01267
G1 X148.729 Y97.231 E0.00952
G1 X148.716 Y96.339 E0.00663
G1 F8640.000
G1 X148.729 Y97.231 E-0.20607
G1 E-0.59393 F2100.00000
G1 Z0.600 F10800.000
G1 X146.919 Y90.461
G1 Z0.200
G1 E0.80000 F2100.00000
G1 F1200.000
G1 X146.649 Y90.306 E0.00258
G1 X146.435 Y90.238 E0.00186
G1 F8640.000
G1 X146.649 Y90.306 E-0.05188
G1 X146.919 Y90.461 E-0.07199
G1 E-0.67613 F2100.00000
G1 Z0.600 F10800.000
G1 X103.878 Y90.009
G1 Z0.200
G1 E0.80000 F2100.00000
G1 F1200.000
G1 X103.425 Y90.310 E0.01706
G1 X102.560 Y90.712 E0.02990
G1 X101.864 Y91.116 E0.02524
G1 X101.327 Y91.474 E0.02026
G1 X101.199 Y91.595 E0.00552
G1 X101.101 Y91.766 E0.00618
G1 X101.043 Y92.086 E0.01019
G1 X101.004 Y95.070 E0.09358
G1 X101.038 Y99.829 E0.14920
G1 X99.849 Y101.029 E0.05297
G1 X99.447 Y100.620 E0.01798
G1 X99.926 Y100.146 E0.02112
G1 X100.148 Y99.881 E0.01084
G1 X100.323 Y99.574 E0.01110
G1 X100.398 Y99.385 E0.00636
G1 X100.487 Y99.012 E0.01202
G1 X100.616 Y95.557 E0.10840
G1 X100.663 Y92.281 E0.10272
G1 X100.694 Y91.796 E0.01524
G1 X100.772 Y91.544 E0.00828
G1 X100.946 Y91.276 E0.01003
G1 X101.117 Y91.120 E0.00726
G1 X102.442 Y90.312 E0.04865
G1 X102.773 Y90.082 E0.01265
G1 X103.149 Y90.010 E0.01198
G1 X103.818 Y90.009 E0.02100
G1 X103.512 Y90.169 F10800.000
G1 X103.081 Y90.238
G1 F1200.000
G1 X102.868 Y90.306 E0.00186
G1 X102.597 Y90.461 E0.00258
G1 F8640.000
G1 X102.868 Y90.306 E-0.07199
G1 X103.081 Y90.238 E-0.05188
G1 E-0.67613 F2100.00000
G1 Z0.600 F10800.000
G1 X100.800 Y96.332
G1 Z0.200
G1 E0.80000 F2100.00000
G1 F1200.000
G1 X100.758 Y99.058 E0.02043
G1 X100.708 Y99.494 E0.00750
G1 X100.673 Y99.680 E0.00496
G1 X100.557 Y99.839 E0.00515
G1 X100.479 Y99.942 E0.00314
G1 X100.401 Y100.045 E0.00277
G1 X100.137 Y100.335 E0.00730
G1 X99.781 Y100.691 E0.00796
; stop printing object V5 Battery Clip.stl id:1 copy 0
; printing object V5 Battery Clip.stl id:0 copy 0
G1 F8640.000
G1 X100.137 Y100.335 E-0.11625
G1 E-0.68375 F2100.00000
G1 Z0.600 F10800.000
G1 X145.877 Y104.680
G1 Z0.200
G1 E0.80000 F2100.00000
G1 F1200.000
G1 X146.609 Y104.682 E0.02295
G1 X146.985 Y104.753 E0.01198
G1 X147.316 Y104.983 E0.01265
G1 X148.650 Y105.798 E0.04899
G1 X148.783 Y105.916 E0.00559
G1 X148.971 Y106.182 E0.01020
G1 X149.072 Y106.519 E0.01103
G1 X149.095 Y106.952 E0.01360
G1 X149.142 Y110.229 E0.10276
G1 X149.270 Y113.664 E0.10780
G1 X149.302 Y113.852 E0.00596
G1 X149.410 Y114.190 E0.01113
G1 X149.594 Y114.529 E0.01209
G1 X149.832 Y114.817 E0.01171
G1 X150.313 Y115.294 E0.02124
G1 X149.910 Y115.702 E0.01798
G1 X148.720 Y114.500 E0.05304
G1 X148.754 Y109.742 E0.14920
G1 X148.715 Y106.763 E0.09339
G1 X148.689 Y106.555 E0.00658
G1 X148.628 Y106.367 E0.00620
G1 X148.440 Y106.152 E0.00897
G1 X147.892 Y105.786 E0.02065
G1 X147.198 Y105.383 E0.02518
G1 X146.333 Y104.982 E0.02990
G1 X145.927 Y104.713 E0.01523
G1 X146.272 Y104.746 F10800.000
G1 X146.677 Y104.909
G1 F1200.000
G1 X146.891 Y104.978 E0.00186
G1 X147.161 Y105.133 E0.00258
G1 F8640.000
G1 X146.891 Y104.978 E-0.07199
G1 X146.677 Y104.909 E-0.05188
G1 E-0.67613 F2100.00000
G1 Z0.600 F10800.000
G1 X148.958 Y111.010
G1 Z0.200
G1 E0.80000 F2100.00000
G1 F1200.000
G1 X148.971 Y111.903 E0.00663
G1 X148.985 Y112.795 E0.00952
G1 X148.999 Y113.699 E0.01267
G1 X149.018 Y113.929 E0.00405
G1 X149.038 Y114.057 E0.00273
G1 X149.057 Y114.186 E0.00317
G1 X149.085 Y114.352 E0.00433
G1 X149.252 Y114.577 E0.00723
G1 X149.619 Y115.005 E0.00907
G1 X149.978 Y115.365 E0.00819
G1 F8640.000
G1 X149.619 Y115.005 E-0.11742
G1 X149.252 Y114.577 E-0.13016
G1 E-0.55242 F2100.00000
G1 Z0.600 F10800.000
G1 X104.120 Y104.680
G1 Z0.200
G1 E0.80000 F2100.00000
G1 F1200.000
G1 X103.667 Y104.982 E0.01706
G1 X102.802 Y105.383 E0.02990
G1 X102.106 Y105.787 E0.02524
G1 X101.569 Y106.146 E0.02026
G1 X101.441 Y106.266 E0.00552
G1 X101.343 Y106.438 E0.00618
G1 X101.285 Y106.757 E0.01019
G1 X101.246 Y109.742 E0.09358
G1 X101.280 Y114.500 E0.14920
G1 X100.091 Y115.701 E0.05297
G1 X99.689 Y115.292 E0.01798
G1 X100.168 Y114.818 E0.02112
G1 X100.390 Y114.553 E0.01084
G1 X100.565 Y114.245 E0.01110
G1 X100.640 Y114.057 E0.00636
G1 X100.729 Y113.684 E0.01202
G1 X100.858 Y110.229 E0.10840
G1 X100.905 Y106.953 E0.10272
G1 X100.936 Y106.468 E0.01524
G1 X101.014 Y106.215 E0.00828
G1 X101.188 Y105.947 E0.01003
G1 X101.359 Y105.792 E0.00726
G1 X102.684 Y104.983 E0.04865
G1 X103.015 Y104.753 E0.01265
G1 X103.391 Y104.682 E0.01198
G1 X104.060 Y104.680 E0.02100
G1 X103.754 Y104.841 F10800.000
G1 X103.323 Y104.909
G1 F1200.000
G1 X103.109 Y104.978 E0.00186
G1 X102.839 Y105.133 E0.00258
G1 F8640.000
G1 X103.109 Y104.978 E-0.07199
G1 X103.323 Y104.909 E-0.05188
G1 E-0.67613 F2100.00000
G1 Z0.600 F10800.000
G1 X101.042 Y111.004
G1 Z0.200
G1 E0.80000 F2100.00000
G1 F1200.000
G1 X101.000 Y113.729 E0.02043
G1 X100.950 Y114.165 E0.00750
G1 X100.915 Y114.351 E0.00496
G1 X100.799 Y114.511 E0.00515
G1 X100.721 Y114.613 E0.00314
G1 X100.643 Y114.716 E0.00277
G1 X100.379 Y115.007 E0.00730
G1 X100.023 Y115.363 E0.00796
; stop printing object V5 Battery Clip.stl id:0 copy 0
M106 S255
;BEFORE_LAYER_CHANGE
G92 E0.0
;0.35


G1 F8640.000
G1 X100.379 Y115.007 E-0.11625
G1 E-0.68375 F2100.00000
G1 Z0.600 F10800.000
;AFTER_LAYER_CHANGE
;0.35
M104 S210 ; set temperature
G1 X96.879 Y116.462
G1 Z0.350
G1 E0.80000 F2100.00000
G1 F3000.000
G1 X96.659 Y115.563 E0.02238
G1 X96.413 Y100.671 E0.36021
G1 X97.967 Y90.827 E0.24102
G1 X98.191 Y90.219 E0.01568
G1 X98.617 Y89.508 E0.02003
G1 X108.212 Y77.436 E0.37295
G1 X108.666 Y77.083 E0.01391
G1 X109.167 Y76.836 E0.01352
G1 X109.768 Y76.668 E0.01509
G1 X110.432 Y76.599 E0.01614
G1 X138.927 Y76.596 E0.68914
G1 X139.712 Y76.662 E0.01905
G1 X140.364 Y76.842 E0.01636
G1 X140.919 Y77.128 E0.01511
G1 X141.416 Y77.553 E0.01580
G1 X150.893 Y89.499 E0.36878
G1 X151.228 Y90.022 E0.01503
G1 X151.523 Y90.734 E0.01864
G1 X153.096 Y100.523 E0.23977
G1 X153.346 Y115.367 E0.35905
G1 X153.259 Y116.068 E0.01708
G1 X153.002 Y116.696 E0.01641
G1 X152.670 Y117.156 E0.01372
G1 X151.851 Y117.981 E0.02810
G1 X151.022 Y118.528 E0.02403
G1 X150.045 Y118.729 E0.02412
G1 X99.953 Y118.730 E1.21149
G1 X99.275 Y118.632 E0.01655
G1 X98.661 Y118.371 E0.01614
G1 X98.220 Y118.047 E0.01324
G1 X97.403 Y117.234 E0.02789
G1 X96.913 Y116.511 E0.02111
; printing object V5 Battery Clip.stl id:1 copy 0
G1 F8640.000
G1 X96.659 Y115.563 E-0.22675
G1 X96.621 Y113.254 E-0.53325
G1 E-0.04000 F2100.00000
G1 Z0.750 F10800.000
G1 X99.784 Y100.837
G1 Z0.350
G1 E0.80000 F2100.00000
M204 S800
G1 F2700.000
G1 X99.636 Y100.686 E0.00551
G1 X100.065 Y100.252 E0.01590
G1 X100.333 Y99.919 E0.01113
G1 X100.539 Y99.502 E0.01212
G1 X100.651 Y99.051 E0.01210
G1 X100.856 Y91.858 E0.18750
G1 X100.877 Y91.682 E0.00463
G1 X100.952 Y91.470 E0.00585
G1 X101.095 Y91.264 E0.00652
G1 X101.293 Y91.110 E0.00654
G1 X107.612 Y87.239 E0.19308
G1 X107.788 Y87.170 E0.00493
G1 X107.963 Y87.140 E0.00464
G1 X109.189 Y87.137 E0.03194
G1 X109.611 Y87.107 E0.01102
G1 X109.972 Y87.034 E0.00959
G1 X110.176 Y86.965 E0.00562
G1 X110.500 Y86.772 E0.00980
G1 X110.707 Y86.399 E0.01113
G1 X110.900 Y79.680 E0.17514
G1 X138.616 Y79.681 E0.72215
G1 X138.809 Y86.399 E0.17512
G1 X139.032 Y86.801 E0.01199
G1 X139.507 Y87.026 E0.01368
G1 X139.903 Y87.107 E0.01054
G1 X140.327 Y87.137 E0.01106
G1 X141.555 Y87.140 E0.03200
G1 X141.742 Y87.174 E0.00495
G1 X141.906 Y87.240 E0.00463
G1 X148.274 Y91.143 E0.19461
G1 X148.455 Y91.305 E0.00632
G1 X148.555 Y91.452 E0.00462
G1 X148.627 Y91.635 E0.00513
G1 X148.660 Y91.865 E0.00608
G1 X148.865 Y99.051 E0.18731
G1 X148.977 Y99.502 E0.01210
G1 X149.183 Y99.919 E0.01212
G1 X149.451 Y100.253 E0.01115
G1 X149.884 Y100.687 E0.01598
G1 X149.733 Y100.836 E0.00552
G1 X148.651 Y99.756 E0.03984
G1 X148.658 Y92.011 E0.20179
G1 X148.530 Y91.612 E0.01092
G1 X148.288 Y91.381 E0.00872
G1 X141.839 Y87.399 E0.19748
G1 X141.527 Y87.310 E0.00847
G1 X107.826 Y87.321 E0.87811
G1 X101.234 Y91.376 E0.20165
G1 X101.033 Y91.560 E0.00709
G1 X100.890 Y91.848 E0.00839
G1 X100.858 Y92.065 E0.00572
G1 X100.865 Y99.756 E0.20038
G1 X99.826 Y100.795 E0.03828
M204 S1000
G1 X99.865 Y101.347 F10800.000
M204 S800
G1 F1500.000
G1 X99.784 Y101.408 E0.00265
G1 X99.750 Y101.400 E0.00089
G1 X99.064 Y100.698 E0.02560
G1 X99.089 Y100.644 E0.00154
G1 X99.753 Y99.974 E0.02459
G1 X99.978 Y99.693 E0.00938
G1 X100.144 Y99.357 E0.00976
G1 X100.235 Y98.994 E0.00974
G1 X100.439 Y91.827 E0.18682
G1 X100.468 Y91.586 E0.00632
G1 X100.574 Y91.285 E0.00831
G1 X100.719 Y91.058 E0.00703
G1 X100.809 Y90.958 E0.00350
G1 X101.054 Y90.766 E0.00812
G1 X107.425 Y86.863 E0.19466
G1 X107.675 Y86.765 E0.00701
G1 X107.928 Y86.722 E0.00667
G1 X109.174 Y86.720 E0.03247
G1 X109.554 Y86.692 E0.00994
G1 X110.001 Y86.583 E0.01198
G1 X110.189 Y86.471 E0.00570
G1 X110.292 Y86.285 E0.00554
G1 X110.493 Y79.302 E0.18202
G1 X110.625 Y79.262 E0.00360
G1 X138.911 Y79.263 E0.73702
G1 X139.023 Y79.305 E0.00311
G1 X139.224 Y86.285 E0.18195
G1 X139.333 Y86.481 E0.00584
G1 X139.640 Y86.627 E0.00885
G1 X139.960 Y86.692 E0.00852
G1 X140.342 Y86.720 E0.00998
G1 X141.592 Y86.723 E0.03257
G1 X141.857 Y86.770 E0.00701
G1 X142.095 Y86.865 E0.00666
G1 X148.525 Y90.807 E0.19654
G1 X148.771 Y91.028 E0.00862
G1 X148.926 Y91.254 E0.00715
G1 X149.034 Y91.527 E0.00763
G1 X149.077 Y91.830 E0.00797
G1 X149.281 Y98.994 E0.18676
G1 X149.372 Y99.357 E0.00974
G1 X149.538 Y99.693 E0.00976
G1 X149.763 Y99.974 E0.00939
G1 X150.419 Y100.633 E0.02422
G1 X150.456 Y100.694 E0.00186
G1 X149.744 Y101.412 E0.02635
G1 X149.680 Y101.373 E0.00195
G1 X148.233 Y99.929 E0.05327
G1 X148.240 Y92.076 E0.20461
G1 X148.165 Y91.840 E0.00644
G1 X148.031 Y91.713 E0.00481
G1 X141.669 Y87.785 E0.19482
G1 X141.469 Y87.728 E0.00544
G1 X107.944 Y87.739 E0.87351
G1 X101.487 Y91.711 E0.19754
G1 X101.373 Y91.816 E0.00404
G1 X101.293 Y91.974 E0.00461
G1 X101.276 Y92.095 E0.00317
G1 X101.283 Y99.929 E0.20411
G1 X99.907 Y101.304 E0.05069
M204 S1000
G1 X99.764 Y101.332 F10800.000
G1 F8640.000
G1 X99.784 Y101.408 E-0.03725
G1 X99.750 Y101.400 E-0.00793
G1 X99.064 Y100.698 E-0.22685
G1 X99.089 Y100.644 E-0.01366
G1 X99.753 Y99.974 E-0.21789
G1 X99.978 Y99.693 E-0.08316
G1 X100.144 Y99.357 E-0.08650
G1 X100.235 Y98.994 E-0.08632
G1 X100.235 Y98.992 E-0.00045
G1 E-0.04000 F2100.00000
G1 Z0.750 F10800.000
G1 X138.331 Y87.186
G1 Z0.350
G1 E0.80000 F2100.00000
G1 F1800.000
G1 X138.693 Y86.825 E0.02198
G1 X138.503 Y86.483 E0.01680
G1 X138.502 Y86.432 E0.00218
G1 X137.931 Y87.003 E0.03471
G1 X137.347 Y87.003 E0.02509
G1 X138.486 Y85.864 E0.06919
G1 X138.469 Y85.297 E0.02439
G1 X136.763 Y87.003 E0.10368
G1 X136.179 Y87.004 E0.02509
G1 X138.453 Y84.730 E0.13817
G1 X138.436 Y84.162 E0.02439
G1 X135.595 Y87.004 E0.17266
G1 X135.011 Y87.004 E0.02509
G1 X138.420 Y83.595 E0.20715
G1 X138.404 Y83.028 E0.02439
G1 X134.427 Y87.004 E0.24163
G1 X133.843 Y87.004 E0.02509
G1 X138.387 Y82.460 E0.27612
G1 X138.371 Y81.893 E0.02439
G1 X133.260 Y87.004 E0.31061
G1 X132.676 Y87.005 E0.02509
G1 X138.355 Y81.326 E0.34510
G1 X138.338 Y80.758 E0.02439
G1 X132.092 Y87.005 E0.37959
G1 X131.508 Y87.005 E0.02509
G1 X138.322 Y80.191 E0.41408
G1 X138.316 Y79.989 E0.00867
G1 X137.940 Y79.989 E0.01616
G1 X130.924 Y87.005 E0.42635
G1 X130.340 Y87.005 E0.02509
G1 X137.356 Y79.989 E0.42636
G1 X136.773 Y79.989 E0.02508
G1 X129.756 Y87.006 E0.42637
G1 X129.172 Y87.006 E0.02509
G1 X136.189 Y79.989 E0.42639
G1 X135.605 Y79.989 E0.02508
G1 X128.588 Y87.006 E0.42640
G1 X128.004 Y87.006 E0.02509
G1 X135.022 Y79.989 E0.42641
G1 X134.438 Y79.989 E0.02508
G1 X127.420 Y87.006 E0.42642
G1 X126.837 Y87.006 E0.02509
G1 X133.854 Y79.989 E0.42643
G1 X133.270 Y79.989 E0.02508
G1 X126.253 Y87.007 E0.42645
G1 X125.669 Y87.007 E0.02509
G1 X132.687 Y79.989 E0.42646
G1 X132.103 Y79.989 E0.02508
G1 X125.085 Y87.007 E0.42647
G1 X124.501 Y87.007 E0.02509
G1 X131.519 Y79.989 E0.42648
G1 X130.936 Y79.989 E0.02508
G1 X123.917 Y87.007 E0.42650
G1 X123.333 Y87.008 E0.02509
G1 X130.352 Y79.989 E0.42651
G1 X129.768 Y79.989 E0.02508
G1 X122.749 Y87.008 E0.42652
G1 X122.165 Y87.008 E0.02509
G1 X129.185 Y79.989 E0.42653
G1 X128.601 Y79.989 E0.02508
G1 X121.581 Y87.008 E0.42655
G1 X120.997 Y87.008 E0.02509
G1 X128.017 Y79.989 E0.42656
G1 X127.433 Y79.989 E0.02508
G1 X120.414 Y87.008 E0.42657
