; generated by PrusaSlicer 2.2.0+win64 on 2020-12-14 at 23:36:23 UTC


;
;

;
;
; 

; external perimeters extrusion width = 0.45mm
; perimeters extrusion width = 0.45mm
; infill extrusion width = 0.45mm
; solid infill extrusion width = 0.45mm
; top infill extrusion width = 0.40mm
; first layer extrusion width = 0.42mm

M73 P0 R31
M201 X1250 Y1250 Z400 E5000 ; sets maximum accelerations, mm/sec^2
M203 X180 Y180 Z12 E80 ; sets maximum feedrates, mm/sec
M204 P1250 R1250 T1250 ; sets acceleration (P, T) and retract acceleration (R), mm/sec^2
M205 X8.00 Y8.00 Z2.00 E10.00 ; sets the jerk limits, mm/sec
M205 S0 T0 ; sets the minimum extruding and travel feed rate, mm/sec
M107
G90 ; use absolute coordinates
M83 ; extruder relative mode
M104 S170 ; set extruder temp for bed leveling
M140 S60 ; set bed temp
M109 R170 ; wait for bed leveling temp
M190 S60 ; wait for bed temp
G28 ; home all without mesh bed level
G29 ; mesh bed leveling 
M104 S215 ; set extruder temp
G92 E0.0
G1 Y-2.0 X179 F2400
G1 Z3 F720
M109 S215 ; wait for extruder temp

; intro line
G1 X170 F1000
G1 Z0.2 F720
G1 X110.0 E8.0 F900
M73 P0 R31
G1 X40.0 E10.0 F700
G92 E0.0

M221 S95 ; set flow
G21 ; set units to millimeters
G90 ; use absolute coordinates
M83 ; use relative distances for extrusion
M900 K0.2 ; Filament gcode LA 1.5
; ; Filament gcode LA 1.0
;BEFORE_LAYER_CHANGE
G92 E0.0
;0.2


G1 Z0.200 F9000.000
;AFTER_LAYER_CHANGE
;0.2
G1 E-3.20000 F4200.00000
G1 Z0.400 F9000.000
G1 X65.084 Y78.952
G1 Z0.200
G1 E3.20000 F2400.00000
M204 S800
G1 F1200.000
G1 X66.104 Y78.118 E0.04132
G1 X79.137 Y69.685 E0.48671
G1 X80.036 Y69.265 E0.03111
G1 X80.984 Y69.123 E0.03007
G1 X100.004 Y69.123 E0.59634
G1 X100.676 Y69.221 E0.02130
G1 X101.293 Y69.506 E0.02130
G1 X114.049 Y78.223 E0.48442
G1 X115.024 Y79.052 E0.04012
G1 X115.759 Y79.893 E0.03503
G1 X116.625 Y81.271 E0.05102
G1 X117.149 Y82.609 E0.04505
G1 X117.400 Y83.696 E0.03496
G1 X117.499 Y84.873 E0.03704
G1 X117.502 Y95.015 E0.31801
G1 X117.425 Y96.102 E0.03417
G1 X117.103 Y97.554 E0.04663
G1 X116.593 Y98.795 E0.04207
G1 X115.890 Y99.940 E0.04211
G1 X114.916 Y101.048 E0.04627
G1 X113.896 Y101.882 E0.04132
G1 X100.863 Y110.315 E0.48671
G1 X99.979 Y110.731 E0.03064
G1 X99.019 Y110.877 E0.03044
G1 X80.989 Y110.877 E0.56534
G1 X80.018 Y110.730 E0.03079
G1 X79.154 Y110.326 E0.02990
G1 X66.037 Y101.837 E0.48987
G1 X64.825 Y100.789 E0.05024
G1 X64.082 Y99.902 E0.03632
G1 X63.398 Y98.777 E0.04126
G1 X62.906 Y97.582 E0.04052
G1 X62.597 Y96.285 E0.04180
G1 X62.498 Y95.021 E0.03977
G1 X62.498 Y84.973 E0.31503
G1 X62.635 Y83.512 E0.04601
G1 X62.907 Y82.413 E0.03551
G1 X63.334 Y81.361 E0.03559
G1 X64.094 Y80.082 E0.04666
G1 X65.044 Y78.997 E0.04522
M204 S1250
G1 E-2.24000 F4200.00000
G1 F7200.000
G1 X66.104 Y78.118 E-0.76306
G1 X66.330 Y77.972 E-0.14894
G1 E-0.04800 F4200.00000
G1 Z0.400 F9000.000
G1 X78.887 Y76.702
G1 Z0.200
G1 E3.20000 F2400.00000
M204 S800
G1 F1200.000
G1 X79.404 Y76.446 E0.01808
G1 X79.699 Y76.369 E0.00954
G1 X79.983 Y76.343 E0.00894
G1 X99.501 Y76.340 E0.61197
G1 X100.018 Y76.343 E0.01622
G1 X100.301 Y76.369 E0.00893
G1 X100.596 Y76.446 E0.00954
G1 X101.113 Y76.702 E0.01808
G1 X101.347 Y76.901 E0.00963
G1 X101.544 Y77.126 E0.00939
G1 X101.702 Y77.382 E0.00944
G1 X101.818 Y77.659 E0.00941
G1 X101.888 Y77.951 E0.00941
G1 X101.910 Y78.234 E0.00890
G1 X101.910 Y83.766 E0.17346
G1 X101.888 Y84.049 E0.00890
G1 X101.818 Y84.341 E0.00940
G1 X101.703 Y84.618 E0.00940
G1 X101.546 Y84.873 E0.00940
G1 X101.351 Y85.101 E0.00940
G1 X101.123 Y85.296 E0.00940
G1 X100.868 Y85.453 E0.00940
G1 X100.591 Y85.568 E0.00940
G1 X100.299 Y85.638 E0.00940
G1 X100.016 Y85.660 E0.00890
G1 X79.984 Y85.660 E0.62810
G1 X79.701 Y85.638 E0.00890
G1 X79.409 Y85.568 E0.00940
G1 X79.132 Y85.453 E0.00940
G1 X78.877 Y85.296 E0.00940
G1 X78.649 Y85.101 E0.00940
G1 X78.454 Y84.873 E0.00940
G1 X78.297 Y84.618 E0.00940
G1 X78.182 Y84.341 E0.00940
G1 X78.112 Y84.049 E0.00940
G1 X78.090 Y83.766 E0.00890
G1 X78.090 Y78.234 E0.17346
G1 X78.112 Y77.951 E0.00890
G1 X78.182 Y77.659 E0.00941
G1 X78.298 Y77.382 E0.00941
G1 X78.456 Y77.126 E0.00944
G1 X78.653 Y76.901 E0.00939
G1 X78.842 Y76.741 E0.00774
M204 S1250
G1 X78.871 Y76.302 F9000.000
G1 X80.018 Y75.966
M204 S800
G1 F1200.000
G1 X80.255 Y75.691 E0.01139
G1 X80.485 Y75.317 E0.01377
G1 X80.653 Y74.912 E0.01373
G1 X80.755 Y74.486 E0.01373
G1 X80.787 Y74.081 E0.01275
G1 X80.787 Y72.553 E0.04790
G1 X80.805 Y72.436 E0.00372
G1 X80.842 Y72.365 E0.00251
G1 X80.968 Y72.297 E0.00449
G1 X99.213 Y72.287 E0.57205
G1 X99.213 Y74.081 E0.05623
G1 X99.245 Y74.486 E0.01275
G1 X99.347 Y74.912 E0.01373
G1 X99.515 Y75.317 E0.01373
G1 X99.745 Y75.691 E0.01377
G1 X99.982 Y75.966 E0.01139
G1 X80.078 Y75.966 E0.62409
M204 S1250
G1 E-2.24000 F4200.00000
G1 F7200.000
G1 X80.255 Y75.691 E-0.18124
G1 X80.485 Y75.317 E-0.24345
G1 X80.653 Y74.912 E-0.24274
G1 X80.755 Y74.486 E-0.24262
G1 X80.755 Y74.483 E-0.00194
G1 E-0.04800 F4200.00000
G1 Z0.400 F9000.000
G1 X106.317 Y82.712
G1 Z0.200
G1 E3.20000 F2400.00000
M204 S800
G1 F1200.000
G1 X106.509 Y82.275 E0.01496
G1 X106.770 Y81.875 E0.01496
G1 X107.093 Y81.524 E0.01496
G1 X107.469 Y81.231 E0.01496
G1 X107.889 Y81.004 E0.01496
G1 X108.341 Y80.849 E0.01496
G1 X108.811 Y80.770 E0.01496
G1 X109.289 Y80.770 E0.01496
G1 X109.759 Y80.849 E0.01496
G1 X110.185 Y80.995 E0.01412
G1 X110.628 Y81.229 E0.01571
G1 X111.007 Y81.524 E0.01506
G1 X111.330 Y81.875 E0.01496
G1 X111.591 Y82.275 E0.01496
G1 X111.783 Y82.712 E0.01496
G1 X111.900 Y83.174 E0.01496
G1 X111.937 Y83.617 E0.01394
G1 X111.937 Y96.383 E0.40024
G1 X111.900 Y96.826 E0.01394
G1 X111.783 Y97.288 E0.01496
G1 X111.591 Y97.725 E0.01496
G1 X111.330 Y98.125 E0.01496
G1 X111.007 Y98.476 E0.01496
G1 X110.631 Y98.769 E0.01496
G1 X110.211 Y98.996 E0.01496
G1 X109.759 Y99.151 E0.01496
G1 X109.289 Y99.230 E0.01496
G1 X108.811 Y99.230 E0.01496
G1 X108.341 Y99.151 E0.01496
G1 X107.889 Y98.996 E0.01496
G1 X107.469 Y98.769 E0.01496
G1 X107.093 Y98.476 E0.01496
G1 X106.770 Y98.125 E0.01496
G1 X106.509 Y97.725 E0.01496
G1 X106.317 Y97.288 E0.01496
G1 X106.200 Y96.826 E0.01496
G1 X106.163 Y96.383 E0.01394
G1 X106.163 Y83.617 E0.40024
G1 X106.200 Y83.174 E0.01394
G1 X106.302 Y82.770 E0.01308
M204 S1250
G1 X106.668 Y82.862 F9000.000
M204 S800
G1 F1200.000
G1 X106.841 Y82.455 E0.01390
G1 X107.068 Y82.107 E0.01301
G1 X107.349 Y81.802 E0.01301
G1 X107.676 Y81.548 E0.01301
G1 X108.041 Y81.350 E0.01301
G1 X108.433 Y81.215 E0.01301
G1 X108.843 Y81.147 E0.01301
G1 X109.257 Y81.147 E0.01301
G1 X109.667 Y81.215 E0.01301
G1 X110.035 Y81.342 E0.01222
G1 X110.423 Y81.547 E0.01375
G1 X110.751 Y81.802 E0.01304
G1 X111.032 Y82.107 E0.01301
G1 X111.259 Y82.455 E0.01301
G1 X111.425 Y82.835 E0.01301
G1 X111.527 Y83.237 E0.01300
G1 X111.560 Y83.633 E0.01247
G1 X111.560 Y96.367 E0.39926
G1 X111.527 Y96.763 E0.01247
G1 X111.425 Y97.165 E0.01300
G1 X111.259 Y97.545 E0.01301
G1 X111.032 Y97.893 E0.01301
G1 X110.751 Y98.198 E0.01301
G1 X110.424 Y98.452 E0.01301
G1 X110.059 Y98.650 E0.01301
G1 X109.667 Y98.785 E0.01301
G1 X109.257 Y98.853 E0.01301
G1 X108.843 Y98.853 E0.01301
G1 X108.433 Y98.785 E0.01301
G1 X108.041 Y98.650 E0.01301
G1 X107.676 Y98.452 E0.01301
G1 X107.349 Y98.198 E0.01301
G1 X107.068 Y97.893 E0.01301
G1 X106.841 Y97.545 E0.01301
G1 X106.675 Y97.165 E0.01301
G1 X106.573 Y96.763 E0.01300
G1 X106.540 Y96.367 E0.01247
G1 X106.540 Y83.633 E0.39926
G1 X106.573 Y83.237 E0.01247
G1 X106.653 Y82.921 E0.01022
M204 S1250
G1 X106.403 Y82.563 F9000.000
G1 E-2.24000 F4200.00000
G1 F7200.000
G1 X106.841 Y82.455 E-0.27849
G1 X107.068 Y82.107 E-0.22986
G1 X107.349 Y81.802 E-0.22986
G1 X107.597 Y81.610 E-0.17380
G1 E-0.04800 F4200.00000
G1 Z0.400 F9000.000
G1 X73.800 Y83.174
G1 Z0.200
G1 E3.20000 F2400.00000
M204 S800
G1 F1200.000
G1 X73.837 Y83.617 E0.01394
G1 X73.837 Y96.383 E0.40024
G1 X73.800 Y96.826 E0.01394
G1 X73.683 Y97.288 E0.01496
G1 X73.491 Y97.725 E0.01496
G1 X73.230 Y98.125 E0.01496
G1 X72.907 Y98.476 E0.01496
G1 X72.531 Y98.769 E0.01496
G1 X72.111 Y98.996 E0.01496
G1 X71.659 Y99.151 E0.01496
G1 X71.189 Y99.230 E0.01496
G1 X70.711 Y99.230 E0.01496
G1 X70.241 Y99.151 E0.01496
G1 X69.789 Y98.996 E0.01496
G1 X69.369 Y98.769 E0.01496
G1 X68.993 Y98.476 E0.01496
G1 X68.670 Y98.125 E0.01496
G1 X68.409 Y97.725 E0.01496
G1 X68.217 Y97.288 E0.01496
G1 X68.100 Y96.826 E0.01496
G1 X68.063 Y96.383 E0.01394
G1 X68.063 Y83.617 E0.40024
G1 X68.100 Y83.174 E0.01394
G1 X68.217 Y82.712 E0.01496
G1 X68.409 Y82.275 E0.01496
G1 X68.670 Y81.875 E0.01496
G1 X68.993 Y81.524 E0.01496
G1 X69.369 Y81.231 E0.01496
G1 X69.789 Y81.004 E0.01496
G1 X70.241 Y80.849 E0.01496
G1 X70.711 Y80.770 E0.01496
G1 X71.189 Y80.770 E0.01496
G1 X71.659 Y80.849 E0.01496
G1 X72.085 Y80.995 E0.01412
G1 X72.528 Y81.229 E0.01571
G1 X72.907 Y81.524 E0.01506
G1 X73.230 Y81.875 E0.01496
G1 X73.491 Y82.275 E0.01496
G1 X73.683 Y82.712 E0.01496
G1 X73.786 Y83.116 E0.01308
M204 S1250
G1 X73.420 Y83.209 F9000.000
M204 S800
G1 F1200.000
G1 X73.460 Y83.633 E0.01336
G1 X73.460 Y96.367 E0.39926
G1 X73.427 Y96.763 E0.01247
G1 X73.325 Y97.165 E0.01301
G1 X73.159 Y97.545 E0.01301
G1 X72.932 Y97.893 E0.01301
G1 X72.651 Y98.198 E0.01301
G1 X72.324 Y98.452 E0.01301
G1 X71.959 Y98.650 E0.01301
G1 X71.567 Y98.785 E0.01301
G1 X71.157 Y98.853 E0.01301
G1 X70.743 Y98.853 E0.01301
G1 X70.333 Y98.785 E0.01301
G1 X69.941 Y98.650 E0.01301
G1 X69.576 Y98.452 E0.01301
G1 X69.249 Y98.198 E0.01301
G1 X68.968 Y97.893 E0.01301
G1 X68.741 Y97.545 E0.01301
G1 X68.575 Y97.165 E0.01301
G1 X68.473 Y96.763 E0.01301
G1 X68.440 Y96.367 E0.01247
G1 X68.440 Y83.633 E0.39926
G1 X68.473 Y83.237 E0.01247
G1 X68.575 Y82.835 E0.01301
G1 X68.741 Y82.455 E0.01301
G1 X68.968 Y82.107 E0.01301
G1 X69.249 Y81.802 E0.01301
G1 X69.576 Y81.548 E0.01301
G1 X69.941 Y81.350 E0.01301
G1 X70.333 Y81.215 E0.01301
G1 X70.743 Y81.147 E0.01301
G1 X71.157 Y81.147 E0.01301
G1 X71.567 Y81.215 E0.01301
G1 X71.935 Y81.342 E0.01222
G1 X72.323 Y81.547 E0.01375
G1 X72.651 Y81.802 E0.01304
G1 X72.932 Y82.107 E0.01301
G1 X73.159 Y82.455 E0.01301
G1 X73.325 Y82.835 E0.01301
G1 X73.405 Y83.151 E0.01022
M204 S1250
G1 X73.796 Y83.346 F9000.000
G1 E-2.24000 F4200.00000
G1 F7200.000
G1 X73.460 Y83.633 E-0.26906
G1 X73.460 Y84.793 E-0.64294
G1 E-0.04800 F4200.00000
G1 Z0.400 F9000.000
G1 X75.334 Y76.930
G1 Z0.200
G1 E3.20000 F2400.00000
M204 S800
G1 F1200.000
G1 X75.436 Y76.855 E0.00395
G1 X75.553 Y76.837 E0.00373
G1 X78.033 Y76.836 E0.07775
G1 X78.223 Y76.820 E0.00596
G1 X78.151 Y76.901 E0.00338
G1 X77.961 Y77.210 E0.01138
G1 X77.823 Y77.542 E0.01128
G1 X77.739 Y77.892 E0.01128
G1 X77.713 Y78.219 E0.01029
G1 X77.713 Y83.781 E0.17439
G1 X77.739 Y84.108 E0.01029
G1 X77.823 Y84.457 E0.01126
G1 X77.960 Y84.789 E0.01126
G1 X78.148 Y85.096 E0.01126
G1 X78.381 Y85.369 E0.01126
G1 X78.654 Y85.602 E0.01126
G1 X78.961 Y85.790 E0.01126
G1 X79.293 Y85.927 E0.01126
G1 X79.642 Y86.011 E0.01126
G1 X79.969 Y86.037 E0.01029
G1 X100.031 Y86.037 E0.62902
G1 X100.358 Y86.011 E0.01029
G1 X100.708 Y85.927 E0.01126
G1 X101.039 Y85.790 E0.01126
G1 X101.346 Y85.602 E0.01126
G1 X101.619 Y85.369 E0.01126
G1 X101.852 Y85.096 E0.01126
G1 X102.040 Y84.789 E0.01126
G1 X102.177 Y84.457 E0.01126
G1 X102.261 Y84.108 E0.01126
G1 X102.287 Y83.781 E0.01029
G1 X102.287 Y78.219 E0.17439
G1 X102.261 Y77.892 E0.01029
G1 X102.177 Y77.542 E0.01128
G1 X102.039 Y77.210 E0.01128
G1 X101.849 Y76.901 E0.01138
G1 X101.777 Y76.820 E0.00338
G1 X101.967 Y76.836 E0.00596
G1 X104.713 Y76.837 E0.08610
G1 X104.713 Y78.856 E0.06329
G1 X104.754 Y79.109 E0.00805
G1 X104.906 Y79.406 E0.01046
G1 X105.242 Y79.694 E0.01388
G1 X105.621 Y79.787 E0.01221
G1 X109.106 Y79.788 E0.10929
G1 X109.939 Y79.853 E0.02620
G1 X110.735 Y80.044 E0.02566
G1 X111.491 Y80.357 E0.02566
G1 X112.187 Y80.784 E0.02559
G1 X112.811 Y81.317 E0.02573
G1 X113.341 Y81.938 E0.02559
G1 X113.768 Y82.634 E0.02560
G1 X114.081 Y83.389 E0.02562
G1 X114.272 Y84.185 E0.02567
G1 X114.338 Y85.031 E0.02661
G1 X114.338 Y94.973 E0.31174
G1 X114.272 Y95.814 E0.02645
G1 X114.081 Y96.610 E0.02566
G1 X113.768 Y97.366 E0.02566
G1 X113.341 Y98.062 E0.02559
G1 X112.808 Y98.686 E0.02573
G1 X112.187 Y99.216 E0.02559
G1 X111.491 Y99.643 E0.02560
G1 X110.736 Y99.956 E0.02563
G1 X109.939 Y100.147 E0.02569
G1 X109.098 Y100.213 E0.02647
G1 X105.644 Y100.213 E0.10827
G1 X105.391 Y100.254 E0.00805
G1 X105.115 Y100.395 E0.00971
G1 X104.878 Y100.632 E0.01051
G1 X104.718 Y101.018 E0.01311
G1 X104.703 Y102.980 E0.06150
G1 X104.635 Y103.108 E0.00456
G1 X104.564 Y103.145 E0.00251
G1 X104.447 Y103.163 E0.00372
G1 X101.969 Y103.163 E0.07768
G1 X101.564 Y103.195 E0.01275
G1 X101.134 Y103.298 E0.01386
G1 X100.699 Y103.486 E0.01486
G1 X100.360 Y103.693 E0.01244
G1 X100.028 Y103.978 E0.01372
G1 X99.743 Y104.310 E0.01372
G1 X99.515 Y104.684 E0.01372
G1 X99.347 Y105.088 E0.01372
G1 X99.245 Y105.514 E0.01372
G1 X99.213 Y105.919 E0.01275
G1 X99.213 Y107.447 E0.04790
G1 X99.195 Y107.564 E0.00372
G1 X99.155 Y107.641 E0.00273
G1 X99.064 Y107.695 E0.00331
G1 X98.947 Y107.713 E0.00372
G1 X81.053 Y107.713 E0.56103
G1 X80.936 Y107.695 E0.00372
G1 X80.880 Y107.666 E0.00199
G1 X80.805 Y107.564 E0.00395
G1 X80.787 Y107.447 E0.00372
G1 X80.787 Y105.919 E0.04790
G1 X80.755 Y105.514 E0.01275
G1 X80.653 Y105.088 E0.01372
G1 X80.485 Y104.684 E0.01372
G1 X80.257 Y104.310 E0.01372
G1 X79.972 Y103.978 E0.01372
G1 X79.640 Y103.693 E0.01372
G1 X79.266 Y103.465 E0.01372
G1 X78.862 Y103.297 E0.01372
G1 X78.436 Y103.195 E0.01372
G1 X78.031 Y103.163 E0.01275
G1 X75.553 Y103.163 E0.07768
G1 X75.436 Y103.145 E0.00372
G1 X75.380 Y103.116 E0.00199
G1 X75.297 Y102.997 E0.00452
G1 X75.282 Y101.042 E0.06131
G1 X75.179 Y100.726 E0.01044
G1 X74.906 Y100.406 E0.01319
G1 X74.609 Y100.254 E0.01046
G1 X74.356 Y100.213 E0.00805
G1 X70.894 Y100.212 E0.10854
G1 X70.061 Y100.147 E0.02620
G1 X69.265 Y99.956 E0.02566
G1 X68.509 Y99.643 E0.02566
G1 X67.813 Y99.216 E0.02559
G1 X67.189 Y98.683 E0.02573
G1 X66.659 Y98.062 E0.02559
G1 X66.232 Y97.366 E0.02560
G1 X65.919 Y96.611 E0.02562
G1 X65.728 Y95.815 E0.02567
G1 X65.662 Y94.969 E0.02661
G1 X65.663 Y85.019 E0.31199
G1 X65.728 Y84.186 E0.02619
G1 X65.919 Y83.390 E0.02567
G1 X66.232 Y82.634 E0.02566
G1 X66.659 Y81.938 E0.02559
G1 X67.192 Y81.314 E0.02573
G1 X67.813 Y80.784 E0.02559
G1 X68.509 Y80.357 E0.02560
G1 X69.264 Y80.044 E0.02563
G1 X70.061 Y79.853 E0.02569
G1 X70.902 Y79.787 E0.02647
G1 X74.356 Y79.787 E0.10827
G1 X74.609 Y79.746 E0.00805
G1 X74.906 Y79.594 E0.01046
G1 X75.179 Y79.274 E0.01319
G1 X75.282 Y78.958 E0.01044
G1 X75.307 Y76.983 E0.06193
M204 S1250
G1 E-2.24000 F4200.00000
G1 F7200.000
G1 X75.436 Y76.855 E-0.10059
G1 X75.553 Y76.837 E-0.06588
G1 X76.899 Y76.837 E-0.74554
G1 E-0.04800 F4200.00000
G1 Z0.400 F9000.000
G1 X74.490 Y79.383
G1 Z0.200
G1 E3.20000 F2400.00000
M204 S800
G1 F1200.000
G1 X74.668 Y79.292 E0.00626
G1 X74.844 Y79.087 E0.00848
G1 X74.905 Y78.897 E0.00626
G1 X74.920 Y76.951 E0.06102
G1 X74.938 Y76.876 E0.00240
G1 X75.025 Y76.705 E0.00602
G1 X75.155 Y76.575 E0.00576
G1 X75.318 Y76.492 E0.00575
G1 X75.524 Y76.460 E0.00653
G1 X78.017 Y76.459 E0.07816
G1 X78.379 Y76.428 E0.01138
G1 X78.748 Y76.335 E0.01194
G1 X79.085 Y76.180 E0.01162
G1 X79.410 Y76.000 E0.01166
G1 X79.702 Y75.754 E0.01197
G1 X79.950 Y75.468 E0.01188
G1 X80.148 Y75.145 E0.01188
G1 X80.293 Y74.795 E0.01187
G1 X80.382 Y74.427 E0.01186
G1 X80.410 Y74.066 E0.01136
G1 X80.410 Y72.524 E0.04835
G1 X80.442 Y72.318 E0.00653
G1 X80.529 Y72.148 E0.00601
G1 X80.578 Y72.090 E0.00237
G1 X80.734 Y71.977 E0.00602
G1 X80.908 Y71.920 E0.00576
G1 X99.590 Y71.910 E0.58575
G1 X99.590 Y74.066 E0.06760
G1 X99.618 Y74.427 E0.01136
G1 X99.707 Y74.795 E0.01186
G1 X99.852 Y75.145 E0.01187
G1 X100.050 Y75.468 E0.01188
G1 X100.298 Y75.754 E0.01188
G1 X100.590 Y76.000 E0.01197
G1 X100.915 Y76.180 E0.01166
G1 X101.252 Y76.335 E0.01162
G1 X101.621 Y76.428 E0.01194
G1 X101.983 Y76.459 E0.01138
G1 X105.090 Y76.460 E0.09741
G1 X105.090 Y78.825 E0.07415
G1 X105.117 Y78.990 E0.00525
G1 X105.208 Y79.168 E0.00626
G1 X105.419 Y79.349 E0.00873
G1 X105.667 Y79.410 E0.00798
G1 X109.121 Y79.410 E0.10831
G1 X109.998 Y79.480 E0.02760
