; generated by PrusaSlicer 2.2.0+win64 on 2020-12-14 at 23:37:41 UTC


;
;

;
;
; 

; external perimeters extrusion width = 0.45mm
; perimeters extrusion width = 0.45mm
; infill extrusion width = 0.45mm
; solid infill extrusion width = 0.45mm
; top infill extrusion width = 0.40mm
; first layer extrusion width = 0.42mm

M73 P0 R97
M201 X1250 Y1250 Z400 E5000 ; sets maximum accelerations, mm/sec^2
M203 X180 Y180 Z12 E80 ; sets maximum feedrates, mm/sec
M204 P1250 R1250 T1250 ; sets acceleration (P, T) and retract acceleration (R), mm/sec^2
M205 X8.00 Y8.00 Z2.00 E10.00 ; sets the jerk limits, mm/sec
M205 S0 T0 ; sets the minimum extruding and travel feed rate, mm/sec
M107
G90 ; use absolute coordinates
M83 ; extruder relative mode
M104 S170 ; set extruder temp for bed leveling
M140 S60 ; set bed temp
M109 R170 ; wait for bed leveling temp
M190 S60 ; wait for bed temp
G28 ; home all without mesh bed level
G29 ; mesh bed leveling 
M104 S215 ; set extruder temp
G92 E0.0
G1 Y-2.0 X179 F2400
G1 Z3 F720
M109 S215 ; wait for extruder temp

; intro line
G1 X170 F1000
G1 Z0.2 F720
G1 X110.0 E8.0 F900
M73 P0 R97
G1 X40.0 E10.0 F700
G92 E0.0

M221 S95 ; set flow
G21 ; set units to millimeters
G90 ; use absolute coordinates
M83 ; use relative distances for extrusion
M900 K0.2 ; Filament gcode LA 1.5
; ; Filament gcode LA 1.0
;BEFORE_LAYER_CHANGE
G92 E0.0
;0.2


G1 Z0.200 F9000.000
;AFTER_LAYER_CHANGE
;0.2
G1 E-3.20000 F4200.00000
G1 Z0.400 F9000.000
G1 X76.292 Y74.044
G1 Z0.200
G1 E3.20000 F2400.00000
M204 S800
G1 F1200.000
G1 X77.389 Y73.119 E0.04500
G1 X78.764 Y72.391 E0.04877
G1 X80.308 Y71.974 E0.05016
G1 X81.338 Y71.896 E0.03237
G1 X98.388 Y71.896 E0.53460
G1 X99.355 Y71.933 E0.03033
G1 X100.673 Y72.196 E0.04213
G1 X101.810 Y72.649 E0.03838
G1 X103.036 Y73.435 E0.04567
G1 X103.910 Y74.263 E0.03775
G1 X104.633 Y75.240 E0.03811
G1 X105.223 Y76.436 E0.04182
G1 X105.578 Y77.744 E0.04247
G1 X105.679 Y78.912 E0.03678
G1 X105.672 Y101.359 E0.70382
G1 X105.587 Y102.191 E0.02621
G1 X105.376 Y103.110 E0.02956
G1 X105.033 Y104.016 E0.03037
G1 X104.687 Y104.674 E0.02331
G1 X103.671 Y105.994 E0.05224
G1 X102.384 Y107.027 E0.05175
G1 X101.696 Y107.408 E0.02465
G1 X100.814 Y107.757 E0.02975
G1 X99.323 Y108.070 E0.04777
G1 X80.952 Y108.093 E0.57600
G1 X79.402 Y107.827 E0.04931
G1 X78.510 Y107.504 E0.02973
G1 X77.818 Y107.151 E0.02436
G1 X76.463 Y106.127 E0.05326
G1 X75.944 Y105.566 E0.02397
G1 X75.397 Y104.809 E0.02928
G1 X75.007 Y104.100 E0.02536
G1 X74.668 Y103.243 E0.02889
G1 X74.422 Y102.256 E0.03189
G1 X74.338 Y101.521 E0.02321
G1 X74.328 Y78.628 E0.71779
G1 X74.413 Y77.809 E0.02583
G1 X74.625 Y76.886 E0.02969
G1 X74.967 Y75.985 E0.03021
G1 X75.313 Y75.326 E0.02334
G1 X76.256 Y74.092 E0.04870
M204 S1250
G1 E-2.24000 F4200.00000
G1 F7200.000
G1 X77.389 Y73.119 E-0.82778
G1 X77.524 Y73.048 E-0.08422
G1 E-0.04800 F4200.00000
G1 Z0.400 F9000.000
G1 X75.644 Y75.508
G1 Z0.200
G1 E3.20000 F2400.00000
M204 S800
G1 F1200.000
G1 X76.569 Y74.300 E0.04768
G1 X77.603 Y73.430 E0.04240
G1 X78.905 Y72.741 E0.04617
G1 X80.381 Y72.344 E0.04793
G1 X81.341 Y72.273 E0.03018
G1 X98.388 Y72.273 E0.53450
G1 X99.300 Y72.306 E0.02863
G1 X100.551 Y72.554 E0.03998
G1 X101.630 Y72.981 E0.03638
G1 X102.797 Y73.726 E0.04343
G1 X103.626 Y74.511 E0.03577
G1 X104.310 Y75.436 E0.03609
G1 X104.871 Y76.572 E0.03973
G1 X105.210 Y77.828 E0.04079
G1 X105.302 Y78.915 E0.03419
G1 X105.301 Y101.183 E0.69819
G1 X105.220 Y102.094 E0.02870
G1 X105.021 Y102.980 E0.02845
G1 X104.690 Y103.859 E0.02947
G1 X104.356 Y104.492 E0.02244
G1 X103.400 Y105.732 E0.04910
G1 X102.178 Y106.711 E0.04909
G1 X101.532 Y107.069 E0.02314
G1 X100.691 Y107.401 E0.02834
G1 X99.280 Y107.695 E0.04521
G1 X80.971 Y107.716 E0.57405
G1 X79.507 Y107.465 E0.04659
G1 X78.660 Y107.157 E0.02825
G1 X77.998 Y106.820 E0.02329
G1 X76.724 Y105.856 E0.05009
G1 X75.715 Y104.606 E0.05036
G1 X75.349 Y103.940 E0.02383
G1 X75.027 Y103.126 E0.02746
G1 X74.792 Y102.183 E0.03047
G1 X74.713 Y101.484 E0.02206
G1 X74.705 Y78.645 E0.71609
G1 X74.785 Y77.872 E0.02439
G1 X74.988 Y76.991 E0.02833
G1 X75.620 Y75.562 E0.04898
M204 S1250
G1 E-2.24000 F4200.00000
G1 F7200.000
G1 X76.569 Y74.300 E-0.87507
G1 X76.620 Y74.258 E-0.03693
G1 E-0.04800 F4200.00000
G1 Z0.400 F9000.000
G1 X83.605 Y84.117
G1 Z0.200
G1 E3.20000 F2400.00000
M204 S800
G1 F1200.000
G1 X84.663 Y83.143 E0.04508
G1 X85.941 Y82.320 E0.04767
G1 X87.264 Y81.756 E0.04509
G1 X88.569 Y81.429 E0.04218
G1 X89.902 Y81.315 E0.04195
G1 X91.432 Y81.429 E0.04811
G1 X92.826 Y81.783 E0.04508
G1 X94.140 Y82.360 E0.04500
G1 X95.341 Y83.146 E0.04500
G1 X96.397 Y84.119 E0.04500
G1 X97.277 Y85.251 E0.04498
G1 X97.928 Y86.448 E0.04273
G1 X98.425 Y87.871 E0.04725
G1 X98.660 Y89.289 E0.04506
G1 X98.659 Y90.724 E0.04500
G1 X98.422 Y92.139 E0.04498
G1 X97.974 Y93.451 E0.04346
G1 X97.271 Y94.758 E0.04654
G1 X96.388 Y95.891 E0.04504
G1 X95.331 Y96.861 E0.04499
G1 X94.156 Y97.630 E0.04403
G1 X92.839 Y98.212 E0.04514
G1 X91.431 Y98.571 E0.04558
G1 X90.000 Y98.690 E0.04501
G1 X88.569 Y98.571 E0.04501
G1 X87.161 Y98.212 E0.04556
G1 X85.844 Y97.631 E0.04513
G1 X84.669 Y96.861 E0.04406
G1 X83.582 Y95.856 E0.04643
G1 X82.729 Y94.757 E0.04360
G1 X82.045 Y93.496 E0.04499
G1 X81.578 Y92.137 E0.04505
G1 X81.337 Y90.666 E0.04675
G1 X81.346 Y89.227 E0.04512
G1 X81.576 Y87.871 E0.04312
G1 X81.988 Y86.660 E0.04010
G1 X82.077 Y86.438 E0.00750
G1 X82.725 Y85.249 E0.04244
G1 X83.569 Y84.164 E0.04310
M204 S1250
G1 X83.866 Y84.396 F9000.000
M204 S800
G1 F1200.000
G1 X84.894 Y83.442 E0.04396
G1 X86.119 Y82.654 E0.04565
G1 X87.385 Y82.114 E0.04315
G1 X88.632 Y81.803 E0.04030
G1 X89.904 Y81.693 E0.04005
G1 X91.371 Y81.803 E0.04613
G1 X92.703 Y82.141 E0.04307
G1 X93.960 Y82.693 E0.04305
G1 X95.109 Y83.445 E0.04305
G1 X96.118 Y84.375 E0.04305
G1 X96.960 Y85.459 E0.04303
G1 X97.583 Y86.602 E0.04080
G1 X98.058 Y87.965 E0.04527
G1 X98.283 Y89.320 E0.04306
G1 X98.282 Y90.693 E0.04304
G1 X98.055 Y92.046 E0.04304
G1 X97.627 Y93.300 E0.04152
G1 X96.954 Y94.551 E0.04456
G1 X96.109 Y95.634 E0.04306
G1 X95.099 Y96.563 E0.04304
G1 X93.976 Y97.298 E0.04209
G1 X92.716 Y97.854 E0.04318
G1 X91.368 Y98.198 E0.04360
G1 X90.000 Y98.311 E0.04305
G1 X88.632 Y98.198 E0.04305
G1 X87.285 Y97.855 E0.04359
G1 X86.025 Y97.298 E0.04318
G1 X84.901 Y96.563 E0.04213
G1 X83.863 Y95.603 E0.04431
G1 X83.046 Y94.550 E0.04180
G1 X82.391 Y93.343 E0.04304
G1 X81.945 Y92.045 E0.04306
G1 X81.714 Y90.636 E0.04475
G1 X81.723 Y89.259 E0.04317
G1 X81.943 Y87.963 E0.04121
G1 X82.341 Y86.791 E0.03881
G1 X82.419 Y86.600 E0.00649
G1 X83.041 Y85.456 E0.04081
G1 X83.829 Y84.443 E0.04026
M204 S1250
G1 X83.746 Y84.014 F9000.000
G1 E-2.24000 F4200.00000
G1 F7200.000
G1 X84.894 Y83.442 E-0.80986
G1 X85.049 Y83.342 E-0.10214
G1 E-0.04800 F4200.00000
G1 Z0.400 F9000.000
G1 X78.188 Y84.443
G1 Z0.200
G1 E3.20000 F2400.00000
M204 S800
G1 F1200.000
G1 X78.188 Y78.550 E0.18477
G1 X78.204 Y78.318 E0.00728
G1 X78.253 Y78.037 E0.00895
G1 X78.318 Y77.808 E0.00745
G1 X78.428 Y77.532 E0.00933
G1 X78.570 Y77.269 E0.00936
G1 X78.698 Y77.083 E0.00709
G1 X78.892 Y76.856 E0.00934
G1 X79.108 Y76.657 E0.00922
G1 X79.290 Y76.522 E0.00709
G1 X79.555 Y76.366 E0.00967
G1 X79.858 Y76.236 E0.01032
G1 X80.068 Y76.170 E0.00691
G1 X80.357 Y76.111 E0.00925
G1 X80.654 Y76.089 E0.00935
G1 X99.476 Y76.094 E0.59015
G1 X99.763 Y76.131 E0.00905
G1 X100.006 Y76.191 E0.00786
G1 X100.301 Y76.297 E0.00982
G1 X100.451 Y76.369 E0.00521
G1 X100.815 Y76.598 E0.01350
G1 X101.034 Y76.783 E0.00899
G1 X101.234 Y76.997 E0.00918
G1 X101.380 Y77.193 E0.00765
G1 X101.533 Y77.452 E0.00944
G1 X101.651 Y77.720 E0.00919
G1 X101.728 Y77.961 E0.00792
G1 X101.788 Y78.254 E0.00940
G1 X101.813 Y78.621 E0.01152
G1 X101.812 Y101.450 E0.71578
G1 X101.796 Y101.682 E0.00729
G1 X101.747 Y101.963 E0.00895
G1 X101.683 Y102.189 E0.00737
G1 X101.571 Y102.471 E0.00951
G1 X101.430 Y102.731 E0.00927
G1 X101.302 Y102.917 E0.00709
G1 X101.108 Y103.144 E0.00934
G1 X100.892 Y103.343 E0.00922
G1 X100.710 Y103.478 E0.00709
G1 X100.445 Y103.634 E0.00967
G1 X100.142 Y103.764 E0.01032
G1 X99.932 Y103.830 E0.00691
G1 X99.643 Y103.889 E0.00925
G1 X99.346 Y103.911 E0.00935
G1 X80.663 Y103.912 E0.58578
G1 X80.230 Y103.867 E0.01366
G1 X79.994 Y103.809 E0.00761
G1 X79.549 Y103.631 E0.01503
G1 X79.191 Y103.406 E0.01327
G1 X78.966 Y103.217 E0.00922
G1 X78.766 Y103.003 E0.00917
G1 X78.620 Y102.807 E0.00765
G1 X78.467 Y102.548 E0.00944
G1 X78.349 Y102.280 E0.00919
G1 X78.272 Y102.039 E0.00793
G1 X78.213 Y101.748 E0.00931
G1 X78.188 Y101.432 E0.00995
G1 X78.188 Y84.503 E0.53079
M204 S1250
G1 X77.811 Y84.503 F9000.000
M204 S800
G1 F1200.000
G1 X77.811 Y78.537 E0.18705
G1 X77.829 Y78.273 E0.00831
G1 X77.885 Y77.953 E0.01018
G1 X77.960 Y77.687 E0.00865
G1 X78.086 Y77.372 E0.01065
G1 X78.248 Y77.072 E0.01069
G1 X78.399 Y76.853 E0.00833
G1 X78.620 Y76.594 E0.01067
G1 X78.868 Y76.366 E0.01055
G1 X79.081 Y76.208 E0.00833
G1 X79.384 Y76.028 E0.01106
G1 X79.727 Y75.882 E0.01168
G1 X79.974 Y75.805 E0.00811
G1 X80.305 Y75.737 E0.01059
G1 X80.640 Y75.712 E0.01053
G1 X99.503 Y75.717 E0.59144
G1 X99.832 Y75.760 E0.01041
G1 X100.115 Y75.830 E0.00913
G1 X100.446 Y75.949 E0.01102
G1 X100.633 Y76.038 E0.00649
G1 X101.038 Y76.293 E0.01503
G1 X101.295 Y76.509 E0.01051
G1 X101.524 Y76.755 E0.01053
G1 X101.694 Y76.983 E0.00894
G1 X101.869 Y77.279 E0.01077
G1 X102.004 Y77.587 E0.01053
G1 X102.093 Y77.866 E0.00918
G1 X102.162 Y78.203 E0.01081
G1 X102.190 Y78.608 E0.01272
G1 X102.189 Y101.463 E0.71658
G1 X102.171 Y101.727 E0.00833
G1 X102.115 Y102.047 E0.01018
G1 X102.040 Y102.310 E0.00857
G1 X101.913 Y102.631 E0.01082
G1 X101.752 Y102.928 E0.01059
G1 X101.601 Y103.147 E0.00833
G1 X101.380 Y103.406 E0.01067
G1 X101.132 Y103.634 E0.01055
G1 X100.919 Y103.792 E0.00833
G1 X100.616 Y103.972 E0.01106
G1 X100.273 Y104.118 E0.01168
G1 X100.026 Y104.195 E0.00811
G1 X99.695 Y104.263 E0.01059
G1 X99.360 Y104.288 E0.01053
G1 X80.644 Y104.289 E0.58684
G1 X80.165 Y104.239 E0.01508
G1 X79.885 Y104.170 E0.00905
G1 X79.554 Y104.051 E0.01102
G1 X79.367 Y103.962 E0.00650
G1 X78.968 Y103.712 E0.01478
G1 X78.705 Y103.491 E0.01075
G1 X78.476 Y103.245 E0.01053
G1 X78.306 Y103.017 E0.00894
G1 X78.131 Y102.721 E0.01077
G1 X77.996 Y102.413 E0.01053
G1 X77.907 Y102.134 E0.00919
G1 X77.838 Y101.801 E0.01066
G1 X77.811 Y101.446 E0.01115
G1 X77.811 Y84.563 E0.52938
M204 S1250
G1 X78.157 Y84.303 F9000.000
G1 E-2.24000 F4200.00000
G1 F7200.000
G1 X77.811 Y82.917 E-0.91200
G1 E-0.04800 F4200.00000
G1 Z0.400 F9000.000
G1 X88.263 Y76.204
G1 Z0.200
G1 E3.20000 F2400.00000
M204 S800
G1 F1200.000
G1 X94.087 Y82.028 E0.25955
G1 X93.131 Y81.608 E0.03290
G1 X87.896 Y76.373 E0.23328
G1 X87.360 Y76.373 E0.01689
G1 X92.360 Y81.373 E0.22280
G1 X91.642 Y81.191 E0.02335
G1 X86.824 Y76.373 E0.21469
G1 X86.288 Y76.373 E0.01689
G1 X91.031 Y81.116 E0.21135
G1 X90.451 Y81.072 E0.01830
G1 X85.752 Y76.373 E0.20943
G1 X85.216 Y76.373 E0.01689
G1 X89.876 Y81.033 E0.20770
G1 X89.383 Y81.076 E0.01561
G1 X84.680 Y76.373 E0.20959
G1 X84.144 Y76.372 E0.01689
G1 X88.889 Y81.118 E0.21149
G1 X88.523 Y81.150 E0.01160
G1 X88.412 Y81.177 E0.00358
G1 X83.608 Y76.372 E0.21413
G1 X83.071 Y76.372 E0.01689
G1 X87.984 Y81.284 E0.21892
G1 X87.555 Y81.392 E0.01393
G1 X82.535 Y76.372 E0.22370
G1 X81.999 Y76.372 E0.01689
G1 X87.132 Y81.505 E0.22875
G1 X86.756 Y81.665 E0.01287
G1 X81.463 Y76.372 E0.23589
G1 X80.927 Y76.371 E0.01689
G1 X86.381 Y81.825 E0.24304
G1 X86.005 Y81.985 E0.01287
G1 X80.411 Y76.391 E0.24930
G1 X79.978 Y76.495 E0.01401
G1 X85.653 Y82.169 E0.25288
G1 X85.327 Y82.379 E0.01222
G1 X79.610 Y76.662 E0.25478
G1 X79.288 Y76.876 E0.01218
G1 X85.001 Y82.589 E0.25458
G1 X84.675 Y82.799 E0.01222
G1 X79.019 Y77.143 E0.25205
G1 X78.793 Y77.453 E0.01209
G1 X84.369 Y83.029 E0.24850
G1 X84.090 Y83.286 E0.01195
G1 X78.619 Y77.816 E0.24379
G1 X78.505 Y78.237 E0.01377
G1 X83.811 Y83.543 E0.23644
G1 X83.532 Y83.800 E0.01195
G1 X78.471 Y78.739 E0.22554
G1 X78.471 Y79.275 E0.01689
G1 X83.276 Y84.080 E0.21413
G1 X83.041 Y84.381 E0.01204
G1 X78.471 Y79.811 E0.20368
G1 X78.471 Y80.347 E0.01689
G1 X82.807 Y84.683 E0.19323
G1 X82.572 Y84.984 E0.01204
G1 X78.471 Y80.883 E0.18278
G1 X78.471 Y81.419 E0.01689
G1 X82.367 Y85.315 E0.17363
G1 X82.178 Y85.662 E0.01245
G1 X78.471 Y81.955 E0.16521
G1 X78.471 Y82.491 E0.01689
G1 X81.989 Y86.009 E0.15679
G1 X81.804 Y86.360 E0.01250
G1 X78.471 Y83.026 E0.14854
G1 X78.471 Y83.562 E0.01689
G1 X81.658 Y86.750 E0.14205
G1 X81.522 Y87.150 E0.01331
G1 X78.471 Y84.098 E0.13599
G1 X78.471 Y84.634 E0.01689
G1 X81.386 Y87.550 E0.12993
G1 X81.301 Y87.801 E0.00837
G1 X81.272 Y87.971 E0.00544
G1 X78.471 Y85.170 E0.12483
G1 X78.471 Y85.706 E0.01689
G1 X81.194 Y88.430 E0.12138
G1 X81.117 Y88.888 E0.01465
G1 X78.471 Y86.242 E0.11792
G1 X78.471 Y86.778 E0.01689
G1 X81.063 Y89.370 E0.11551
G1 X81.059 Y89.903 E0.01678
G1 X78.471 Y87.314 E0.11536
G1 X78.471 Y87.850 E0.01689
G1 X81.056 Y90.435 E0.11521
G1 X81.054 Y90.688 E0.00796
G1 X81.109 Y91.024 E0.01075
G1 X78.471 Y88.386 E0.11759
G1 X78.471 Y88.922 E0.01689
G1 X81.214 Y91.665 E0.12225
G1 X81.302 Y92.206 E0.01729
G1 X81.346 Y92.333 E0.00422
G1 X78.471 Y89.458 E0.12813
G1 X78.471 Y89.994 E0.01689
G1 X81.627 Y93.150 E0.14066
G1 X81.785 Y93.610 E0.01532
G1 X82.063 Y94.122 E0.01834
G1 X78.471 Y90.530 E0.16007
G1 X78.471 Y91.066 E0.01689
G1 X91.034 Y103.629 E0.55987
G1 X91.570 Y103.629 E0.01689
G1 X85.910 Y97.969 E0.25223
G1 X86.870 Y98.393 E0.03306
G1 X92.106 Y103.629 E0.23334
G1 X92.642 Y103.629 E0.01689
G1 X87.639 Y98.626 E0.22295
G1 X88.358 Y98.809 E0.02339
G1 X93.178 Y103.629 E0.21478
G1 X93.714 Y103.629 E0.01689
G1 X88.973 Y98.888 E0.21125
G1 X89.558 Y98.937 E0.01848
G1 X94.249 Y103.629 E0.20909
G1 X94.785 Y103.629 E0.01689
G1 X90.120 Y98.964 E0.20790
G1 X90.615 Y98.923 E0.01565
G1 X95.321 Y103.629 E0.20973
G1 X95.857 Y103.629 E0.01689
G1 X91.110 Y98.882 E0.21155
G1 X91.478 Y98.851 E0.01162
G1 X91.588 Y98.823 E0.00358
G1 X96.393 Y103.629 E0.21416
G1 X96.929 Y103.629 E0.01689
G1 X92.015 Y98.714 E0.21901
G1 X92.442 Y98.605 E0.01389
G1 X97.465 Y103.629 E0.22386
G1 X98.001 Y103.629 E0.01689
G1 X92.869 Y98.496 E0.22872
G1 X93.249 Y98.340 E0.01294
G1 X98.537 Y103.629 E0.23567
G1 X99.073 Y103.629 E0.01689
G1 X93.621 Y98.176 E0.24299
G1 X93.992 Y98.012 E0.01281
G1 X99.589 Y103.609 E0.24943
G1 X100.022 Y103.505 E0.01401
G1 X94.355 Y97.838 E0.25254
G1 X94.679 Y97.626 E0.01220
G1 X100.390 Y103.338 E0.25454
M73 P1 R96
G1 X100.711 Y103.125 E0.01214
G1 X95.003 Y97.414 E0.25443
G1 X95.327 Y97.202 E0.01220
G1 X100.981 Y102.857 E0.25199
G1 X101.077 Y102.745 E0.00465
G1 X101.207 Y102.547 E0.00746
G1 X95.631 Y96.970 E0.24853
G1 X95.910 Y96.714 E0.01195
G1 X101.380 Y102.184 E0.24379
G1 X101.471 Y101.900 E0.00941
G1 X101.495 Y101.763 E0.00438
G1 X96.189 Y96.457 E0.23644
G1 X96.468 Y96.201 E0.01195
G1 X101.529 Y101.261 E0.22553
G1 X101.529 Y100.725 E0.01689
G1 X96.724 Y95.920 E0.21416
G1 X96.958 Y95.619 E0.01203
G1 X101.529 Y100.189 E0.20369
G1 X101.529 Y99.653 E0.01689
G1 X97.193 Y95.317 E0.19323
G1 X97.428 Y95.016 E0.01203
G1 X101.529 Y99.117 E0.18277
G1 X101.529 Y98.582 E0.01689
G1 X97.632 Y94.684 E0.17369
G1 X97.819 Y94.336 E0.01247
G1 X101.529 Y98.046 E0.16534
G1 X101.529 Y97.510 E0.01689
G1 X98.007 Y93.987 E0.15699
G1 X98.194 Y93.639 E0.01247
G1 X101.529 Y96.974 E0.14863
G1 X101.529 Y96.438 E0.01689
G1 X98.341 Y93.250 E0.14207
G1 X98.478 Y92.850 E0.01330
G1 X101.529 Y95.902 E0.13599
G1 X101.529 Y95.366 E0.01689
G1 X98.614 Y92.451 E0.12991
G1 X98.697 Y92.209 E0.00806
G1 X98.727 Y92.028 E0.00578
G1 X101.529 Y94.830 E0.12488
G1 X101.529 Y94.294 E0.01689
G1 X98.804 Y91.569 E0.12145
G1 X98.881 Y91.110 E0.01467
G1 X101.529 Y93.758 E0.11802
G1 X101.529 Y93.222 E0.01689
G1 X98.942 Y90.635 E0.11531
G1 X98.942 Y90.099 E0.01688
G1 X101.529 Y92.686 E0.11530
G1 X101.529 Y92.150 E0.01689
G1 X98.943 Y89.564 E0.11528
G1 X98.943 Y89.266 E0.00939
G1 X98.896 Y88.981 E0.00911
G1 X101.530 Y91.614 E0.11738
G1 X101.530 Y91.079 E0.01689
G1 X98.789 Y88.338 E0.12214
G1 X98.700 Y87.801 E0.01714
G1 X98.652 Y87.665 E0.00453
G1 X101.530 Y90.543 E0.12822
G1 X101.530 Y90.007 E0.01689
G1 X98.365 Y86.842 E0.14101
