; generated by PrusaSlicer 2.2.0+win64 on 2020-12-14 at 23:39:56 UTC


;
;

;
;
; 

; external perimeters extrusion width = 0.45mm
; perimeters extrusion width = 0.45mm
; infill extrusion width = 0.45mm
; solid infill extrusion width = 0.45mm
; top infill extrusion width = 0.40mm
; first layer extrusion width = 0.42mm

M73 P0 R129
M201 X1250 Y1250 Z400 E5000 ; sets maximum accelerations, mm/sec^2
M203 X180 Y180 Z12 E80 ; sets maximum feedrates, mm/sec
M204 P1250 R1250 T1250 ; sets acceleration (P, T) and retract acceleration (R), mm/sec^2
M205 X8.00 Y8.00 Z2.00 E10.00 ; sets the jerk limits, mm/sec
M205 S0 T0 ; sets the minimum extruding and travel feed rate, mm/sec
M107
G90 ; use absolute coordinates
M83 ; extruder relative mode
M104 S170 ; set extruder temp for bed leveling
M140 S60 ; set bed temp
M109 R170 ; wait for bed leveling temp
M190 S60 ; wait for bed temp
G28 ; home all without mesh bed level
G29 ; mesh bed leveling 
M104 S215 ; set extruder temp
G92 E0.0
G1 Y-2.0 X179 F2400
G1 Z3 F720
M109 S215 ; wait for extruder temp

; intro line
G1 X170 F1000
G1 Z0.2 F720
G1 X110.0 E8.0 F900
M73 P0 R129
G1 X40.0 E10.0 F700
G92 E0.0

M221 S95 ; set flow
G21 ; set units to millimeters
G90 ; use absolute coordinates
M83 ; use relative distances for extrusion
M900 K0.2 ; Filament gcode LA 1.5
; ; Filament gcode LA 1.0
;BEFORE_LAYER_CHANGE
G92 E0.0
;0.2


G1 Z0.200 F9000.000
;AFTER_LAYER_CHANGE
;0.2
G1 E-3.20000 F4200.00000
G1 Z0.400 F9000.000
G1 X40.480 Y69.388
G1 Z0.200
G1 E3.20000 F2400.00000
M204 S800
G1 F1200.000
G1 X41.459 Y68.973 E0.03333
G1 X42.668 Y68.669 E0.03909
G1 X43.839 Y68.573 E0.03682
G1 X136.154 Y68.573 E2.89448
G1 X137.332 Y68.669 E0.03708
G1 X138.601 Y68.997 E0.04109
G1 X139.497 Y69.377 E0.03052
G1 X140.350 Y69.890 E0.03122
G1 X141.353 Y70.720 E0.04081
G1 X142.130 Y71.631 E0.03755
G1 X142.790 Y72.746 E0.04060
G1 X143.165 Y73.667 E0.03118
G1 X143.401 Y74.617 E0.03069
G1 X143.523 Y75.817 E0.03782
G1 X143.527 Y104.058 E0.88547
G1 X143.442 Y105.166 E0.03487
G1 X143.175 Y106.301 E0.03653
G1 X142.794 Y107.246 E0.03195
G1 X142.017 Y108.515 E0.04667
G1 X141.350 Y109.282 E0.03188
G1 X140.484 Y110.019 E0.03565
G1 X139.520 Y110.612 E0.03550
G1 X138.541 Y111.027 E0.03333
G1 X137.327 Y111.333 E0.03927
G1 X136.161 Y111.427 E0.03665
G1 X43.743 Y111.425 E2.89770
G1 X42.677 Y111.333 E0.03355
G1 X41.556 Y111.061 E0.03618
G1 X40.503 Y110.623 E0.03577
G1 X39.514 Y110.018 E0.03635
G1 X38.636 Y109.269 E0.03618
G1 X37.897 Y108.406 E0.03565
G1 X37.290 Y107.423 E0.03621
G1 X36.873 Y106.441 E0.03345
G1 X36.567 Y105.227 E0.03926
G1 X36.473 Y104.073 E0.03630
G1 X36.473 Y75.942 E0.88201
G1 X36.552 Y74.879 E0.03344
G1 X36.822 Y73.707 E0.03772
G1 X37.203 Y72.761 E0.03195
G1 X37.978 Y71.491 E0.04667
G1 X38.650 Y70.718 E0.03212
G1 X39.513 Y69.983 E0.03553
G1 X40.429 Y69.419 E0.03374
M204 S1250
G1 E-2.24000 F4200.00000
G1 F7200.000
G1 X41.459 Y68.973 E-0.62189
G1 X41.967 Y68.845 E-0.29011
G1 E-0.04800 F4200.00000
G1 Z0.400 F9000.000
G1 X131.566 Y101.396
G1 Z0.200
G1 E3.20000 F2400.00000
M204 S800
G1 F1200.000
G1 X131.828 Y100.928 E0.01683
G1 X132.165 Y100.510 E0.01683
G1 X132.568 Y100.155 E0.01683
G1 X133.025 Y99.874 E0.01683
G1 X133.523 Y99.674 E0.01683
G1 X134.048 Y99.561 E0.01683
G1 X134.536 Y99.540 E0.01531
G1 X135.112 Y99.605 E0.01819
G1 X135.630 Y99.763 E0.01697
G1 X136.109 Y100.005 E0.01683
G1 X136.541 Y100.324 E0.01683
G1 X136.912 Y100.712 E0.01683
G1 X137.213 Y101.156 E0.01683
G1 X137.434 Y101.646 E0.01683
G1 X137.569 Y102.165 E0.01683
G1 X137.615 Y102.700 E0.01683
G1 X137.569 Y103.235 E0.01683
G1 X137.434 Y103.754 E0.01683
G1 X137.213 Y104.244 E0.01683
G1 X136.912 Y104.688 E0.01683
G1 X136.575 Y105.041 E0.01531
G1 X136.113 Y105.393 E0.01819
G1 X135.630 Y105.637 E0.01697
G1 X135.117 Y105.794 E0.01683
G1 X134.584 Y105.862 E0.01683
G1 X134.048 Y105.839 E0.01683
G1 X133.523 Y105.726 E0.01683
G1 X133.025 Y105.526 E0.01683
G1 X132.568 Y105.245 E0.01683
G1 X132.165 Y104.890 E0.01683
G1 X131.828 Y104.472 E0.01683
G1 X131.566 Y104.004 E0.01683
G1 X131.387 Y103.497 E0.01683
G1 X131.299 Y102.985 E0.01630
G1 X131.287 Y102.700 E0.00894
G1 X131.299 Y102.415 E0.00894
G1 X131.387 Y101.903 E0.01630
G1 X131.546 Y101.453 E0.01495
M204 S1250
G1 X131.902 Y101.579 F9000.000
M204 S800
G1 F1200.000
G1 X132.141 Y101.140 E0.01568
G1 X132.438 Y100.772 E0.01482
G1 X132.793 Y100.460 E0.01482
G1 X133.196 Y100.212 E0.01482
G1 X133.634 Y100.036 E0.01482
G1 X134.096 Y99.936 E0.01482
G1 X134.523 Y99.918 E0.01339
G1 X135.035 Y99.976 E0.01618
G1 X135.489 Y100.114 E0.01487
G1 X135.911 Y100.327 E0.01482
G1 X136.291 Y100.608 E0.01482
G1 X136.618 Y100.949 E0.01482
G1 X136.883 Y101.341 E0.01482
G1 X137.077 Y101.772 E0.01482
G1 X137.196 Y102.229 E0.01482
G1 X137.236 Y102.700 E0.01482
G1 X137.196 Y103.171 E0.01482
G1 X137.077 Y103.628 E0.01482
G1 X136.883 Y104.059 E0.01482
G1 X136.618 Y104.451 E0.01482
G1 X136.322 Y104.759 E0.01339
G1 X135.912 Y105.072 E0.01618
G1 X135.489 Y105.286 E0.01487
G1 X135.037 Y105.424 E0.01482
G1 X134.568 Y105.484 E0.01482
G1 X134.096 Y105.464 E0.01482
G1 X133.634 Y105.364 E0.01482
G1 X133.196 Y105.188 E0.01482
G1 X132.793 Y104.940 E0.01482
G1 X132.438 Y104.628 E0.01482
G1 X132.141 Y104.260 E0.01482
G1 X131.911 Y103.848 E0.01482
G1 X131.753 Y103.402 E0.01482
G1 X131.675 Y102.945 E0.01454
G1 X131.665 Y102.700 E0.00769
G1 X131.675 Y102.455 E0.00769
G1 X131.753 Y101.998 E0.01454
G1 X131.882 Y101.635 E0.01206
M204 S1250
G1 X131.666 Y101.255 F9000.000
G1 E-2.24000 F4200.00000
G1 F7200.000
G1 X132.141 Y101.140 E-0.31003
G1 X132.438 Y100.772 E-0.26191
G1 X132.793 Y100.460 E-0.26191
G1 X132.913 Y100.386 E-0.07815
G1 E-0.04800 F4200.00000
G1 Z0.400 F9000.000
G1 X134.048 Y80.439
G1 Z0.200
G1 E3.20000 F2400.00000
M204 S800
G1 F1200.000
G1 X133.523 Y80.326 E0.01683
G1 X133.025 Y80.126 E0.01683
G1 X132.568 Y79.845 E0.01683
G1 X132.165 Y79.490 E0.01683
G1 X131.828 Y79.072 E0.01683
G1 X131.566 Y78.604 E0.01683
G1 X131.387 Y78.097 E0.01683
G1 X131.299 Y77.585 E0.01630
G1 X131.299 Y77.015 E0.01787
G1 X131.387 Y76.503 E0.01630
G1 X131.566 Y75.996 E0.01683
G1 X131.828 Y75.528 E0.01683
G1 X132.165 Y75.110 E0.01683
G1 X132.568 Y74.755 E0.01683
G1 X133.025 Y74.474 E0.01683
G1 X133.523 Y74.274 E0.01683
G1 X134.048 Y74.161 E0.01683
G1 X134.536 Y74.140 E0.01531
G1 X135.112 Y74.205 E0.01819
G1 X135.630 Y74.363 E0.01697
G1 X136.109 Y74.605 E0.01683
G1 X136.541 Y74.924 E0.01683
G1 X136.912 Y75.312 E0.01683
G1 X137.213 Y75.756 E0.01683
G1 X137.434 Y76.246 E0.01683
G1 X137.569 Y76.765 E0.01683
G1 X137.615 Y77.300 E0.01683
G1 X137.569 Y77.835 E0.01683
G1 X137.434 Y78.354 E0.01683
G1 X137.213 Y78.844 E0.01683
G1 X136.912 Y79.288 E0.01683
G1 X136.575 Y79.641 E0.01531
G1 X136.113 Y79.993 E0.01819
G1 X135.630 Y80.237 E0.01697
G1 X135.117 Y80.394 E0.01683
G1 X134.584 Y80.462 E0.01683
G1 X134.108 Y80.442 E0.01495
M204 S1250
G1 X134.124 Y80.065 F9000.000
M204 S800
G1 F1200.000
G1 X133.634 Y79.964 E0.01568
G1 X133.196 Y79.788 E0.01482
G1 X132.793 Y79.540 E0.01482
G1 X132.438 Y79.228 E0.01482
G1 X132.141 Y78.860 E0.01482
G1 X131.911 Y78.448 E0.01482
G1 X131.753 Y78.002 E0.01482
G1 X131.675 Y77.545 E0.01454
G1 X131.675 Y77.055 E0.01536
G1 X131.753 Y76.598 E0.01454
G1 X131.911 Y76.152 E0.01482
G1 X132.141 Y75.740 E0.01482
G1 X132.438 Y75.372 E0.01482
G1 X132.793 Y75.060 E0.01482
G1 X133.196 Y74.812 E0.01482
G1 X133.634 Y74.636 E0.01482
G1 X134.096 Y74.536 E0.01482
G1 X134.523 Y74.518 E0.01339
G1 X135.035 Y74.576 E0.01618
G1 X135.489 Y74.714 E0.01487
G1 X135.911 Y74.927 E0.01482
G1 X136.291 Y75.208 E0.01482
G1 X136.618 Y75.549 E0.01482
G1 X136.883 Y75.941 E0.01482
G1 X137.077 Y76.372 E0.01482
G1 X137.196 Y76.829 E0.01482
G1 X137.236 Y77.300 E0.01482
G1 X137.196 Y77.771 E0.01482
G1 X137.077 Y78.228 E0.01482
G1 X136.883 Y78.659 E0.01482
G1 X136.618 Y79.051 E0.01482
G1 X136.322 Y79.359 E0.01339
G1 X135.912 Y79.672 E0.01618
G1 X135.489 Y79.886 E0.01487
G1 X135.037 Y80.024 E0.01482
G1 X134.568 Y80.084 E0.01482
G1 X134.184 Y80.068 E0.01206
M204 S1250
G1 X133.884 Y80.385 F9000.000
G1 E-2.24000 F4200.00000
G1 F7200.000
G1 X133.634 Y79.964 E-0.31003
G1 X133.196 Y79.788 E-0.26191
G1 X132.793 Y79.540 E-0.26191
G1 X132.687 Y79.447 E-0.07815
G1 E-0.04800 F4200.00000
G1 Z0.400 F9000.000
G1 X48.715 Y77.300
G1 Z0.200
G1 E3.20000 F2400.00000
M204 S800
G1 F1200.000
G1 X48.669 Y77.835 E0.01683
G1 X48.534 Y78.354 E0.01683
G1 X48.313 Y78.844 E0.01683
G1 X48.012 Y79.288 E0.01683
G1 X47.675 Y79.641 E0.01531
G1 X47.213 Y79.993 E0.01819
G1 X46.730 Y80.237 E0.01697
G1 X46.217 Y80.394 E0.01683
G1 X45.684 Y80.462 E0.01683
G1 X45.148 Y80.439 E0.01683
G1 X44.623 Y80.326 E0.01683
G1 X44.125 Y80.126 E0.01683
G1 X43.668 Y79.845 E0.01683
G1 X43.265 Y79.490 E0.01683
G1 X42.928 Y79.072 E0.01683
G1 X42.666 Y78.604 E0.01683
G1 X42.487 Y78.097 E0.01683
G1 X42.399 Y77.585 E0.01630
G1 X42.387 Y77.300 E0.00894
G1 X42.399 Y77.015 E0.00894
G1 X42.487 Y76.503 E0.01630
G1 X42.666 Y75.996 E0.01683
G1 X42.928 Y75.528 E0.01683
G1 X43.265 Y75.110 E0.01683
G1 X43.668 Y74.755 E0.01683
G1 X44.125 Y74.474 E0.01683
G1 X44.623 Y74.274 E0.01683
G1 X45.148 Y74.161 E0.01683
G1 X45.636 Y74.140 E0.01531
G1 X46.212 Y74.205 E0.01819
G1 X46.730 Y74.363 E0.01697
G1 X47.209 Y74.605 E0.01683
G1 X47.641 Y74.924 E0.01683
G1 X48.012 Y75.312 E0.01683
G1 X48.313 Y75.756 E0.01683
G1 X48.534 Y76.246 E0.01683
G1 X48.669 Y76.765 E0.01683
G1 X48.710 Y77.240 E0.01495
M204 S1250
G1 X48.334 Y77.272 F9000.000
M204 S800
G1 F1200.000
G1 X48.296 Y77.771 E0.01568
G1 X48.177 Y78.228 E0.01482
G1 X47.983 Y78.659 E0.01482
G1 X47.718 Y79.051 E0.01482
G1 X47.422 Y79.359 E0.01339
G1 X47.012 Y79.672 E0.01618
G1 X46.589 Y79.886 E0.01487
G1 X46.137 Y80.024 E0.01482
G1 X45.668 Y80.084 E0.01482
G1 X45.196 Y80.064 E0.01482
G1 X44.734 Y79.964 E0.01482
G1 X44.296 Y79.788 E0.01482
G1 X43.893 Y79.540 E0.01482
G1 X43.538 Y79.228 E0.01482
G1 X43.241 Y78.860 E0.01482
G1 X43.011 Y78.448 E0.01482
G1 X42.853 Y78.002 E0.01482
G1 X42.775 Y77.545 E0.01454
G1 X42.765 Y77.300 E0.00769
G1 X42.775 Y77.055 E0.00769
G1 X42.853 Y76.598 E0.01454
G1 X43.011 Y76.152 E0.01482
G1 X43.241 Y75.740 E0.01482
G1 X43.538 Y75.372 E0.01482
G1 X43.893 Y75.060 E0.01482
G1 X44.296 Y74.812 E0.01482
G1 X44.734 Y74.636 E0.01482
G1 X45.196 Y74.536 E0.01482
G1 X45.623 Y74.518 E0.01339
G1 X46.135 Y74.576 E0.01618
G1 X46.589 Y74.714 E0.01487
G1 X47.011 Y74.927 E0.01482
G1 X47.391 Y75.208 E0.01482
G1 X47.718 Y75.549 E0.01482
G1 X47.983 Y75.941 E0.01482
G1 X48.177 Y76.372 E0.01482
G1 X48.296 Y76.829 E0.01482
G1 X48.329 Y77.212 E0.01206
M204 S1250
G1 X48.682 Y77.470 F9000.000
G1 E-2.24000 F4200.00000
G1 F7200.000
G1 X48.296 Y77.771 E-0.31003
G1 X48.177 Y78.228 E-0.26191
G1 X47.983 Y78.659 E-0.26191
G1 X47.904 Y78.776 E-0.07814
G1 E-0.04800 F4200.00000
G1 Z0.400 F9000.000
G1 X46.212 Y99.605
G1 Z0.200
G1 E3.20000 F2400.00000
M204 S800
G1 F1200.000
G1 X46.730 Y99.763 E0.01697
G1 X47.209 Y100.005 E0.01683
G1 X47.641 Y100.324 E0.01683
G1 X48.012 Y100.712 E0.01683
G1 X48.313 Y101.156 E0.01683
G1 X48.534 Y101.646 E0.01683
G1 X48.669 Y102.165 E0.01683
G1 X48.715 Y102.700 E0.01683
G1 X48.669 Y103.235 E0.01683
G1 X48.534 Y103.754 E0.01683
G1 X48.313 Y104.244 E0.01683
G1 X48.012 Y104.688 E0.01683
G1 X47.675 Y105.041 E0.01531
G1 X47.213 Y105.393 E0.01819
G1 X46.730 Y105.637 E0.01697
G1 X46.217 Y105.794 E0.01683
G1 X45.684 Y105.862 E0.01683
G1 X45.148 Y105.839 E0.01683
G1 X44.623 Y105.726 E0.01683
G1 X44.125 Y105.526 E0.01683
G1 X43.668 Y105.245 E0.01683
G1 X43.265 Y104.890 E0.01683
G1 X42.928 Y104.472 E0.01683
G1 X42.666 Y104.004 E0.01683
G1 X42.487 Y103.497 E0.01683
G1 X42.399 Y102.985 E0.01630
G1 X42.399 Y102.415 E0.01787
G1 X42.487 Y101.903 E0.01630
G1 X42.666 Y101.396 E0.01683
G1 X42.928 Y100.928 E0.01683
G1 X43.265 Y100.510 E0.01683
G1 X43.668 Y100.155 E0.01683
G1 X44.125 Y99.874 E0.01683
G1 X44.623 Y99.674 E0.01683
G1 X45.148 Y99.561 E0.01683
G1 X45.636 Y99.540 E0.01531
G1 X46.153 Y99.598 E0.01631
M204 S1250
G1 X46.111 Y99.973 F9000.000
M204 S800
G1 F1200.000
G1 X46.589 Y100.114 E0.01564
G1 X47.011 Y100.327 E0.01482
G1 X47.391 Y100.608 E0.01482
G1 X47.718 Y100.949 E0.01482
G1 X47.983 Y101.341 E0.01482
G1 X48.177 Y101.772 E0.01482
G1 X48.296 Y102.229 E0.01482
G1 X48.336 Y102.700 E0.01482
G1 X48.296 Y103.171 E0.01482
G1 X48.177 Y103.628 E0.01482
G1 X47.983 Y104.059 E0.01482
G1 X47.718 Y104.451 E0.01482
G1 X47.422 Y104.759 E0.01339
G1 X47.012 Y105.072 E0.01618
G1 X46.589 Y105.286 E0.01487
G1 X46.137 Y105.424 E0.01482
G1 X45.668 Y105.484 E0.01482
G1 X45.196 Y105.464 E0.01482
G1 X44.734 Y105.364 E0.01482
G1 X44.296 Y105.188 E0.01482
G1 X43.893 Y104.940 E0.01482
G1 X43.538 Y104.628 E0.01482
G1 X43.241 Y104.260 E0.01482
G1 X43.011 Y103.848 E0.01482
G1 X42.853 Y103.402 E0.01482
G1 X42.775 Y102.945 E0.01454
G1 X42.775 Y102.455 E0.01536
G1 X42.853 Y101.998 E0.01454
G1 X43.011 Y101.552 E0.01482
G1 X43.241 Y101.140 E0.01482
G1 X43.538 Y100.772 E0.01482
G1 X43.893 Y100.460 E0.01482
G1 X44.296 Y100.212 E0.01482
G1 X44.734 Y100.036 E0.01482
G1 X45.196 Y99.936 E0.01482
G1 X45.623 Y99.918 E0.01339
G1 X46.051 Y99.966 E0.01351
M204 S1250
G1 X46.377 Y99.674 F9000.000
G1 E-2.24000 F4200.00000
G1 F7200.000
G1 X46.589 Y100.114 E-0.30922
G1 X47.011 Y100.327 E-0.26191
G1 X47.391 Y100.608 E-0.26191
G1 X47.490 Y100.711 E-0.07896
G1 E-0.04800 F4200.00000
G1 Z0.400 F9000.000
G1 X86.593 Y108.233
G1 Z0.200
G1 E3.20000 F2400.00000
M204 S800
G1 F1200.000
G1 X86.532 Y108.252 E0.00201
G1 X43.881 Y108.263 E1.33730
G1 X43.191 Y108.209 E0.02169
G1 X42.549 Y108.054 E0.02072
G1 X41.938 Y107.802 E0.02072
G1 X41.375 Y107.456 E0.02072
G1 X40.873 Y107.027 E0.02072
G1 X40.444 Y106.525 E0.02072
G1 X40.098 Y105.962 E0.02072
G1 X39.846 Y105.351 E0.02072
G1 X39.691 Y104.709 E0.02072
G1 X39.637 Y104.019 E0.02169
G1 X39.637 Y75.981 E0.87912
G1 X39.691 Y75.291 E0.02169
G1 X39.846 Y74.649 E0.02072
G1 X40.098 Y74.038 E0.02072
G1 X40.444 Y73.475 E0.02072
G1 X40.873 Y72.973 E0.02072
G1 X41.375 Y72.544 E0.02072
G1 X41.938 Y72.198 E0.02072
G1 X42.549 Y71.946 E0.02072
G1 X43.191 Y71.791 E0.02072
G1 X43.881 Y71.737 E0.02169
G1 X86.532 Y71.748 E1.33730
G1 X86.645 Y71.805 E0.00397
G1 X86.703 Y71.919 E0.00401
G1 X86.713 Y74.634 E0.08512
G1 X86.755 Y75.141 E0.01598
G1 X86.888 Y75.668 E0.01704
G1 X87.107 Y76.166 E0.01704
G1 X87.404 Y76.621 E0.01704
G1 X87.772 Y77.020 E0.01704
G1 X88.201 Y77.354 E0.01704
G1 X88.679 Y77.613 E0.01704
G1 X89.192 Y77.789 E0.01704
G1 X89.728 Y77.879 E0.01704
G1 X90.272 Y77.879 E0.01704
G1 X90.808 Y77.789 E0.01704
G1 X91.321 Y77.613 E0.01704
G1 X91.799 Y77.354 E0.01704
G1 X92.228 Y77.020 E0.01704
G1 X92.596 Y76.621 E0.01704
G1 X92.893 Y76.166 E0.01704
G1 X93.112 Y75.668 E0.01704
G1 X93.245 Y75.141 E0.01704
G1 X93.287 Y74.634 E0.01598
G1 X93.297 Y71.919 E0.08512
G1 X93.355 Y71.805 E0.00401
G1 X93.468 Y71.748 E0.00397
G1 X136.119 Y71.737 E1.33730
G1 X136.809 Y71.791 E0.02169
G1 X137.451 Y71.946 E0.02072
G1 X138.062 Y72.198 E0.02072
G1 X138.625 Y72.544 E0.02072
G1 X139.127 Y72.973 E0.02072
G1 X139.556 Y73.475 E0.02072
G1 X139.902 Y74.038 E0.02072
G1 X140.154 Y74.649 E0.02072
G1 X140.309 Y75.291 E0.02072
G1 X140.363 Y75.981 E0.02169
G1 X140.363 Y104.019 E0.87912
G1 X140.309 Y104.709 E0.02169
G1 X140.154 Y105.351 E0.02072
G1 X139.902 Y105.962 E0.02072
G1 X139.556 Y106.525 E0.02072
G1 X139.127 Y107.027 E0.02072
G1 X138.625 Y107.456 E0.02072
G1 X138.062 Y107.802 E0.02072
G1 X137.451 Y108.054 E0.02072
G1 X136.809 Y108.209 E0.02072
G1 X136.119 Y108.263 E0.02169
G1 X93.468 Y108.252 E1.33730
G1 X93.355 Y108.195 E0.00397
G1 X93.297 Y108.081 E0.00401
G1 X93.287 Y105.366 E0.08512
G1 X93.245 Y104.859 E0.01598
G1 X93.112 Y104.332 E0.01704
G1 X92.893 Y103.834 E0.01704
G1 X92.596 Y103.379 E0.01704
G1 X92.228 Y102.980 E0.01704
G1 X91.799 Y102.646 E0.01704
G1 X91.321 Y102.387 E0.01704
G1 X90.808 Y102.211 E0.01704
G1 X90.272 Y102.121 E0.01704
G1 X89.728 Y102.121 E0.01704
G1 X89.192 Y102.211 E0.01704
G1 X88.679 Y102.387 E0.01704
G1 X88.201 Y102.646 E0.01704
G1 X87.772 Y102.980 E0.01704
G1 X87.404 Y103.379 E0.01704
G1 X87.107 Y103.834 E0.01704
G1 X86.888 Y104.332 E0.01704
G1 X86.755 Y104.859 E0.01704
G1 X86.713 Y105.366 E0.01598
G1 X86.703 Y108.081 E0.08512
